Packages/FeatureMedia/Sources/FeatureMedia/Resources/LUTs/cinematic.cube
TITLE "Cinematic"
LUT_3D_SIZE 5
DOMAIN_MIN 0.0 0.0 0.0
DOMAIN_MAX 1.0 1.0 1.0
0.008500 0.000000 0.000000
0.260451 0.000000 0.000000
0.512402 0.011162 0.000000
0.764353 0.030918 0.004047
1.000000 0.050673 0.019413
0.082344 0.278110 0.009641
0.334295 0.297866 0.025007
0.586246 0.317622 0.040372
0.838197 0.337378 0.055738
1.000000 0.357133 0.071104
0.156189 0.584570 0.061332
0.408140 0.604326 0.076698
0.660091 0.624082 0.092063
0.912042 0.643837 0.107429
1.000000 0.663593 0.122795
0.230033 0.891030 0.113023
0.481984 0.910786 0.128389
0.733935 0.930542 0.143755
0.985886 0.950297 0.159120
1.000000 0.970053 0.174486
0.303878 1.000000 0.164714
0.555829 1.000000 0.180080
0.807779 1.000000 0.195446
1.000000 1.000000 0.210811
1.000000 1.000000 0.226177
0.015955 0.000000 0.233168
0.267906 0.000000 0.248534
0.519857 0.017871 0.263900
0.771808 0.037627 0.279265
1.000000 0.057383 0.294631
0.089799 0.284819 0.284859
0.341750 0.304575 0.300225
0.593701 0.324331 0.315591
0.845652 0.344087 0.330956
1.000000 0.363843 0.346322
0.163643 0.591279 0.336550
0.415594 0.611035 0.351916
0.667545 0.630791 0.367282
0.919496 0.650547 0.382647
1.000000 0.670303 0.398013
0.237488 0.897739 0.388241
0.489439 0.917495 0.403607
0.741390 0.937251 0.418973
0.993341 0.957007 0.434338
1.000000 0.976762 0.449704
0.311332 1.000000 0.439933
0.563283 1.000000 0.455298
0.815234 1.000000 0.470664
1.000000 1.000000 0.486030
1.000000 1.000000 0.501395
0.023409 0.000000 0.508387
0.275360 0.004824 0.523752
0.527311 0.024580 0.539118
0.779262 0.044336 0.554484
1.000000 0.064092 0.569849
0.097254 0.291528 0.560078
0.349205 0.311284 0.575443
0.601156 0.331040 0.590809
0.853107 0.350796 0.606175
1.000000 0.370552 0.621540
0.171098 0.597988 0.611769
0.423049 0.617744 0.627134
0.675000 0.637500 0.642500
0.926951 0.657256 0.657866
1.000000 0.677012 0.673231
0.244943 0.904448 0.663460
0.496893 0.924204 0.678825
0.748844 0.943960 0.694191
1.000000 0.963716 0.709557
1.000000 0.983472 0.724922
0.318787 1.000000 0.715151
0.570738 1.000000 0.730516
0.822689 1.000000 0.745882
1.000000 1.000000 0.761248
1.000000 1.000000 0.776613
0.030864 0.000000 0.783605
0.282815 0.011533 0.798970
0.534766 0.031289 0.814336
0.786717 0.051045 0.829702
1.000000 0.070801 0.845067
0.104708 0.298238 0.835296
0.356659 0.317993 0.850662
0.608610 0.337749 0.866027
0.860561 0.357505 0.881393
1.000000 0.377261 0.896759
0.178553 0.604697 0.886987
0.430504 0.624453 0.902353
0.682455 0.644209 0.917718
0.934406 0.663965 0.933084
1.000000 0.683721 0.948450
0.252397 0.911157 0.938678
0.504348 0.930913 0.954044
0.756299 0.950669 0.969409
1.000000 0.970425 0.984775
1.000000 0.990181 1.000000
0.326242 1.000000 0.990369
0.578192 1.000000 1.000000
0.830143 1.000000 1.000000
1.000000 1.000000 1.000000
1.000000 1.000000 1.000000
0.038319 0.000000 1.000000
0.290270 0.018243 1.000000
0.542221 0.037998 1.000000
0.794171 0.057754 1.000000
1.000000 0.077510 1.000000
0.112163 0.304947 1.000000
0.364114 0.324703 1.000000
0.616065 0.344458 1.000000
0.868016 0.364214 1.000000
1.000000 0.383970 1.000000
0.186007 0.611407 1.000000
0.437958 0.631163 1.000000
0.689909 0.650918 1.000000
0.941860 0.670674 1.000000
1.000000 0.690430 1.000000
0.259852 0.917867 1.000000
0.511803 0.937622 1.000000
0.763754 0.957378 1.000000
1.000000 0.977134 1.000000
1.000000 0.996890 1.000000
0.333696 1.000000 1.000000
0.585647 1.000000 1.000000
0.837598 1.000000 1.000000
1.000000 1.000000 1.000000
1.000000 1.000000 1.000000
