Packages/FeatureMedia/Sources/FeatureMedia/Resources/LUTs/cinematic.cube
TITLE "Cinematic"
LUT_3D_SIZE 9
DOMAIN_MIN 0.0 0.0 0.0
DOMAIN_MAX 1.0 1.0 1.0
0.008500 0.000000 0.000000
0.134475 0.000000 0.000000
0.260451 0.000000 0.000000
0.386426 0.001284 0.000000
0.512402 0.011162 0.000000
0.638377 0.021040 0.000000
0.764353 0.030918 0.004047
0.890328 0.040795 0.011730
1.000000 0.050673 0.019413
0.045422 0.124880 0.000000
0.171398 0.134758 0.000000
0.297373 0.144636 0.000000
0.423349 0.154514 0.006844
0.549324 0.164392 0.014527
0.675300 0.174270 0.022210
0.801275 0.184148 0.029893
0.927251 0.194025 0.037575
1.000000 0.203903 0.045258
0.082344 0.278110 0.009641
0.208320 0.287988 0.017324
0.334295 0.297866 0.025007
0.460271 0.307744 0.032690
0.586246 0.317622 0.040372
0.712222 0.327500 0.048055
0.838197 0.337378 0.055738
0.964173 0.347255 0.063421
1.000000 0.357133 0.071104
0.119267 0.431340 0.035487
0.245242 0.441218 0.043169
0.371218 0.451096 0.050852
0.497193 0.460974 0.058535
0.623169 0.470852 0.066218
0.749144 0.480730 0.073901
0.875119 0.490608 0.081584
1.000000 0.500485 0.089266
1.000000 0.510363 0.096949
0.156189 0.584570 0.061332
0.282164 0.594448 0.069015
0.408140 0.604326 0.076698
0.534115 0.614204 0.084381
0.660091 0.624082 0.092063
0.786066 0.633960 0.099746
0.912042 0.643837 0.107429
1.000000 0.653715 0.115112
1.000000 0.663593 0.122795
0.193111 0.737800 0.087178
0.319086 0.747678 0.094861
0.445062 0.757556 0.102543
0.571037 0.767434 0.110226
0.697013 0.777312 0.117909
0.822988 0.787190 0.125592
0.948964 0.797067 0.133275
1.000000 0.806945 0.140958
1.000000 0.816823 0.148640
0.230033 0.891030 0.113023
0.356009 0.900908 0.120706
0.481984 0.910786 0.128389
0.607960 0.920664 0.136072
0.733935 0.930542 0.143755
0.859911 0.940420 0.151437
0.985886 0.950297 0.159120
1.000000 0.960175 0.166803
1.000000 0.970053 0.174486
0.266955 1.000000 0.138869
0.392931 1.000000 0.146552
0.518906 1.000000 0.154234
0.644882 1.000000 0.161917
0.770857 1.000000 0.169600
0.896833 1.000000 0.177283
1.000000 1.000000 0.184966
1.000000 1.000000 0.192649
1.000000 1.000000 0.200331
0.303878 1.000000 0.164714
0.429853 1.000000 0.172397
0.555829 1.000000 0.180080
0.681804 1.000000 0.187763
0.807779 1.000000 0.195446
0.933755 1.000000 0.203128
1.000000 1.000000 0.210811
1.000000 1.000000 0.218494
1.000000 1.000000 0.226177
0.012227 0.000000 0.095559
0.138203 0.000000 0.103242
0.264178 0.000000 0.110925
0.390154 0.004638 0.118608
0.516129 0.014516 0.126290
0.642105 0.024394 0.133973
0.768080 0.034272 0.141656
0.894056 0.044150 0.149339
1.000000 0.054028 0.157022
0.049150 0.128235 0.121405
0.175125 0.138112 0.129088
0.301100 0.147990 0.136770
0.427076 0.157868 0.144453
0.553051 0.167746 0.152136
0.679027 0.177624 0.159819
0.805002 0.187502 0.167502
0.930978 0.197380 0.175184
1.000000 0.207258 0.182867
0.086072 0.281465 0.147250
0.212047 0.291342 0.154933
0.338023 0.301220 0.162616
0.463998 0.311098 0.170299
0.589974 0.320976 0.177982
0.715949 0.330854 0.185664
0.841925 0.340732 0.193347
0.967900 0.350610 0.201030
1.000000 0.360488 0.208713
0.122994 0.434695 0.173096
0.248969 0.444572 0.180779
0.374945 0.454450 0.188461
0.500920 0.464328 0.196144
0.626896 0.474206 0.203827
0.752871 0.484084 0.211510
0.878847 0.493962 0.219193
1.000000 0.503840 0.226876
1.000000 0.513718 0.234558
0.159916 0.587925 0.198941
0.285892 0.597802 0.206624
0.411867 0.607680 0.214307
0.537843 0.617558 0.221990
0.663818 0.627436 0.229673
0.789794 0.637314 0.237355
0.915769 0.647192 0.245038
1.000000 0.657070 0.252721
1.000000 0.666948 0.260404
0.196838 0.741154 0.224787
0.322814 0.751032 0.232470
0.448789 0.760910 0.240152
0.574765 0.770788 0.247835
0.700740 0.780666 0.255518
0.826716 0.790544 0.263201
0.952691 0.800422 0.270884
1.000000 0.810300 0.278567
1.000000 0.820178 0.286249
0.233761 0.894384 0.250632
0.359736 0.904262 0.258315
0.485711 0.914140 0.265998
0.611687 0.924018 0.273681
0.737662 0.933896 0.281364
0.863638 0.943774 0.289047
0.989613 0.953652 0.296729
1.000000 0.963530 0.304412
1.000000 0.973408 0.312095
0.270683 1.000000 0.276478
0.396658 1.000000 0.284161
0.522634 1.000000 0.291844
0.648609 1.000000 0.299526
0.774585 1.000000 0.307209
0.900560 1.000000 0.314892
1.000000 1.000000 0.322575
1.000000 1.000000 0.330258
1.000000 1.000000 0.337941
0.307605 1.000000 0.302323
0.433580 1.000000 0.310006
0.559556 1.000000 0.317689
0.685531 1.000000 0.325372
0.811507 1.000000 0.333055
0.937482 1.000000 0.340738
1.000000 1.000000 0.348420
1.000000 1.000000 0.356103
1.000000 1.000000 0.363786
0.015955 0.000000 0.233168
0.141930 0.000000 0.240851
0.267906 0.000000 0.248534
0.393881 0.007993 0.256217
0.519857 0.017871 0.263900
0.645832 0.027749 0.271582
0.771808 0.037627 0.279265
0.897783 0.047505 0.286948
1.000000 0.057383 0.294631
0.052877 0.131589 0.259014
0.178852 0.141467 0.266697
0.304828 0.151345 0.274379
0.430803 0.161223 0.282062
0.556779 0.171101 0.289745
0.682754 0.180979 0.297428
0.808730 0.190857 0.305111
0.934705 0.200735 0.312794
1.000000 0.210613 0.320476
0.089799 0.284819 0.284859
0.215775 0.294697 0.292542
0.341750 0.304575 0.300225
0.467725 0.314453 0.307908
0.593701 0.324331 0.315591
0.719676 0.334209 0.323273
0.845652 0.344087 0.330956
0.971627 0.353965 0.338639
1.000000 0.363843 0.346322
0.126721 0.438049 0.310705
0.252697 0.447927 0.318388
0.378672 0.457805 0.326071
0.504648 0.467683 0.333753
0.630623 0.477561 0.341436
0.756599 0.487439 0.349119
0.882574 0.497317 0.356802
1.000000 0.507195 0.364485
1.000000 0.517073 0.372168
0.163643 0.591279 0.336550
0.289619 0.601157 0.344233
0.415594 0.611035 0.351916
0.541570 0.620913 0.359599
0.667545 0.630791 0.367282
0.793521 0.640669 0.374965
0.919496 0.650547 0.382647
1.000000 0.660425 0.390330
1.000000 0.670303 0.398013
0.200566 0.744509 0.362396
0.326541 0.754387 0.370079
0.452517 0.764265 0.377762
0.578492 0.774143 0.385444
0.704468 0.784021 0.393127
0.830443 0.793899 0.400810
0.956419 0.803777 0.408493
1.000000 0.813655 0.416176
1.000000 0.823533 0.423859
0.237488 0.897739 0.388241
0.363463 0.907617 0.395924
0.489439 0.917495 0.403607
0.615414 0.927373 0.411290
0.741390 0.937251 0.418973
0.867365 0.947129 0.426656
0.993341 0.957007 0.434338
1.000000 0.966885 0.442021
1.000000 0.976762 0.449704
0.274410 1.000000 0.414087
0.400386 1.000000 0.421770
0.526361 1.000000 0.429453
0.652336 1.000000 0.437136
0.778312 1.000000 0.444818
0.904287 1.000000 0.452501
1.000000 1.000000 0.460184
1.000000 1.000000 0.467867
1.000000 1.000000 0.475550
0.311332 1.000000 0.439933
0.437308 1.000000 0.447615
0.563283 1.000000 0.455298
0.689259 1.000000 0.462981
0.815234 1.000000 0.470664
0.941210 1.000000 0.478347
1.000000 1.000000 0.486030
1.000000 1.000000 0.493712
1.000000 1.000000 0.501395
0.019682 0.000000 0.370777
0.145657 0.000000 0.378460
0.271633 0.001470 0.386143
0.397608 0.011348 0.393826
0.523584 0.021225 0.401509
0.649559 0.031103 0.409192
0.775535 0.040981 0.416874
0.901510 0.050859 0.424557
1.000000 0.060737 0.432240
0.056604 0.134944 0.396623
0.182580 0.144822 0.404306
0.308555 0.154700 0.411989
0.434531 0.164578 0.419671
0.560506 0.174455 0.427354
0.686482 0.184333 0.435037
0.812457 0.194211 0.442720
0.938433 0.204089 0.450403
1.000000 0.213967 0.458086
0.093526 0.288174 0.422468
0.219502 0.298052 0.430151
0.345477 0.307930 0.437834
0.471453 0.317808 0.445517
0.597428 0.327685 0.453200
0.723404 0.337563 0.460883
0.849379 0.347441 0.468565
0.975355 0.357319 0.476248
1.000000 0.367197 0.483931
0.130449 0.441404 0.448314
0.256424 0.451282 0.455997
0.382400 0.461160 0.463680
0.508375 0.471037 0.471363
0.634350 0.480915 0.479045
0.760326 0.490793 0.486728
0.886301 0.500671 0.494411
1.000000 0.510549 0.502094
1.000000 0.520427 0.509777
0.167371 0.594634 0.474160
0.293346 0.604512 0.481842
0.419322 0.614390 0.489525
0.545297 0.624267 0.497208
0.671273 0.634145 0.504891
0.797248 0.644023 0.512574
0.923224 0.653901 0.520257
1.000000 0.663779 0.527939
1.000000 0.673657 0.535622
0.204293 0.747864 0.500005
0.330268 0.757742 0.507688
0.456244 0.767620 0.515371
0.582219 0.777497 0.523054
0.708195 0.787375 0.530736
0.834170 0.797253 0.538419
0.960146 0.807131 0.546102
1.000000 0.817009 0.553785
1.000000 0.826887 0.561468
0.241215 0.901094 0.525851
0.367191 0.910972 0.533533
0.493166 0.920850 0.541216
0.619142 0.930727 0.548899
0.745117 0.940605 0.556582
0.871093 0.950483 0.564265
0.997068 0.960361 0.571948
1.000000 0.970239 0.579630
1.000000 0.980117 0.587313
0.278137 1.000000 0.551696
0.404113 1.000000 0.559379
0.530088 1.000000 0.567062
0.656064 1.000000 0.574745
0.782039 1.000000 0.582427
0.908015 1.000000 0.590110
1.000000 1.000000 0.597793
1.000000 1.000000 0.605476
1.000000 1.000000 0.613159
0.315060 1.000000 0.577542
0.441035 1.000000 0.585225
0.567011 1.000000 0.592907
0.692986 1.000000 0.600590
0.818961 1.000000 0.608273
0.944937 1.000000 0.615956
1.000000 1.000000 0.623639
1.000000 1.000000 0.631322
1.000000 1.000000 0.639004
0.023409 0.000000 0.508387
0.149385 0.000000 0.516069
0.275360 0.004824 0.523752
0.401336 0.014702 0.531435
0.527311 0.024580 0.539118
0.653287 0.034458 0.546801
0.779262 0.044336 0.554484
0.905238 0.054214 0.562166
1.000000 0.064092 0.569849
0.060332 0.138298 0.534232
0.186307 0.148176 0.541915
0.312282 0.158054 0.549598
0.438258 0.167932 0.557281
0.564233 0.177810 0.564963
0.690209 0.187688 0.572646
0.816184 0.197566 0.580329
0.942160 0.207444 0.588012
1.000000 0.217322 0.595695
0.097254 0.291528 0.560078
0.223229 0.301406 0.567760
0.349205 0.311284 0.575443
0.475180 0.321162 0.583126
0.601156 0.331040 0.590809
0.727131 0.340918 0.598492
0.853107 0.350796 0.606175
0.979082 0.360674 0.613857
1.000000 0.370552 0.621540
0.134176 0.444758 0.585923
0.260151 0.454636 0.593606
0.386127 0.464514 0.601289
0.512102 0.474392 0.608972
0.638078 0.484270 0.616654
0.764053 0.494148 0.624337
0.890029 0.504026 0.632020
1.000000 0.513904 0.639703
1.000000 0.523782 0.647386
0.171098 0.597988 0.611769
0.297074 0.607866 0.619452
0.423049 0.617744 0.627134
0.549025 0.627622 0.634817
0.675000 0.637500 0.642500
0.800975 0.647378 0.650183
0.926951 0.657256 0.657866
1.000000 0.667134 0.665548
1.000000 0.677012 0.673231
0.208020 0.751218 0.637614
0.333996 0.761096 0.645297
0.459971 0.770974 0.652980
0.585947 0.780852 0.660663
0.711922 0.790730 0.668346
0.837898 0.800608 0.676028
0.963873 0.810486 0.683711
1.000000 0.820364 0.691394
1.000000 0.830242 0.699077
0.244943 0.904448 0.663460
0.370918 0.914326 0.671143
0.496893 0.924204 0.678825
0.622869 0.934082 0.686508
0.748844 0.943960 0.694191
0.874820 0.953838 0.701874
1.000000 0.963716 0.709557
1.000000 0.973594 0.717240
1.000000 0.983472 0.724922
0.281865 1.000000 0.689305
0.407840 1.000000 0.696988
0.533816 1.000000 0.704671
0.659791 1.000000 0.712354
0.785767 1.000000 0.720037
0.911742 1.000000 0.727719
1.000000 1.000000 0.735402
1.000000 1.000000 0.743085
1.000000 1.000000 0.750768
0.318787 1.000000 0.715151
0.444762 1.000000 0.722834
0.570738 1.000000 0.730516
0.696713 1.000000 0.738199
0.822689 1.000000 0.745882
0.948664 1.000000 0.753565
1.000000 1.000000 0.761248
1.000000 1.000000 0.768931
1.000000 1.000000 0.776613
0.027137 0.000000 0.645996
0.153112 0.000000 0.653678
0.279088 0.008179 0.661361
0.405063 0.018057 0.669044
0.531039 0.027935 0.676727
0.657014 0.037813 0.684410
0.782989 0.047691 0.692093
0.908965 0.057568 0.699775
1.000000 0.067446 0.707458
0.064059 0.141653 0.671841
0.190034 0.151531 0.679524
0.316010 0.161409 0.687207
0.441985 0.171287 0.694890
0.567961 0.181165 0.702573
0.693936 0.191043 0.710255
0.819912 0.200921 0.717938
0.945887 0.210798 0.725621
1.000000 0.220676 0.733304
0.100981 0.294883 0.697687
0.226956 0.304761 0.705370
0.352932 0.314639 0.713052
0.478907 0.324517 0.720735
0.604883 0.334395 0.728418
0.730858 0.344273 0.736101
0.856834 0.354150 0.743784
0.982809 0.364028 0.751467
1.000000 0.373906 0.759149
0.137903 0.448113 0.723532
0.263879 0.457991 0.731215
0.389854 0.467869 0.738898
0.515830 0.477747 0.746581
0.641805 0.487625 0.754264
0.767781 0.497503 0.761946
0.893756 0.507380 0.769629
1.000000 0.517258 0.777312
1.000000 0.527136 0.784995
0.174825 0.601343 0.749378
0.300801 0.611221 0.757061
0.426776 0.621099 0.764743
0.552752 0.630977 0.772426
0.678727 0.640855 0.780109
0.804703 0.650733 0.787792
0.930678 0.660610 0.795475
1.000000 0.670488 0.803158
1.000000 0.680366 0.810840
0.211748 0.754573 0.775223
0.337723 0.764451 0.782906
0.463699 0.774329 0.790589
0.589674 0.784207 0.798272
0.715650 0.794085 0.805955
0.841625 0.803962 0.813638
0.967600 0.813840 0.821320
1.000000 0.823718 0.829003
1.000000 0.833596 0.836686
0.248670 0.907803 0.801069
0.374645 0.917681 0.808752
0.500621 0.927559 0.816435
0.626596 0.937437 0.824117
0.752572 0.947315 0.831800
0.878547 0.957192 0.839483
1.000000 0.967070 0.847166
1.000000 0.976948 0.854849
1.000000 0.986826 0.862532
0.285592 1.000000 0.826914
0.411567 1.000000 0.834597
0.537543 1.000000 0.842280
0.663518 1.000000 0.849963
0.789494 1.000000 0.857646
0.915469 1.000000 0.865329
1.000000 1.000000 0.873011
1.000000 1.000000 0.880694
1.000000 1.000000 0.888377
0.322514 1.000000 0.852760
0.448490 1.000000 0.860443
0.574465 1.000000 0.868126
0.700441 1.000000 0.875808
0.826416 1.000000 0.883491
0.952392 1.000000 0.891174
1.000000 1.000000 0.898857
1.000000 1.000000 0.906540
1.000000 1.000000 0.914223
0.030864 0.000000 0.783605
0.156839 0.001655 0.791288
0.282815 0.011533 0.798970
0.408790 0.021411 0.806653
0.534766 0.031289 0.814336
0.660741 0.041167 0.822019
0.786717 0.051045 0.829702
0.912692 0.060923 0.837385
1.000000 0.070801 0.845067
0.067786 0.145008 0.809450
0.193762 0.154885 0.817133
0.319737 0.164763 0.824816
0.445713 0.174641 0.832499
0.571688 0.184519 0.840182
0.697664 0.194397 0.847864
0.823639 0.204275 0.855547
0.949614 0.214153 0.863230
1.000000 0.224031 0.870913
0.104708 0.298238 0.835296
0.230684 0.308115 0.842979
0.356659 0.317993 0.850662
0.482635 0.327871 0.858344
0.608610 0.337749 0.866027
0.734586 0.347627 0.873710
0.860561 0.357505 0.881393
0.986537 0.367383 0.889076
1.000000 0.377261 0.896759
0.141631 0.451467 0.861141
0.267606 0.461345 0.868824
0.393581 0.471223 0.876507
0.519557 0.481101 0.884190
0.645532 0.490979 0.891873
0.771508 0.500857 0.899556
0.897483 0.510735 0.907238
1.000000 0.520613 0.914921
1.000000 0.530491 0.922604
0.178553 0.604697 0.886987
0.304528 0.614575 0.894670
0.430504 0.624453 0.902353
0.556479 0.634331 0.910035
0.682455 0.644209 0.917718
0.808430 0.654087 0.925401
0.934406 0.663965 0.933084
1.000000 0.673843 0.940767
1.000000 0.683721 0.948450
0.215475 0.757927 0.912832
0.341450 0.767805 0.920515
0.467426 0.777683 0.928198
0.593401 0.787561 0.935881
0.719377 0.797439 0.943564
0.845352 0.807317 0.951247
0.971328 0.817195 0.958929
1.000000 0.827073 0.966612
1.000000 0.836951 0.974295
0.252397 0.911157 0.938678
0.378373 0.921035 0.946361
0.504348 0.930913 0.954044
0.630324 0.940791 0.961727
0.756299 0.950669 0.969409
0.882275 0.960547 0.977092
1.000000 0.970425 0.984775
1.000000 0.980303 0.992458
1.000000 0.990181 1.000000
0.289319 1.000000 0.964524
0.415295 1.000000 0.972206
0.541270 1.000000 0.979889
0.667246 1.000000 0.987572
0.793221 1.000000 0.995255
0.919197 1.000000 1.000000
1.000000 1.000000 1.000000
1.000000 1.000000 1.000000
1.000000 1.000000 1.000000
0.326242 1.000000 0.990369
0.452217 1.000000 0.998052
0.578192 1.000000 1.000000
0.704168 1.000000 1.000000
0.830143 1.000000 1.000000
0.956119 1.000000 1.000000
1.000000 1.000000 1.000000
1.000000 1.000000 1.000000
1.000000 1.000000 1.000000
0.034591 0.000000 0.921214
0.160567 0.005010 0.928897
0.286542 0.014888 0.936580
0.412518 0.024766 0.944262
0.538493 0.034644 0.951945
0.664469 0.044522 0.959628
0.790444 0.054400 0.967311
0.916420 0.064278 0.974994
1.000000 0.074156 0.982677
0.071513 0.148362 0.947059
0.197489 0.158240 0.954742
0.323464 0.168118 0.962425
0.449440 0.177996 0.970108
0.575415 0.187874 0.977791
0.701391 0.197752 0.985474
0.827366 0.207630 0.993156
0.953342 0.217508 1.000000
1.000000 0.227386 1.000000
0.108436 0.301592 0.972905
0.234411 0.311470 0.980588
0.360387 0.321348 0.988271
0.486362 0.331226 0.995953
0.612338 0.341104 1.000000
0.738313 0.350982 1.000000
0.864289 0.360860 1.000000
0.990264 0.370738 1.000000
1.000000 0.380616 1.000000
0.145358 0.454822 0.998751
0.271333 0.464700 1.000000
0.397309 0.474578 1.000000
0.523284 0.484456 1.000000
0.649260 0.494334 1.000000
0.775235 0.504212 1.000000
0.901211 0.514090 1.000000
1.000000 0.523968 1.000000
1.000000 0.533846 1.000000
0.182280 0.608052 1.000000
0.308256 0.617930 1.000000
0.434231 0.627808 1.000000
0.560207 0.637686 1.000000
0.686182 0.647564 1.000000
0.812157 0.657442 1.000000
0.938133 0.667320 1.000000
1.000000 0.677198 1.000000
1.000000 0.687075 1.000000
0.219202 0.761282 1.000000
0.345178 0.771160 1.000000
0.471153 0.781038 1.000000
0.597129 0.790916 1.000000
0.723104 0.800794 1.000000
0.849080 0.810672 1.000000
0.975055 0.820550 1.000000
1.000000 0.830428 1.000000
1.000000 0.840305 1.000000
0.256124 0.914512 1.000000
0.382100 0.924390 1.000000
0.508075 0.934268 1.000000
0.634051 0.944146 1.000000
0.760026 0.954024 1.000000
0.886002 0.963902 1.000000
1.000000 0.973780 1.000000
1.000000 0.983658 1.000000
1.000000 0.993535 1.000000
0.293047 1.000000 1.000000
0.419022 1.000000 1.000000
0.544998 1.000000 1.000000
0.670973 1.000000 1.000000
0.796949 1.000000 1.000000
0.922924 1.000000 1.000000
1.000000 1.000000 1.000000
1.000000 1.000000 1.000000
1.000000 1.000000 1.000000
0.329969 1.000000 1.000000
0.455944 1.000000 1.000000
0.581920 1.000000 1.000000
0.707895 1.000000 1.000000
0.833871 1.000000 1.000000
0.959846 1.000000 1.000000
1.000000 1.000000 1.000000
1.000000 1.000000 1.000000
1.000000 1.000000 1.000000
0.038319 0.000000 1.000000
0.164294 0.008365 1.000000
0.290270 0.018243 1.000000
0.416245 0.028121 1.000000
0.542221 0.037998 1.000000
0.668196 0.047876 1.000000
0.794171 0.057754 1.000000
0.920147 0.067632 1.000000
1.000000 0.077510 1.000000
0.075241 0.151717 1.000000
0.201216 0.161595 1.000000
0.327192 0.171473 1.000000
0.453167 0.181351 1.000000
0.579143 0.191228 1.000000
0.705118 0.201106 1.000000
0.831094 0.210984 1.000000
0.957069 0.220862 1.000000
1.000000 0.230740 1.000000
0.112163 0.304947 1.000000
0.238138 0.314825 1.000000
0.364114 0.324703 1.000000
0.490089 0.334580 1.000000
0.616065 0.344458 1.000000
0.742040 0.354336 1.000000
0.868016 0.364214 1.000000
0.993991 0.374092 1.000000
1.000000 0.383970 1.000000
0.149085 0.458177 1.000000
0.275061 0.468055 1.000000
0.401036 0.477933 1.000000
0.527012 0.487810 1.000000
0.652987 0.497688 1.000000
0.778963 0.507566 1.000000
0.904938 0.517444 1.000000
1.000000 0.527322 1.000000
1.000000 0.537200 1.000000
0.186007 0.611407 1.000000
0.311983 0.621285 1.000000
0.437958 0.631163 1.000000
0.563934 0.641040 1.000000
0.689909 0.650918 1.000000
0.815885 0.660796 1.000000
0.941860 0.670674 1.000000
1.000000 0.680552 1.000000
1.000000 0.690430 1.000000
0.222930 0.764637 1.000000
0.348905 0.774515 1.000000
0.474881 0.784392 1.000000
0.600856 0.794270 1.000000
0.726832 0.804148 1.000000
0.852807 0.814026 1.000000
0.978782 0.823904 1.000000
1.000000 0.833782 1.000000
1.000000 0.843660 1.000000
0.259852 0.917867 1.000000
0.385827 0.927745 1.000000
0.511803 0.937622 1.000000
0.637778 0.947500 1.000000
0.763754 0.957378 1.000000
0.889729 0.967256 1.000000
1.000000 0.977134 1.000000
1.000000 0.987012 1.000000
1.000000 0.996890 1.000000
0.296774 1.000000 1.000000
0.422749 1.000000 1.000000
0.548725 1.000000 1.000000
0.674700 1.000000 1.000000
0.800676 1.000000 1.000000
0.926651 1.000000 1.000000
1.000000 1.000000 1.000000
1.000000 1.000000 1.000000
1.000000 1.000000 1.000000
0.333696 1.000000 1.000000
0.459672 1.000000 1.000000
0.585647 1.000000 1.000000
0.711623 1.000000 1.000000
0.837598 1.000000 1.000000
0.963574 1.000000 1.000000
1.000000 1.000000 1.000000
1.000000 1.000000 1.000000
1.000000 1.000000 1.000000
