Packages/FeatureMedia/Sources/FeatureMedia/Resources/LUTs/cinematic.cube
TITLE "Cinematic"
LUT_3D_SIZE 17
DOMAIN_MIN 0.0 0.0 0.0
DOMAIN_MAX 1.0 1.0 1.0
0.008500 0.000000 0.000000
0.071488 0.000000 0.000000
0.134475 0.000000 0.000000
0.197463 0.000000 0.000000
0.260451 0.000000 0.000000
0.323439 0.000000 0.000000
0.386426 0.001284 0.000000
0.449414 0.006223 0.000000
0.512402 0.011162 0.000000
0.575390 0.016101 0.000000
0.638377 0.021040 0.000000
0.701365 0.025979 0.000206
0.764353 0.030918 0.004047
0.827341 0.035857 0.007888
0.890328 0.040795 0.011730
0.953316 0.045734 0.015571
1.000000 0.050673 0.019413
0.026961 0.048265 0.000000
0.089949 0.053204 0.000000
0.152937 0.058143 0.000000
0.215924 0.063082 0.000000
0.278912 0.068021 0.000000
0.341900 0.072960 0.000000
0.404888 0.077899 0.000000
0.467875 0.082838 0.000000
0.530863 0.087777 0.001604
0.593851 0.092716 0.005446
0.656838 0.097655 0.009287
0.719826 0.102594 0.013128
0.782814 0.107533 0.016970
0.845802 0.112472 0.020811
0.908789 0.117410 0.024653
0.971777 0.122349 0.028494
1.000000 0.127288 0.032335
0.045422 0.124880 0.000000
0.108410 0.129819 0.000000
0.171398 0.134758 0.000000
0.234385 0.139697 0.000000
0.297373 0.144636 0.000000
0.360361 0.149575 0.003003
0.423349 0.154514 0.006844
0.486336 0.159453 0.010685
0.549324 0.164392 0.014527
0.612312 0.169331 0.018368
0.675300 0.174270 0.022210
0.738287 0.179209 0.026051
0.801275 0.184148 0.029893
0.864263 0.189087 0.033734
0.927251 0.194025 0.037575
0.990238 0.198964 0.041417
1.000000 0.203903 0.045258
0.063883 0.201495 0.000000
0.126871 0.206434 0.000560
0.189859 0.211373 0.004401
0.252847 0.216312 0.008243
0.315834 0.221251 0.012084
0.378822 0.226190 0.015925
0.441810 0.231129 0.019767
0.504797 0.236068 0.023608
0.567785 0.241007 0.027450
0.630773 0.245946 0.031291
0.693761 0.250885 0.035132
0.756748 0.255824 0.038974
0.819736 0.260763 0.042815
0.882724 0.265701 0.046657
0.945712 0.270640 0.050498
1.000000 0.275579 0.054340
1.000000 0.280518 0.058181
0.082344 0.278110 0.009641
0.145332 0.283049 0.013482
0.208320 0.287988 0.017324
0.271308 0.292927 0.021165
0.334295 0.297866 0.025007
0.397283 0.302805 0.028848
0.460271 0.307744 0.032690
0.523259 0.312683 0.036531
0.586246 0.317622 0.040372
0.649234 0.322561 0.044214
0.712222 0.327500 0.048055
0.775210 0.332439 0.051897
0.838197 0.337378 0.055738
0.901185 0.342316 0.059579
0.964173 0.347255 0.063421
1.000000 0.352194 0.067262
1.000000 0.357133 0.071104
0.100805 0.354725 0.022564
0.163793 0.359664 0.026405
0.226781 0.364603 0.030247
0.289769 0.369542 0.034088
0.352756 0.374481 0.037930
0.415744 0.379420 0.041771
0.478732 0.384359 0.045612
0.541720 0.389298 0.049454
0.604707 0.394237 0.053295
0.667695 0.399176 0.057137
0.730683 0.404115 0.060978
0.793671 0.409054 0.064819
0.856658 0.413993 0.068661
0.919646 0.418931 0.072502
0.982634 0.423870 0.076344
1.000000 0.428809 0.080185
1.000000 0.433748 0.084027
0.119267 0.431340 0.035487
0.182254 0.436279 0.039328
0.245242 0.441218 0.043169
0.308230 0.446157 0.047011
0.371218 0.451096 0.050852
0.434205 0.456035 0.054694
0.497193 0.460974 0.058535
0.560181 0.465913 0.062377
0.623169 0.470852 0.066218
0.686156 0.475791 0.070059
0.749144 0.480730 0.073901
0.812132 0.485669 0.077742
0.875119 0.490608 0.081584
0.938107 0.495546 0.085425
1.000000 0.500485 0.089266
1.000000 0.505424 0.093108
1.000000 0.510363 0.096949
0.137728 0.507955 0.048409
0.200715 0.512894 0.052251
0.263703 0.517833 0.056092
0.326691 0.522772 0.059934
0.389679 0.527711 0.063775
0.452666 0.532650 0.067616
0.515654 0.537589 0.071458
0.578642 0.542528 0.075299
0.641630 0.547467 0.079141
0.704617 0.552406 0.082982
0.767605 0.557345 0.086824
0.830593 0.562284 0.090665
0.893581 0.567222 0.094506
0.956568 0.572161 0.098348
1.000000 0.577100 0.102189
1.000000 0.582039 0.106031
1.000000 0.586978 0.109872
0.156189 0.584570 0.061332
0.219177 0.589509 0.065174
0.282164 0.594448 0.069015
0.345152 0.599387 0.072856
0.408140 0.604326 0.076698
0.471127 0.609265 0.080539
0.534115 0.614204 0.084381
0.597103 0.619143 0.088222
0.660091 0.624082 0.092063
0.723078 0.629021 0.095905
0.786066 0.633960 0.099746
0.849054 0.638899 0.103588
0.912042 0.643837 0.107429
0.975029 0.648776 0.111271
1.000000 0.653715 0.115112
1.000000 0.658654 0.118953
1.000000 0.663593 0.122795
0.174650 0.661185 0.074255
0.237638 0.666124 0.078096
0.300625 0.671063 0.081938
0.363613 0.676002 0.085779
0.426601 0.680941 0.089621
0.489589 0.685880 0.093462
0.552576 0.690819 0.097303
0.615564 0.695758 0.101145
0.678552 0.700697 0.104986
0.741540 0.705636 0.108828
0.804527 0.710575 0.112669
0.867515 0.715514 0.116511
0.930503 0.720452 0.120352
0.993490 0.725391 0.124193
1.000000 0.730330 0.128035
1.000000 0.735269 0.131876
1.000000 0.740208 0.135718
0.193111 0.737800 0.087178
0.256099 0.742739 0.091019
0.319086 0.747678 0.094861
0.382074 0.752617 0.098702
0.445062 0.757556 0.102543
0.508050 0.762495 0.106385
0.571037 0.767434 0.110226
0.634025 0.772373 0.114068
0.697013 0.777312 0.117909
0.760001 0.782251 0.121750
0.822988 0.787190 0.125592
0.885976 0.792129 0.129433
0.948964 0.797067 0.133275
1.000000 0.802006 0.137116
1.000000 0.806945 0.140958
1.000000 0.811884 0.144799
1.000000 0.816823 0.148640
0.211572 0.814415 0.100100
0.274560 0.819354 0.103942
0.337548 0.824293 0.107783
0.400535 0.829232 0.111625
0.463523 0.834171 0.115466
0.526511 0.839110 0.119308
0.589499 0.844049 0.123149
0.652486 0.848988 0.126990
0.715474 0.853927 0.130832
0.778462 0.858866 0.134673
0.841449 0.863805 0.138515
0.904437 0.868743 0.142356
0.967425 0.873682 0.146197
1.000000 0.878621 0.150039
1.000000 0.883560 0.153880
1.000000 0.888499 0.157722
1.000000 0.893438 0.161563
0.230033 0.891030 0.113023
0.293021 0.895969 0.116865
0.356009 0.900908 0.120706
0.418996 0.905847 0.124547
0.481984 0.910786 0.128389
0.544972 0.915725 0.132230
0.607960 0.920664 0.136072
0.670947 0.925603 0.139913
0.733935 0.930542 0.143755
0.796923 0.935481 0.147596
0.859911 0.940420 0.151437
0.922898 0.945358 0.155279
0.985886 0.950297 0.159120
1.000000 0.955236 0.162962
1.000000 0.960175 0.166803
1.000000 0.965114 0.170644
1.000000 0.970053 0.174486
0.248494 0.967645 0.125946
0.311482 0.972584 0.129787
0.374470 0.977523 0.133629
0.437458 0.982462 0.137470
0.500445 0.987401 0.141312
0.563433 0.992340 0.145153
0.626421 0.997279 0.148995
0.689408 1.000000 0.152836
0.752396 1.000000 0.156677
0.815384 1.000000 0.160519
0.878372 1.000000 0.164360
0.941359 1.000000 0.168202
1.000000 1.000000 0.172043
1.000000 1.000000 0.175884
1.000000 1.000000 0.179726
1.000000 1.000000 0.183567
1.000000 1.000000 0.187409
0.266955 1.000000 0.138869
0.329943 1.000000 0.142710
0.392931 1.000000 0.146552
0.455919 1.000000 0.150393
0.518906 1.000000 0.154234
0.581894 1.000000 0.158076
0.644882 1.000000 0.161917
0.707870 1.000000 0.165759
0.770857 1.000000 0.169600
0.833845 1.000000 0.173442
0.896833 1.000000 0.177283
0.959821 1.000000 0.181124
1.000000 1.000000 0.184966
1.000000 1.000000 0.188807
1.000000 1.000000 0.192649
1.000000 1.000000 0.196490
1.000000 1.000000 0.200331
0.285416 1.000000 0.151792
0.348404 1.000000 0.155633
0.411392 1.000000 0.159474
0.474380 1.000000 0.163316
0.537367 1.000000 0.167157
0.600355 1.000000 0.170999
0.663343 1.000000 0.174840
0.726331 1.000000 0.178681
0.789318 1.000000 0.182523
0.852306 1.000000 0.186364
0.915294 1.000000 0.190206
0.978282 1.000000 0.194047
1.000000 1.000000 0.197889
1.000000 1.000000 0.201730
1.000000 1.000000 0.205571
1.000000 1.000000 0.209413
1.000000 1.000000 0.213254
0.303878 1.000000 0.164714
0.366865 1.000000 0.168556
0.429853 1.000000 0.172397
0.492841 1.000000 0.176239
0.555829 1.000000 0.180080
0.618816 1.000000 0.183921
0.681804 1.000000 0.187763
0.744792 1.000000 0.191604
0.807779 1.000000 0.195446
0.870767 1.000000 0.199287
0.933755 1.000000 0.203128
0.996743 1.000000 0.206970
1.000000 1.000000 0.210811
1.000000 1.000000 0.214653
1.000000 1.000000 0.218494
1.000000 1.000000 0.222336
1.000000 1.000000 0.226177
0.010364 0.000000 0.026755
0.073351 0.000000 0.030596
0.136339 0.000000 0.034437
0.199327 0.000000 0.038279
0.262315 0.000000 0.042120
0.325302 0.000000 0.045962
0.388290 0.002961 0.049803
0.451278 0.007900 0.053644
0.514266 0.012839 0.057486
0.577253 0.017778 0.061327
0.640241 0.022717 0.065169
0.703229 0.027656 0.069010
0.766217 0.032595 0.072852
0.829204 0.037534 0.076693
0.892192 0.042473 0.080534
0.955180 0.047412 0.084376
1.000000 0.052351 0.088217
0.028825 0.049942 0.039677
0.091813 0.054881 0.043519
0.154800 0.059820 0.047360
0.217788 0.064759 0.051202
0.280776 0.069698 0.055043
0.343763 0.074637 0.058884
0.406751 0.079576 0.062726
0.469739 0.084515 0.066567
0.532727 0.089454 0.070409
0.595714 0.094393 0.074250
0.658702 0.099332 0.078091
0.721690 0.104271 0.081933
0.784678 0.109210 0.085774
0.847665 0.114149 0.089616
0.910653 0.119088 0.093457
0.973641 0.124027 0.097299
1.000000 0.128966 0.101140
0.047286 0.126557 0.052600
0.110274 0.131496 0.056442
0.173261 0.136435 0.060283
0.236249 0.141374 0.064124
0.299237 0.146313 0.067966
0.362225 0.151252 0.071807
0.425212 0.156191 0.075649
0.488200 0.161130 0.079490
0.551188 0.166069 0.083331
0.614176 0.171008 0.087173
0.677163 0.175947 0.091014
0.740151 0.180886 0.094856
0.803139 0.185825 0.098697
0.866126 0.190764 0.102539
0.929114 0.195703 0.106380
0.992102 0.200642 0.110221
1.000000 0.205581 0.114063
0.065747 0.203172 0.065523
0.128735 0.208111 0.069364
0.191722 0.213050 0.073206
0.254710 0.217989 0.077047
0.317698 0.222928 0.080889
0.380686 0.227867 0.084730
0.443673 0.232806 0.088571
0.506661 0.237745 0.092413
0.569649 0.242684 0.096254
0.632637 0.247623 0.100096
0.695624 0.252562 0.103937
0.758612 0.257501 0.107778
0.821600 0.262440 0.111620
0.884588 0.267379 0.115461
0.947575 0.272318 0.119303
1.000000 0.277257 0.123144
1.000000 0.282196 0.126986
0.084208 0.279787 0.078446
0.147196 0.284726 0.082287
0.210184 0.289665 0.086128
0.273171 0.294604 0.089970
0.336159 0.299543 0.093811
0.399147 0.304482 0.097653
0.462134 0.309421 0.101494
0.525122 0.314360 0.105336
0.588110 0.319299 0.109177
0.651098 0.324238 0.113018
0.714085 0.329177 0.116860
0.777073 0.334116 0.120701
0.840061 0.339055 0.124543
0.903049 0.343994 0.128384
0.966036 0.348933 0.132225
1.000000 0.353872 0.136067
1.000000 0.358811 0.139908
0.102669 0.356402 0.091368
0.165657 0.361341 0.095210
0.228645 0.366280 0.099051
0.291632 0.371219 0.102893
0.354620 0.376158 0.106734
0.417608 0.381097 0.110575
0.480596 0.386036 0.114417
0.543583 0.390975 0.118258
0.606571 0.395914 0.122100
0.669559 0.400853 0.125941
0.732547 0.405792 0.129783
0.795534 0.410731 0.133624
0.858522 0.415670 0.137465
0.921510 0.420609 0.141307
0.984497 0.425548 0.145148
1.000000 0.430487 0.148990
1.000000 0.435426 0.152831
0.121130 0.433017 0.104291
0.184118 0.437956 0.108133
0.247106 0.442895 0.111974
0.310093 0.447834 0.115815
0.373081 0.452773 0.119657
0.436069 0.457712 0.123498
0.499057 0.462651 0.127340
0.562044 0.467590 0.131181
0.625032 0.472529 0.135023
0.688020 0.477468 0.138864
0.751008 0.482407 0.142705
0.813995 0.487346 0.146547
0.876983 0.492285 0.150388
0.939971 0.497224 0.154230
1.000000 0.502163 0.158071
1.000000 0.507102 0.161912
1.000000 0.512041 0.165754
0.139591 0.509632 0.117214
0.202579 0.514571 0.121055
0.265567 0.519510 0.124897
0.328555 0.524449 0.128738
0.391542 0.529388 0.132580
0.454530 0.534327 0.136421
0.517518 0.539266 0.140262
0.580506 0.544205 0.144104
0.643493 0.549144 0.147945
0.706481 0.554083 0.151787
0.769469 0.559022 0.155628
0.832456 0.563961 0.159470
0.895444 0.568900 0.163311
0.958432 0.573839 0.167152
1.000000 0.578778 0.170994
1.000000 0.583717 0.174835
1.000000 0.588656 0.178677
0.158052 0.586247 0.130137
0.221040 0.591186 0.133978
0.284028 0.596125 0.137820
0.347016 0.601064 0.141661
0.410003 0.606003 0.145502
0.472991 0.610942 0.149344
0.535979 0.615881 0.153185
0.598967 0.620820 0.157027
0.661954 0.625759 0.160868
0.724942 0.630698 0.164709
0.787930 0.635637 0.168551
0.850918 0.640576 0.172392
0.913905 0.645515 0.176234
0.976893 0.650454 0.180075
1.000000 0.655393 0.183917
1.000000 0.660332 0.187758
1.000000 0.665271 0.191599
0.176514 0.662862 0.143059
0.239501 0.667801 0.146901
0.302489 0.672740 0.150742
0.365477 0.677679 0.154584
0.428465 0.682618 0.158425
0.491452 0.687557 0.162267
0.554440 0.692496 0.166108
0.617428 0.697435 0.169949
0.680415 0.702374 0.173791
0.743403 0.707313 0.177632
0.806391 0.712252 0.181474
0.869379 0.717191 0.185315
0.932366 0.722130 0.189156
0.995354 0.727069 0.192998
1.000000 0.732008 0.196839
1.000000 0.736947 0.200681
1.000000 0.741886 0.204522
0.194975 0.739477 0.155982
0.257962 0.744416 0.159824
0.320950 0.749355 0.163665
0.383938 0.754294 0.167507
0.446926 0.759233 0.171348
0.509913 0.764172 0.175189
0.572901 0.769111 0.179031
0.635889 0.774050 0.182872
0.698877 0.778989 0.186714
0.761864 0.783928 0.190555
0.824852 0.788867 0.194396
0.887840 0.793806 0.198238
0.950828 0.798745 0.202079
1.000000 0.803684 0.205921
1.000000 0.808623 0.209762
1.000000 0.813562 0.213604
1.000000 0.818501 0.217445
0.213436 0.816092 0.168905
0.276423 0.821031 0.172746
0.339411 0.825970 0.176588
0.402399 0.830909 0.180429
0.465387 0.835848 0.184271
0.528374 0.840787 0.188112
0.591362 0.845726 0.191954
0.654350 0.850665 0.195795
0.717338 0.855604 0.199636
0.780325 0.860543 0.203478
0.843313 0.865482 0.207319
0.906301 0.870421 0.211161
0.969289 0.875360 0.215002
1.000000 0.880299 0.218843
1.000000 0.885238 0.222685
1.000000 0.890177 0.226526
1.000000 0.895116 0.230368
0.231897 0.892707 0.181828
0.294885 0.897646 0.185669
0.357872 0.902585 0.189511
0.420860 0.907524 0.193352
0.483848 0.912463 0.197193
0.546836 0.917402 0.201035
0.609823 0.922341 0.204876
0.672811 0.927280 0.208718
0.735799 0.932219 0.212559
0.798787 0.937158 0.216401
0.861774 0.942097 0.220242
0.924762 0.947036 0.224083
0.987750 0.951975 0.227925
1.000000 0.956914 0.231766
1.000000 0.961853 0.235608
1.000000 0.966792 0.239449
1.000000 0.971731 0.243290
0.250358 0.969322 0.194751
0.313346 0.974261 0.198592
0.376333 0.979200 0.202433
0.439321 0.984139 0.206275
0.502309 0.989078 0.210116
0.565297 0.994017 0.213958
0.628284 0.998956 0.217799
0.691272 1.000000 0.221640
0.754260 1.000000 0.225482
0.817248 1.000000 0.229323
0.880235 1.000000 0.233165
0.943223 1.000000 0.237006
1.000000 1.000000 0.240848
1.000000 1.000000 0.244689
1.000000 1.000000 0.248530
1.000000 1.000000 0.252372
1.000000 1.000000 0.256213
0.268819 1.000000 0.207673
0.331807 1.000000 0.211515
0.394795 1.000000 0.215356
0.457782 1.000000 0.219198
0.520770 1.000000 0.223039
0.583758 1.000000 0.226880
0.646745 1.000000 0.230722
0.709733 1.000000 0.234563
0.772721 1.000000 0.238405
0.835709 1.000000 0.242246
0.898696 1.000000 0.246088
0.961684 1.000000 0.249929
1.000000 1.000000 0.253770
1.000000 1.000000 0.257612
1.000000 1.000000 0.261453
1.000000 1.000000 0.265295
1.000000 1.000000 0.269136
0.287280 1.000000 0.220596
0.350268 1.000000 0.224438
0.413256 1.000000 0.228279
0.476243 1.000000 0.232120
0.539231 1.000000 0.235962
0.602219 1.000000 0.239803
0.665207 1.000000 0.243645
0.728194 1.000000 0.247486
0.791182 1.000000 0.251327
0.854170 1.000000 0.255169
0.917158 1.000000 0.259010
0.980145 1.000000 0.262852
1.000000 1.000000 0.266693
1.000000 1.000000 0.270535
1.000000 1.000000 0.274376
1.000000 1.000000 0.278217
1.000000 1.000000 0.282059
0.305741 1.000000 0.233519
0.368729 1.000000 0.237360
0.431717 1.000000 0.241202
0.494704 1.000000 0.245043
0.557692 1.000000 0.248885
0.620680 1.000000 0.252726
0.683668 1.000000 0.256567
0.746655 1.000000 0.260409
0.809643 1.000000 0.264250
0.872631 1.000000 0.268092
0.935619 1.000000 0.271933
0.998606 1.000000 0.275774
1.000000 1.000000 0.279616
1.000000 1.000000 0.283457
1.000000 1.000000 0.287299
1.000000 1.000000 0.291140
1.000000 1.000000 0.294982
0.012227 0.000000 0.095559
0.075215 0.000000 0.099401
0.138203 0.000000 0.103242
0.201191 0.000000 0.107083
0.264178 0.000000 0.110925
0.327166 0.000000 0.114766
0.390154 0.004638 0.118608
0.453141 0.009577 0.122449
0.516129 0.014516 0.126290
0.579117 0.019455 0.130132
0.642105 0.024394 0.133973
0.705092 0.029333 0.137815
0.768080 0.034272 0.141656
0.831068 0.039211 0.145498
0.894056 0.044150 0.149339
0.957043 0.049089 0.153180
1.000000 0.054028 0.157022
0.030688 0.051620 0.108482
0.093676 0.056559 0.112323
0.156664 0.061498 0.116165
0.219652 0.066436 0.120006
0.282639 0.071375 0.123848
0.345627 0.076314 0.127689
0.408615 0.081253 0.131530
0.471603 0.086192 0.135372
0.534590 0.091131 0.139213
0.597578 0.096070 0.143055
0.660566 0.101009 0.146896
0.723554 0.105948 0.150737
0.786541 0.110887 0.154579
0.849529 0.115826 0.158420
0.912517 0.120765 0.162262
0.975504 0.125704 0.166103
1.000000 0.130643 0.169945
0.049150 0.128235 0.121405
0.112137 0.133174 0.125246
0.175125 0.138112 0.129088
0.238113 0.143051 0.132929
0.301100 0.147990 0.136770
0.364088 0.152929 0.140612
0.427076 0.157868 0.144453
0.490064 0.162807 0.148295
0.553051 0.167746 0.152136
0.616039 0.172685 0.155977
0.679027 0.177624 0.159819
0.742015 0.182563 0.163660
0.805002 0.187502 0.167502
0.867990 0.192441 0.171343
0.930978 0.197380 0.175184
0.993966 0.202319 0.179026
1.000000 0.207258 0.182867
0.067611 0.204850 0.134327
0.130598 0.209789 0.138169
0.193586 0.214727 0.142010
0.256574 0.219666 0.145852
0.319562 0.224605 0.149693
0.382549 0.229544 0.153535
0.445537 0.234483 0.157376
0.508525 0.239422 0.161217
0.571513 0.244361 0.165059
0.634500 0.249300 0.168900
0.697488 0.254239 0.172742
0.760476 0.259178 0.176583
0.823463 0.264117 0.180424
0.886451 0.269056 0.184266
0.949439 0.273995 0.188107
1.000000 0.278934 0.191949
1.000000 0.283873 0.195790
0.086072 0.281465 0.147250
0.149059 0.286404 0.151092
0.212047 0.291342 0.154933
0.275035 0.296281 0.158774
0.338023 0.301220 0.162616
0.401010 0.306159 0.166457
0.463998 0.311098 0.170299
0.526986 0.316037 0.174140
0.589974 0.320976 0.177982
0.652961 0.325915 0.181823
0.715949 0.330854 0.185664
0.778937 0.335793 0.189506
0.841925 0.340732 0.193347
0.904912 0.345671 0.197189
0.967900 0.350610 0.201030
1.000000 0.355549 0.204871
1.000000 0.360488 0.208713
0.104533 0.358080 0.160173
0.167521 0.363019 0.164014
0.230508 0.367957 0.167856
0.293496 0.372896 0.171697
0.356484 0.377835 0.175539
0.419472 0.382774 0.179380
0.482459 0.387713 0.183221
0.545447 0.392652 0.187063
0.608435 0.397591 0.190904
0.671422 0.402530 0.194746
0.734410 0.407469 0.198587
0.797398 0.412408 0.202429
0.860386 0.417347 0.206270
0.923373 0.422286 0.210111
0.986361 0.427225 0.213953
1.000000 0.432164 0.217794
1.000000 0.437103 0.221636
0.122994 0.434695 0.173096
0.185982 0.439633 0.176937
0.248969 0.444572 0.180779
0.311957 0.449511 0.184620
0.374945 0.454450 0.188461
0.437933 0.459389 0.192303
0.500920 0.464328 0.196144
0.563908 0.469267 0.199986
0.626896 0.474206 0.203827
0.689884 0.479145 0.207668
0.752871 0.484084 0.211510
0.815859 0.489023 0.215351
0.878847 0.493962 0.219193
0.941835 0.498901 0.223034
1.000000 0.503840 0.226876
1.000000 0.508779 0.230717
1.000000 0.513718 0.234558
0.141455 0.511310 0.186019
0.204443 0.516248 0.189860
0.267431 0.521187 0.193701
0.330418 0.526126 0.197543
0.393406 0.531065 0.201384
0.456394 0.536004 0.205226
0.519381 0.540943 0.209067
0.582369 0.545882 0.212908
0.645357 0.550821 0.216750
0.708345 0.555760 0.220591
0.771332 0.560699 0.224433
0.834320 0.565638 0.228274
0.897308 0.570577 0.232116
0.960296 0.575516 0.235957
1.000000 0.580455 0.239798
1.000000 0.585394 0.243640
1.000000 0.590333 0.247481
0.159916 0.587925 0.198941
0.222904 0.592863 0.202783
0.285892 0.597802 0.206624
0.348879 0.602741 0.210466
0.411867 0.607680 0.214307
0.474855 0.612619 0.218148
0.537843 0.617558 0.221990
0.600830 0.622497 0.225831
0.663818 0.627436 0.229673
0.726806 0.632375 0.233514
0.789794 0.637314 0.237355
0.852781 0.642253 0.241197
0.915769 0.647192 0.245038
0.978757 0.652131 0.248880
1.000000 0.657070 0.252721
1.000000 0.662009 0.256563
1.000000 0.666948 0.260404
0.178377 0.664540 0.211864
0.241365 0.669478 0.215705
0.304353 0.674417 0.219547
0.367340 0.679356 0.223388
0.430328 0.684295 0.227230
0.493316 0.689234 0.231071
0.556304 0.694173 0.234913
0.619291 0.699112 0.238754
0.682279 0.704051 0.242595
0.745267 0.708990 0.246437
0.808255 0.713929 0.250278
0.871242 0.718868 0.254120
0.934230 0.723807 0.257961
0.997218 0.728746 0.261802
1.000000 0.733685 0.265644
1.000000 0.738624 0.269485
1.000000 0.743563 0.273327
0.196838 0.741154 0.224787
0.259826 0.746093 0.228628
0.322814 0.751032 0.232470
0.385802 0.755971 0.236311
0.448789 0.760910 0.240152
0.511777 0.765849 0.243994
0.574765 0.770788 0.247835
0.637752 0.775727 0.251677
0.700740 0.780666 0.255518
0.763728 0.785605 0.259360
0.826716 0.790544 0.263201
0.889703 0.795483 0.267042
0.952691 0.800422 0.270884
1.000000 0.805361 0.274725
1.000000 0.810300 0.278567
1.000000 0.815239 0.282408
1.000000 0.820178 0.286249
0.215299 0.817769 0.237710
0.278287 0.822708 0.241551
0.341275 0.827647 0.245392
0.404263 0.832586 0.249234
0.467250 0.837525 0.253075
0.530238 0.842464 0.256917
0.593226 0.847403 0.260758
0.656214 0.852342 0.264600
0.719201 0.857281 0.268441
0.782189 0.862220 0.272282
0.845177 0.867159 0.276124
0.908165 0.872098 0.279965
0.971152 0.877037 0.283807
1.000000 0.881976 0.287648
1.000000 0.886915 0.291489
1.000000 0.891854 0.295331
1.000000 0.896793 0.299172
0.233761 0.894384 0.250632
0.296748 0.899323 0.254474
0.359736 0.904262 0.258315
0.422724 0.909201 0.262157
0.485711 0.914140 0.265998
0.548699 0.919079 0.269839
0.611687 0.924018 0.273681
0.674675 0.928957 0.277522
0.737662 0.933896 0.281364
0.800650 0.938835 0.285205
0.863638 0.943774 0.289047
0.926626 0.948713 0.292888
0.989613 0.953652 0.296729
1.000000 0.958591 0.300571
1.000000 0.963530 0.304412
1.000000 0.968469 0.308254
1.000000 0.973408 0.312095
0.252222 0.970999 0.263555
0.315209 0.975938 0.267397
0.378197 0.980877 0.271238
0.441185 0.985816 0.275079
0.504173 0.990755 0.278921
0.567160 0.995694 0.282762
0.630148 1.000000 0.286604
0.693136 1.000000 0.290445
0.756124 1.000000 0.294286
0.819111 1.000000 0.298128
0.882099 1.000000 0.301969
0.945087 1.000000 0.305811
1.000000 1.000000 0.309652
1.000000 1.000000 0.313494
1.000000 1.000000 0.317335
1.000000 1.000000 0.321176
1.000000 1.000000 0.325018
0.270683 1.000000 0.276478
0.333670 1.000000 0.280319
0.396658 1.000000 0.284161
0.459646 1.000000 0.288002
0.522634 1.000000 0.291844
0.585621 1.000000 0.295685
0.648609 1.000000 0.299526
0.711597 1.000000 0.303368
0.774585 1.000000 0.307209
0.837572 1.000000 0.311051
0.900560 1.000000 0.314892
0.963548 1.000000 0.318733
1.000000 1.000000 0.322575
1.000000 1.000000 0.326416
1.000000 1.000000 0.330258
1.000000 1.000000 0.334099
1.000000 1.000000 0.337941
0.289144 1.000000 0.289401
0.352132 1.000000 0.293242
0.415119 1.000000 0.297084
0.478107 1.000000 0.300925
0.541095 1.000000 0.304766
0.604083 1.000000 0.308608
0.667070 1.000000 0.312449
0.730058 1.000000 0.316291
0.793046 1.000000 0.320132
0.856033 1.000000 0.323973
0.919021 1.000000 0.327815
0.982009 1.000000 0.331656
1.000000 1.000000 0.335498
1.000000 1.000000 0.339339
1.000000 1.000000 0.343181
1.000000 1.000000 0.347022
1.000000 1.000000 0.350863
0.307605 1.000000 0.302323
0.370593 1.000000 0.306165
0.433580 1.000000 0.310006
0.496568 1.000000 0.313848
0.559556 1.000000 0.317689
0.622544 1.000000 0.321531
0.685531 1.000000 0.325372
0.748519 1.000000 0.329213
0.811507 1.000000 0.333055
0.874495 1.000000 0.336896
0.937482 1.000000 0.340738
1.000000 1.000000 0.344579
1.000000 1.000000 0.348420
1.000000 1.000000 0.352262
1.000000 1.000000 0.356103
1.000000 1.000000 0.359945
1.000000 1.000000 0.363786
0.014091 0.000000 0.164364
0.077079 0.000000 0.168205
0.140066 0.000000 0.172047
0.203054 0.000000 0.175888
0.266042 0.000000 0.179729
0.329030 0.001377 0.183571
0.392017 0.006316 0.187412
0.455005 0.011255 0.191254
0.517993 0.016194 0.195095
0.580981 0.021133 0.198936
0.643968 0.026072 0.202778
0.706956 0.031010 0.206619
0.769944 0.035949 0.210461
0.832932 0.040888 0.214302
0.895919 0.045827 0.218144
0.958907 0.050766 0.221985
1.000000 0.055705 0.225826
0.032552 0.053297 0.177286
