Packages/FeatureMedia/Sources/FeatureMedia/Resources/LUTs/fade.cube
TITLE "Fade"
LUT_3D_SIZE 8
DOMAIN_MIN 0.0 0.0 0.0
DOMAIN_MAX 1.0 1.0 1.0

0.100000 0.100000 0.100000
0.197524 0.108381 0.108381
0.295048 0.116762 0.116762
0.392571 0.125143 0.125143
0.490095 0.133524 0.133524
0.587619 0.141905 0.141905
0.685143 0.150286 0.150286
0.782667 0.158667 0.158667
0.108381 0.197524 0.108381
0.205905 0.205905 0.116762
0.303429 0.214286 0.125143
0.400952 0.222667 0.133524
0.498476 0.231048 0.141905
0.596000 0.239429 0.150286
0.693524 0.247810 0.158667
0.791048 0.256190 0.167048
0.116762 0.295048 0.116762
0.214286 0.303429 0.125143
0.311810 0.311810 0.133524
0.409333 0.320190 0.141905
0.506857 0.328571 0.150286
0.604381 0.336952 0.158667
0.701905 0.345333 0.167048
0.799429 0.353714 0.175429
0.125143 0.392571 0.125143
0.222667 0.400952 0.133524
0.320190 0.409333 0.141905
0.417714 0.417714 0.150286
0.515238 0.426095 0.158667
0.612762 0.434476 0.167048
0.710286 0.442857 0.175429
0.807810 0.451238 0.183810
0.133524 0.490095 0.133524
0.231048 0.498476 0.141905
0.328571 0.506857 0.150286
0.426095 0.515238 0.158667
0.523619 0.523619 0.167048
0.621143 0.532000 0.175429
0.718667 0.540381 0.183810
0.816190 0.548762 0.192190
0.141905 0.587619 0.141905
0.239429 0.596000 0.150286
0.336952 0.604381 0.158667
0.434476 0.612762 0.167048
0.532000 0.621143 0.175429
0.629524 0.629524 0.183810
0.727048 0.637905 0.192190
0.824571 0.646286 0.200571
0.150286 0.685143 0.150286
0.247810 0.693524 0.158667
0.345333 0.701905 0.167048
0.442857 0.710286 0.175429
0.540381 0.718667 0.183810
0.637905 0.727048 0.192190
0.735429 0.735429 0.200571
0.832952 0.743810 0.208952
0.158667 0.782667 0.158667
0.256190 0.791048 0.167048
0.353714 0.799429 0.175429
0.451238 0.807810 0.183810
0.548762 0.816190 0.192190
0.646286 0.824571 0.200571
0.743810 0.832952 0.208952
0.841333 0.841333 0.217333
0.108381 0.108381 0.197524
0.205905 0.116762 0.205905
0.303429 0.125143 0.214286
0.400952 0.133524 0.222667
0.498476 0.141905 0.231048
0.596000 0.150286 0.239429
0.693524 0.158667 0.247810
0.791048 0.167048 0.256190
0.116762 0.205905 0.205905
0.214286 0.214286 0.214286
0.311810 0.222667 0.222667
0.409333 0.231048 0.231048
0.506857 0.239429 0.239429
0.604381 0.247810 0.247810
0.701905 0.256190 0.256190
0.799429 0.264571 0.264571
0.125143 0.303429 0.214286
0.222667 0.311810 0.222667
0.320190 0.320190 0.231048
0.417714 0.328571 0.239429
0.515238 0.336952 0.247810
0.612762 0.345333 0.256190
0.710286 0.353714 0.264571
0.807810 0.362095 0.272952
0.133524 0.400952 0.222667
0.231048 0.409333 0.231048
0.328571 0.417714 0.239429
0.426095 0.426095 0.247810
0.523619 0.434476 0.256190
0.621143 0.442857 0.264571
0.718667 0.451238 0.272952
0.816190 0.459619 0.281333
0.141905 0.498476 0.231048
0.239429 0.506857 0.239429
0.336952 0.515238 0.247810
0.434476 0.523619 0.256190
0.532000 0.532000 0.264571
0.629524 0.540381 0.272952
0.727048 0.548762 0.281333
0.824571 0.557143 0.289714
0.150286 0.596000 0.239429
0.247810 0.604381 0.247810
0.345333 0.612762 0.256190
0.442857 0.621143 0.264571
0.540381 0.629524 0.272952
0.637905 0.637905 0.281333
0.735429 0.646286 0.289714
0.832952 0.654667 0.298095
0.158667 0.693524 0.247810
0.256190 0.701905 0.256190
0.353714 0.710286 0.264571
0.451238 0.718667 0.272952
0.548762 0.727048 0.281333
0.646286 0.735429 0.289714
0.743810 0.743810 0.298095
0.841333 0.752190 0.306476
0.167048 0.791048 0.256190
0.264571 0.799429 0.264571
0.362095 0.807810 0.272952
0.459619 0.816190 0.281333
0.557143 0.824571 0.289714
0.654667 0.832952 0.298095
0.752190 0.841333 0.306476
0.849714 0.849714 0.314857
0.116762 0.116762 0.295048
0.214286 0.125143 0.303429
0.311810 0.133524 0.311810
0.409333 0.141905 0.320190
0.506857 0.150286 0.328571
0.604381 0.158667 0.336952
0.701905 0.167048 0.345333
0.799429 0.175429 0.353714
0.125143 0.214286 0.303429
0.222667 0.222667 0.311810
0.320190 0.231048 0.320190
0.417714 0.239429 0.328571
0.515238 0.247810 0.336952
0.612762 0.256190 0.345333
0.710286 0.264571 0.353714
0.807810 0.272952 0.362095
0.133524 0.311810 0.311810
0.231048 0.320190 0.320190
0.328571 0.328571 0.328571
0.426095 0.336952 0.336952
0.523619 0.345333 0.345333
0.621143 0.353714 0.353714
0.718667 0.362095 0.362095
0.816190 0.370476 0.370476
0.141905 0.409333 0.320190
0.239429 0.417714 0.328571
0.336952 0.426095 0.336952
0.434476 0.434476 0.345333
0.532000 0.442857 0.353714
0.629524 0.451238 0.362095
0.727048 0.459619 0.370476
0.824571 0.468000 0.378857
0.150286 0.506857 0.328571
0.247810 0.515238 0.336952
0.345333 0.523619 0.345333
0.442857 0.532000 0.353714
0.540381 0.540381 0.362095
0.637905 0.548762 0.370476
0.735429 0.557143 0.378857
0.832952 0.565524 0.387238
0.158667 0.604381 0.336952
0.256190 0.612762 0.345333
0.353714 0.621143 0.353714
0.451238 0.629524 0.362095
0.548762 0.637905 0.370476
0.646286 0.646286 0.378857
0.743810 0.654667 0.387238
0.841333 0.663048 0.395619
0.167048 0.701905 0.345333
0.264571 0.710286 0.353714
0.362095 0.718667 0.362095
0.459619 0.727048 0.370476
0.557143 0.735429 0.378857
0.654667 0.743810 0.387238
0.752190 0.752190 0.395619
0.849714 0.760571 0.404000
0.175429 0.799429 0.353714
0.272952 0.807810 0.362095
0.370476 0.816190 0.370476
0.468000 0.824571 0.378857
0.565524 0.832952 0.387238
0.663048 0.841333 0.395619
0.760571 0.849714 0.404000
0.858095 0.858095 0.412381
0.125143 0.125143 0.392571
0.222667 0.133524 0.400952
0.320190 0.141905 0.409333
0.417714 0.150286 0.417714
0.515238 0.158667 0.426095
0.612762 0.167048 0.434476
0.710286 0.175429 0.442857
0.807810 0.183810 0.451238
0.133524 0.222667 0.400952
0.231048 0.231048 0.409333
0.328571 0.239429 0.417714
0.426095 0.247810 0.426095
0.523619 0.256190 0.434476
0.621143 0.264571 0.442857
0.718667 0.272952 0.451238
0.816190 0.281333 0.459619
0.141905 0.320190 0.409333
0.239429 0.328571 0.417714
0.336952 0.336952 0.426095
0.434476 0.345333 0.434476
0.532000 0.353714 0.442857
0.629524 0.362095 0.451238
0.727048 0.370476 0.459619
0.824571 0.378857 0.468000
0.150286 0.417714 0.417714
0.247810 0.426095 0.426095
0.345333 0.434476 0.434476
0.442857 0.442857 0.442857
0.540381 0.451238 0.451238
0.637905 0.459619 0.459619
0.735429 0.468000 0.468000
0.832952 0.476381 0.476381
0.158667 0.515238 0.426095
0.256190 0.523619 0.434476
0.353714 0.532000 0.442857
0.451238 0.540381 0.451238
0.548762 0.548762 0.459619
0.646286 0.557143 0.468000
0.743810 0.565524 0.476381
0.841333 0.573905 0.484762
0.167048 0.612762 0.434476
0.264571 0.621143 0.442857
0.362095 0.629524 0.451238
0.459619 0.637905 0.459619
0.557143 0.646286 0.468000
0.654667 0.654667 0.476381
0.752190 0.663048 0.484762
0.849714 0.671429 0.493143
0.175429 0.710286 0.442857
0.272952 0.718667 0.451238
0.370476 0.727048 0.459619
0.468000 0.735429 0.468000
0.565524 0.743810 0.476381
0.663048 0.752190 0.484762
0.760571 0.760571 0.493143
0.858095 0.768952 0.501524
0.183810 0.807810 0.451238
0.281333 0.816190 0.459619
0.378857 0.824571 0.468000
0.476381 0.832952 0.476381
0.573905 0.841333 0.484762
0.671429 0.849714 0.493143
0.768952 0.858095 0.501524
0.866476 0.866476 0.509905
0.133524 0.133524 0.490095
0.231048 0.141905 0.498476
0.328571 0.150286 0.506857
0.426095 0.158667 0.515238
0.523619 0.167048 0.523619
0.621143 0.175429 0.532000
0.718667 0.183810 0.540381
0.816190 0.192190 0.548762
0.141905 0.231048 0.498476
0.239429 0.239429 0.506857
0.336952 0.247810 0.515238
0.434476 0.256190 0.523619
0.532000 0.264571 0.532000
0.629524 0.272952 0.540381
0.727048 0.281333 0.548762
0.824571 0.289714 0.557143
0.150286 0.328571 0.506857
0.247810 0.336952 0.515238
0.345333 0.345333 0.523619
0.442857 0.353714 0.532000
0.540381 0.362095 0.540381
0.637905 0.370476 0.548762
0.735429 0.378857 0.557143
0.832952 0.387238 0.565524
0.158667 0.426095 0.515238
0.256190 0.434476 0.523619
0.353714 0.442857 0.532000
0.451238 0.451238 0.540381
0.548762 0.459619 0.548762
0.646286 0.468000 0.557143
0.743810 0.476381 0.565524
0.841333 0.484762 0.573905
0.167048 0.523619 0.523619
0.264571 0.532000 0.532000
0.362095 0.540381 0.540381
0.459619 0.548762 0.548762
0.557143 0.557143 0.557143
0.654667 0.565524 0.565524
0.752190 0.573905 0.573905
0.849714 0.582286 0.582286
0.175429 0.621143 0.532000
0.272952 0.629524 0.540381
0.370476 0.637905 0.548762
0.468000 0.646286 0.557143
0.565524 0.654667 0.565524
0.663048 0.663048 0.573905
0.760571 0.671429 0.582286
0.858095 0.679810 0.590667
0.183810 0.718667 0.540381
0.281333 0.727048 0.548762
0.378857 0.735429 0.557143
0.476381 0.743810 0.565524
0.573905 0.752190 0.573905
0.671429 0.760571 0.582286
0.768952 0.768952 0.590667
0.866476 0.777333 0.599048
0.192190 0.816190 0.548762
0.289714 0.824571 0.557143
0.387238 0.832952 0.565524
0.484762 0.841333 0.573905
0.582286 0.849714 0.582286
0.679810 0.858095 0.590667
0.777333 0.866476 0.599048
0.874857 0.874857 0.607429
0.141905 0.141905 0.587619
0.239429 0.150286 0.596000
0.336952 0.158667 0.604381
0.434476 0.167048 0.612762
0.532000 0.175429 0.621143
0.629524 0.183810 0.629524
0.727048 0.192190 0.637905
0.824571 0.200571 0.646286
0.150286 0.239429 0.596000
0.247810 0.247810 0.604381
0.345333 0.256190 0.612762
0.442857 0.264571 0.621143
0.540381 0.272952 0.629524
0.637905 0.281333 0.637905
0.735429 0.289714 0.646286
0.832952 0.298095 0.654667
0.158667 0.336952 0.604381
0.256190 0.345333 0.612762
0.353714 0.353714 0.621143
0.451238 0.362095 0.629524
0.548762 0.370476 0.637905
0.646286 0.378857 0.646286
0.743810 0.387238 0.654667
0.841333 0.395619 0.663048
0.167048 0.434476 0.612762
0.264571 0.442857 0.621143
0.362095 0.451238 0.629524
0.459619 0.459619 0.637905
0.557143 0.468000 0.646286
0.654667 0.476381 0.654667
0.752190 0.484762 0.663048
0.849714 0.493143 0.671429
0.175429 0.532000 0.621143
0.272952 0.540381 0.629524
0.370476 0.548762 0.637905
0.468000 0.557143 0.646286
0.565524 0.565524 0.654667
0.663048 0.573905 0.663048
0.760571 0.582286 0.671429
0.858095 0.590667 0.679810
0.183810 0.629524 0.629524
0.281333 0.637905 0.637905
0.378857 0.646286 0.646286
0.476381 0.654667 0.654667
0.573905 0.663048 0.663048
0.671429 0.671429 0.671429
0.768952 0.679810 0.679810
0.866476 0.688190 0.688190
0.192190 0.727048 0.637905
0.289714 0.735429 0.646286
0.387238 0.743810 0.654667
0.484762 0.752190 0.663048
0.582286 0.760571 0.671429
0.679810 0.768952 0.679810
0.777333 0.777333 0.688190
0.874857 0.785714 0.696571
0.200571 0.824571 0.646286
0.298095 0.832952 0.654667
0.395619 0.841333 0.663048
0.493143 0.849714 0.671429
0.590667 0.858095 0.679810
0.688190 0.866476 0.688190
0.785714 0.874857 0.696571
0.883238 0.883238 0.704952
0.150286 0.150286 0.685143
0.247810 0.158667 0.693524
0.345333 0.167048 0.701905
0.442857 0.175429 0.710286
0.540381 0.183810 0.718667
0.637905 0.192190 0.727048
0.735429 0.200571 0.735429
0.832952 0.208952 0.743810
0.158667 0.247810 0.693524
0.256190 0.256190 0.701905
0.353714 0.264571 0.710286
0.451238 0.272952 0.718667
0.548762 0.281333 0.727048
0.646286 0.289714 0.735429
0.743810 0.298095 0.743810
0.841333 0.306476 0.752190
0.167048 0.345333 0.701905
0.264571 0.353714 0.710286
0.362095 0.362095 0.718667
0.459619 0.370476 0.727048
0.557143 0.378857 0.735429
0.654667 0.387238 0.743810
0.752190 0.395619 0.752190
0.849714 0.404000 0.760571
0.175429 0.442857 0.710286
0.272952 0.451238 0.718667
0.370476 0.459619 0.727048
0.468000 0.468000 0.735429
0.565524 0.476381 0.743810
0.663048 0.484762 0.752190
0.760571 0.493143 0.760571
0.858095 0.501524 0.768952
0.183810 0.540381 0.718667
0.281333 0.548762 0.727048
0.378857 0.557143 0.735429
0.476381 0.565524 0.743810
0.573905 0.573905 0.752190
0.671429 0.582286 0.760571
0.768952 0.590667 0.768952
0.866476 0.599048 0.777333
0.192190 0.637905 0.727048
0.289714 0.646286 0.735429
0.387238 0.654667 0.743810
0.484762 0.663048 0.752190
0.582286 0.671429 0.760571
0.679810 0.679810 0.768952
0.777333 0.688190 0.777333
0.874857 0.696571 0.785714
0.200571 0.735429 0.735429
0.298095 0.743810 0.743810
0.395619 0.752190 0.752190
0.493143 0.760571 0.760571
0.590667 0.768952 0.768952
0.688190 0.777333 0.777333
0.785714 0.785714 0.785714
0.883238 0.794095 0.794095
0.208952 0.832952 0.743810
0.306476 0.841333 0.752190
0.404000 0.849714 0.760571
0.501524 0.858095 0.768952
0.599048 0.866476 0.777333
0.696571 0.874857 0.785714
0.794095 0.883238 0.794095
0.891619 0.891619 0.802476
0.158667 0.158667 0.782667
0.256190 0.167048 0.791048
0.353714 0.175429 0.799429
0.451238 0.183810 0.807810
0.548762 0.192190 0.816190
0.646286 0.200571 0.824571
0.743810 0.208952 0.832952
0.841333 0.217333 0.841333
0.167048 0.256190 0.791048
0.264571 0.264571 0.799429
0.362095 0.272952 0.807810
0.459619 0.281333 0.816190
0.557143 0.289714 0.824571
0.654667 0.298095 0.832952
0.752190 0.306476 0.841333
0.849714 0.314857 0.849714
0.175429 0.353714 0.799429
0.272952 0.362095 0.807810
0.370476 0.370476 0.816190
0.468000 0.378857 0.824571
0.565524 0.387238 0.832952
0.663048 0.395619 0.841333
0.760571 0.404000 0.849714
0.858095 0.412381 0.858095
0.183810 0.451238 0.807810
0.281333 0.459619 0.816190
0.378857 0.468000 0.824571
0.476381 0.476381 0.832952
0.573905 0.484762 0.841333
0.671429 0.493143 0.849714
0.768952 0.501524 0.858095
0.866476 0.509905 0.866476
0.192190 0.548762 0.816190
0.289714 0.557143 0.824571
0.387238 0.565524 0.832952
0.484762 0.573905 0.841333
0.582286 0.582286 0.849714
0.679810 0.590667 0.858095
0.777333 0.599048 0.866476
0.874857 0.607429 0.874857
0.200571 0.646286 0.824571
0.298095 0.654667 0.832952
0.395619 0.663048 0.841333
0.493143 0.671429 0.849714
0.590667 0.679810 0.858095
0.688190 0.688190 0.866476
0.785714 0.696571 0.874857
0.883238 0.704952 0.883238
0.208952 0.743810 0.832952
0.306476 0.752190 0.841333
0.404000 0.760571 0.849714
0.501524 0.768952 0.858095
0.599048 0.777333 0.866476
0.696571 0.785714 0.874857
0.794095 0.794095 0.883238
0.891619 0.802476 0.891619
0.217333 0.841333 0.841333
0.314857 0.849714 0.849714
0.412381 0.858095 0.858095
0.509905 0.866476 0.866476
0.607429 0.874857 0.874857
0.704952 0.883238 0.883238
0.802476 0.891619 0.891619
0.900000 0.900000 0.900000
