Packages/FeatureMedia/Sources/FeatureMedia/Resources/LUTs/vintage.cube
TITLE "Vintage"
LUT_3D_SIZE 5
DOMAIN_MIN 0.0 0.0 0.0
DOMAIN_MAX 1.0 1.0 1.0
0.190400 0.155200 0.125600
0.388400 0.199200 0.147600
0.586400 0.243200 0.169600
0.784400 0.287200 0.191600
0.982400 0.331200 0.213600
0.212400 0.309200 0.169600
0.410400 0.353200 0.191600
0.608400 0.397200 0.213600
0.806400 0.441200 0.235600
1.000000 0.485200 0.257600
0.234400 0.463200 0.213600
0.432400 0.507200 0.235600
0.630400 0.551200 0.257600
0.828400 0.595200 0.279600
1.000000 0.639200 0.301600
0.256400 0.617200 0.257600
0.454400 0.661200 0.279600
0.652400 0.705200 0.301600
0.850400 0.749200 0.323600
1.000000 0.793200 0.345600
0.278400 0.771200 0.301600
0.476400 0.815200 0.323600
0.674400 0.859200 0.345600
0.872400 0.903200 0.367600
1.000000 0.947200 0.389600
0.190400 0.177200 0.246600
0.388400 0.221200 0.268600
0.586400 0.265200 0.290600
0.784400 0.309200 0.312600
0.982400 0.353200 0.334600
0.212400 0.331200 0.290600
0.410400 0.375200 0.312600
0.608400 0.419200 0.334600
0.806400 0.463200 0.356600
1.000000 0.507200 0.378600
0.234400 0.485200 0.334600
0.432400 0.529200 0.356600
0.630400 0.573200 0.378600
0.828400 0.617200 0.400600
1.000000 0.661200 0.422600
0.256400 0.639200 0.378600
0.454400 0.683200 0.400600
0.652400 0.727200 0.422600
0.850400 0.771200 0.444600
1.000000 0.815200 0.466600
0.278400 0.793200 0.422600
0.476400 0.837200 0.444600
0.674400 0.881200 0.466600
0.872400 0.925200 0.488600
1.000000 0.969200 0.510600
0.190400 0.199200 0.367600
0.388400 0.243200 0.389600
0.586400 0.287200 0.411600
0.784400 0.331200 0.433600
0.982400 0.375200 0.455600
0.212400 0.353200 0.411600
0.410400 0.397200 0.433600
0.608400 0.441200 0.455600
0.806400 0.485200 0.477600
1.000000 0.529200 0.499600
0.234400 0.507200 0.455600
0.432400 0.551200 0.477600
0.630400 0.595200 0.499600
0.828400 0.639200 0.521600
1.000000 0.683200 0.543600
0.256400 0.661200 0.499600
0.454400 0.705200 0.521600
0.652400 0.749200 0.543600
0.850400 0.793200 0.565600
1.000000 0.837200 0.587600
0.278400 0.815200 0.543600
0.476400 0.859200 0.565600
0.674400 0.903200 0.587600
0.872400 0.947200 0.609600
1.000000 0.991200 0.631600
0.190400 0.221200 0.488600
0.388400 0.265200 0.510600
0.586400 0.309200 0.532600
0.784400 0.353200 0.554600
0.982400 0.397200 0.576600
0.212400 0.375200 0.532600
0.410400 0.419200 0.554600
0.608400 0.463200 0.576600
0.806400 0.507200 0.598600
1.000000 0.551200 0.620600
0.234400 0.529200 0.576600
0.432400 0.573200 0.598600
0.630400 0.617200 0.620600
0.828400 0.661200 0.642600
1.000000 0.705200 0.664600
0.256400 0.683200 0.620600
0.454400 0.727200 0.642600
0.652400 0.771200 0.664600
0.850400 0.815200 0.686600
1.000000 0.859200 0.708600
0.278400 0.837200 0.664600
0.476400 0.881200 0.686600
0.674400 0.925200 0.708600
0.872400 0.969200 0.730600
1.000000 1.000000 0.752600
0.190400 0.243200 0.609600
0.388400 0.287200 0.631600
0.586400 0.331200 0.653600
0.784400 0.375200 0.675600
0.982400 0.419200 0.697600
0.212400 0.397200 0.653600
0.410400 0.441200 0.675600
0.608400 0.485200 0.697600
0.806400 0.529200 0.719600
1.000000 0.573200 0.741600
0.234400 0.551200 0.697600
0.432400 0.595200 0.719600
0.630400 0.639200 0.741600
0.828400 0.683200 0.763600
1.000000 0.727200 0.785600
0.256400 0.705200 0.741600
0.454400 0.749200 0.763600
0.652400 0.793200 0.785600
0.850400 0.837200 0.807600
1.000000 0.881200 0.829600
0.278400 0.859200 0.785600
0.476400 0.903200 0.807600
0.674400 0.947200 0.829600
0.872400 0.991200 0.851600
1.000000 1.000000 0.873600
