Packages/FeatureMedia/Sources/FeatureMedia/Resources/LUTs/vintage.cube
TITLE "Vintage"
LUT_3D_SIZE 17
DOMAIN_MIN 0.0 0.0 0.0
DOMAIN_MAX 1.0 1.0 1.0
0.190400 0.155200 0.125600
0.239900 0.166200 0.131100
0.289400 0.177200 0.136600
0.338900 0.188200 0.142100
0.388400 0.199200 0.147600
0.437900 0.210200 0.153100
0.487400 0.221200 0.158600
0.536900 0.232200 0.164100
0.586400 0.243200 0.169600
0.635900 0.254200 0.175100
0.685400 0.265200 0.180600
0.734900 0.276200 0.186100
0.784400 0.287200 0.191600
0.833900 0.298200 0.197100
0.883400 0.309200 0.202600
0.932900 0.320200 0.208100
0.982400 0.331200 0.213600
0.195900 0.193700 0.136600
0.245400 0.204700 0.142100
0.294900 0.215700 0.147600
0.344400 0.226700 0.153100
0.393900 0.237700 0.158600
0.443400 0.248700 0.164100
0.492900 0.259700 0.169600
0.542400 0.270700 0.175100
0.591900 0.281700 0.180600
0.641400 0.292700 0.186100
0.690900 0.303700 0.191600
0.740400 0.314700 0.197100
0.789900 0.325700 0.202600
0.839400 0.336700 0.208100
0.888900 0.347700 0.213600
0.938400 0.358700 0.219100
0.987900 0.369700 0.224600
0.201400 0.232200 0.147600
0.250900 0.243200 0.153100
0.300400 0.254200 0.158600
0.349900 0.265200 0.164100
0.399400 0.276200 0.169600
0.448900 0.287200 0.175100
0.498400 0.298200 0.180600
0.547900 0.309200 0.186100
0.597400 0.320200 0.191600
0.646900 0.331200 0.197100
0.696400 0.342200 0.202600
0.745900 0.353200 0.208100
0.795400 0.364200 0.213600
0.844900 0.375200 0.219100
0.894400 0.386200 0.224600
0.943900 0.397200 0.230100
0.993400 0.408200 0.235600
0.206900 0.270700 0.158600
0.256400 0.281700 0.164100
0.305900 0.292700 0.169600
0.355400 0.303700 0.175100
0.404900 0.314700 0.180600
0.454400 0.325700 0.186100
0.503900 0.336700 0.191600
0.553400 0.347700 0.197100
0.602900 0.358700 0.202600
0.652400 0.369700 0.208100
0.701900 0.380700 0.213600
0.751400 0.391700 0.219100
0.800900 0.402700 0.224600
0.850400 0.413700 0.230100
0.899900 0.424700 0.235600
0.949400 0.435700 0.241100
0.998900 0.446700 0.246600
0.212400 0.309200 0.169600
0.261900 0.320200 0.175100
0.311400 0.331200 0.180600
0.360900 0.342200 0.186100
0.410400 0.353200 0.191600
0.459900 0.364200 0.197100
0.509400 0.375200 0.202600
0.558900 0.386200 0.208100
0.608400 0.397200 0.213600
0.657900 0.408200 0.219100
0.707400 0.419200 0.224600
0.756900 0.430200 0.230100
0.806400 0.441200 0.235600
0.855900 0.452200 0.241100
0.905400 0.463200 0.246600
0.954900 0.474200 0.252100
1.000000 0.485200 0.257600
0.217900 0.347700 0.180600
0.267400 0.358700 0.186100
0.316900 0.369700 0.191600
0.366400 0.380700 0.197100
0.415900 0.391700 0.202600
0.465400 0.402700 0.208100
0.514900 0.413700 0.213600
0.564400 0.424700 0.219100
0.613900 0.435700 0.224600
0.663400 0.446700 0.230100
0.712900 0.457700 0.235600
0.762400 0.468700 0.241100
0.811900 0.479700 0.246600
0.861400 0.490700 0.252100
0.910900 0.501700 0.257600
0.960400 0.512700 0.263100
1.000000 0.523700 0.268600
0.223400 0.386200 0.191600
0.272900 0.397200 0.197100
0.322400 0.408200 0.202600
0.371900 0.419200 0.208100
0.421400 0.430200 0.213600
0.470900 0.441200 0.219100
0.520400 0.452200 0.224600
0.569900 0.463200 0.230100
0.619400 0.474200 0.235600
0.668900 0.485200 0.241100
0.718400 0.496200 0.246600
0.767900 0.507200 0.252100
0.817400 0.518200 0.257600
0.866900 0.529200 0.263100
0.916400 0.540200 0.268600
0.965900 0.551200 0.274100
1.000000 0.562200 0.279600
0.228900 0.424700 0.202600
0.278400 0.435700 0.208100
0.327900 0.446700 0.213600
0.377400 0.457700 0.219100
0.426900 0.468700 0.224600
0.476400 0.479700 0.230100
0.525900 0.490700 0.235600
0.575400 0.501700 0.241100
0.624900 0.512700 0.246600
0.674400 0.523700 0.252100
0.723900 0.534700 0.257600
0.773400 0.545700 0.263100
0.822900 0.556700 0.268600
0.872400 0.567700 0.274100
0.921900 0.578700 0.279600
0.971400 0.589700 0.285100
1.000000 0.600700 0.290600
0.234400 0.463200 0.213600
0.283900 0.474200 0.219100
0.333400 0.485200 0.224600
0.382900 0.496200 0.230100
0.432400 0.507200 0.235600
0.481900 0.518200 0.241100
0.531400 0.529200 0.246600
0.580900 0.540200 0.252100
0.630400 0.551200 0.257600
0.679900 0.562200 0.263100
0.729400 0.573200 0.268600
0.778900 0.584200 0.274100
0.828400 0.595200 0.279600
0.877900 0.606200 0.285100
0.927400 0.617200 0.290600
0.976900 0.628200 0.296100
1.000000 0.639200 0.301600
0.239900 0.501700 0.224600
0.289400 0.512700 0.230100
0.338900 0.523700 0.235600
0.388400 0.534700 0.241100
0.437900 0.545700 0.246600
0.487400 0.556700 0.252100
0.536900 0.567700 0.257600
0.586400 0.578700 0.263100
0.635900 0.589700 0.268600
0.685400 0.600700 0.274100
0.734900 0.611700 0.279600
0.784400 0.622700 0.285100
0.833900 0.633700 0.290600
0.883400 0.644700 0.296100
0.932900 0.655700 0.301600
0.982400 0.666700 0.307100
1.000000 0.677700 0.312600
0.245400 0.540200 0.235600
0.294900 0.551200 0.241100
0.344400 0.562200 0.246600
0.393900 0.573200 0.252100
0.443400 0.584200 0.257600
0.492900 0.595200 0.263100
0.542400 0.606200 0.268600
0.591900 0.617200 0.274100
0.641400 0.628200 0.279600
0.690900 0.639200 0.285100
0.740400 0.650200 0.290600
0.789900 0.661200 0.296100
0.839400 0.672200 0.301600
0.888900 0.683200 0.307100
0.938400 0.694200 0.312600
0.987900 0.705200 0.318100
1.000000 0.716200 0.323600
0.250900 0.578700 0.246600
0.300400 0.589700 0.252100
0.349900 0.600700 0.257600
0.399400 0.611700 0.263100
0.448900 0.622700 0.268600
0.498400 0.633700 0.274100
0.547900 0.644700 0.279600
0.597400 0.655700 0.285100
0.646900 0.666700 0.290600
0.696400 0.677700 0.296100
0.745900 0.688700 0.301600
0.795400 0.699700 0.307100
0.844900 0.710700 0.312600
0.894400 0.721700 0.318100
0.943900 0.732700 0.323600
0.993400 0.743700 0.329100
1.000000 0.754700 0.334600
0.256400 0.617200 0.257600
0.305900 0.628200 0.263100
0.355400 0.639200 0.268600
0.404900 0.650200 0.274100
0.454400 0.661200 0.279600
0.503900 0.672200 0.285100
0.553400 0.683200 0.290600
0.602900 0.694200 0.296100
0.652400 0.705200 0.301600
0.701900 0.716200 0.307100
0.751400 0.727200 0.312600
0.800900 0.738200 0.318100
0.850400 0.749200 0.323600
0.899900 0.760200 0.329100
0.949400 0.771200 0.334600
0.998900 0.782200 0.340100
1.000000 0.793200 0.345600
0.261900 0.655700 0.268600
0.311400 0.666700 0.274100
0.360900 0.677700 0.279600
0.410400 0.688700 0.285100
0.459900 0.699700 0.290600
0.509400 0.710700 0.296100
0.558900 0.721700 0.301600
0.608400 0.732700 0.307100
0.657900 0.743700 0.312600
0.707400 0.754700 0.318100
0.756900 0.765700 0.323600
0.806400 0.776700 0.329100
0.855900 0.787700 0.334600
0.905400 0.798700 0.340100
0.954900 0.809700 0.345600
1.000000 0.820700 0.351100
1.000000 0.831700 0.356600
0.267400 0.694200 0.279600
0.316900 0.705200 0.285100
0.366400 0.716200 0.290600
0.415900 0.727200 0.296100
0.465400 0.738200 0.301600
0.514900 0.749200 0.307100
0.564400 0.760200 0.312600
0.613900 0.771200 0.318100
0.663400 0.782200 0.323600
0.712900 0.793200 0.329100
0.762400 0.804200 0.334600
0.811900 0.815200 0.340100
0.861400 0.826200 0.345600
0.910900 0.837200 0.351100
0.960400 0.848200 0.356600
1.000000 0.859200 0.362100
1.000000 0.870200 0.367600
0.272900 0.732700 0.290600
0.322400 0.743700 0.296100
0.371900 0.754700 0.301600
0.421400 0.765700 0.307100
0.470900 0.776700 0.312600
0.520400 0.787700 0.318100
0.569900 0.798700 0.323600
0.619400 0.809700 0.329100
0.668900 0.820700 0.334600
0.718400 0.831700 0.340100
0.767900 0.842700 0.345600
0.817400 0.853700 0.351100
0.866900 0.864700 0.356600
0.916400 0.875700 0.362100
0.965900 0.886700 0.367600
1.000000 0.897700 0.373100
1.000000 0.908700 0.378600
0.278400 0.771200 0.301600
0.327900 0.782200 0.307100
0.377400 0.793200 0.312600
0.426900 0.804200 0.318100
0.476400 0.815200 0.323600
0.525900 0.826200 0.329100
0.575400 0.837200 0.334600
0.624900 0.848200 0.340100
0.674400 0.859200 0.345600
0.723900 0.870200 0.351100
0.773400 0.881200 0.356600
0.822900 0.892200 0.362100
0.872400 0.903200 0.367600
0.921900 0.914200 0.373100
0.971400 0.925200 0.378600
1.000000 0.936200 0.384100
1.000000 0.947200 0.389600
0.190400 0.160700 0.155850
0.239900 0.171700 0.161350
0.289400 0.182700 0.166850
0.338900 0.193700 0.172350
0.388400 0.204700 0.177850
0.437900 0.215700 0.183350
0.487400 0.226700 0.188850
0.536900 0.237700 0.194350
0.586400 0.248700 0.199850
0.635900 0.259700 0.205350
0.685400 0.270700 0.210850
0.734900 0.281700 0.216350
0.784400 0.292700 0.221850
0.833900 0.303700 0.227350
0.883400 0.314700 0.232850
0.932900 0.325700 0.238350
0.982400 0.336700 0.243850
0.195900 0.199200 0.166850
0.245400 0.210200 0.172350
0.294900 0.221200 0.177850
0.344400 0.232200 0.183350
0.393900 0.243200 0.188850
0.443400 0.254200 0.194350
0.492900 0.265200 0.199850
0.542400 0.276200 0.205350
0.591900 0.287200 0.210850
0.641400 0.298200 0.216350
0.690900 0.309200 0.221850
0.740400 0.320200 0.227350
0.789900 0.331200 0.232850
0.839400 0.342200 0.238350
0.888900 0.353200 0.243850
0.938400 0.364200 0.249350
0.987900 0.375200 0.254850
0.201400 0.237700 0.177850
0.250900 0.248700 0.183350
0.300400 0.259700 0.188850
0.349900 0.270700 0.194350
0.399400 0.281700 0.199850
0.448900 0.292700 0.205350
0.498400 0.303700 0.210850
0.547900 0.314700 0.216350
0.597400 0.325700 0.221850
0.646900 0.336700 0.227350
0.696400 0.347700 0.232850
0.745900 0.358700 0.238350
0.795400 0.369700 0.243850
0.844900 0.380700 0.249350
0.894400 0.391700 0.254850
0.943900 0.402700 0.260350
0.993400 0.413700 0.265850
0.206900 0.276200 0.188850
0.256400 0.287200 0.194350
0.305900 0.298200 0.199850
0.355400 0.309200 0.205350
0.404900 0.320200 0.210850
0.454400 0.331200 0.216350
0.503900 0.342200 0.221850
0.553400 0.353200 0.227350
0.602900 0.364200 0.232850
0.652400 0.375200 0.238350
0.701900 0.386200 0.243850
0.751400 0.397200 0.249350
0.800900 0.408200 0.254850
0.850400 0.419200 0.260350
0.899900 0.430200 0.265850
0.949400 0.441200 0.271350
0.998900 0.452200 0.276850
0.212400 0.314700 0.199850
0.261900 0.325700 0.205350
0.311400 0.336700 0.210850
0.360900 0.347700 0.216350
0.410400 0.358700 0.221850
0.459900 0.369700 0.227350
0.509400 0.380700 0.232850
0.558900 0.391700 0.238350
0.608400 0.402700 0.243850
0.657900 0.413700 0.249350
0.707400 0.424700 0.254850
0.756900 0.435700 0.260350
0.806400 0.446700 0.265850
0.855900 0.457700 0.271350
0.905400 0.468700 0.276850
0.954900 0.479700 0.282350
1.000000 0.490700 0.287850
0.217900 0.353200 0.210850
0.267400 0.364200 0.216350
0.316900 0.375200 0.221850
0.366400 0.386200 0.227350
0.415900 0.397200 0.232850
0.465400 0.408200 0.238350
0.514900 0.419200 0.243850
0.564400 0.430200 0.249350
0.613900 0.441200 0.254850
0.663400 0.452200 0.260350
0.712900 0.463200 0.265850
0.762400 0.474200 0.271350
0.811900 0.485200 0.276850
0.861400 0.496200 0.282350
0.910900 0.507200 0.287850
0.960400 0.518200 0.293350
1.000000 0.529200 0.298850
0.223400 0.391700 0.221850
0.272900 0.402700 0.227350
0.322400 0.413700 0.232850
0.371900 0.424700 0.238350
0.421400 0.435700 0.243850
0.470900 0.446700 0.249350
0.520400 0.457700 0.254850
0.569900 0.468700 0.260350
0.619400 0.479700 0.265850
0.668900 0.490700 0.271350
0.718400 0.501700 0.276850
0.767900 0.512700 0.282350
0.817400 0.523700 0.287850
0.866900 0.534700 0.293350
0.916400 0.545700 0.298850
0.965900 0.556700 0.304350
1.000000 0.567700 0.309850
0.228900 0.430200 0.232850
0.278400 0.441200 0.238350
0.327900 0.452200 0.243850
0.377400 0.463200 0.249350
0.426900 0.474200 0.254850
0.476400 0.485200 0.260350
0.525900 0.496200 0.265850
0.575400 0.507200 0.271350
0.624900 0.518200 0.276850
0.674400 0.529200 0.282350
0.723900 0.540200 0.287850
0.773400 0.551200 0.293350
0.822900 0.562200 0.298850
0.872400 0.573200 0.304350
0.921900 0.584200 0.309850
0.971400 0.595200 0.315350
1.000000 0.606200 0.320850
0.234400 0.468700 0.243850
0.283900 0.479700 0.249350
0.333400 0.490700 0.254850
0.382900 0.501700 0.260350
0.432400 0.512700 0.265850
0.481900 0.523700 0.271350
0.531400 0.534700 0.276850
0.580900 0.545700 0.282350
0.630400 0.556700 0.287850
0.679900 0.567700 0.293350
0.729400 0.578700 0.298850
0.778900 0.589700 0.304350
0.828400 0.600700 0.309850
0.877900 0.611700 0.315350
0.927400 0.622700 0.320850
0.976900 0.633700 0.326350
1.000000 0.644700 0.331850
0.239900 0.507200 0.254850
0.289400 0.518200 0.260350
0.338900 0.529200 0.265850
0.388400 0.540200 0.271350
0.437900 0.551200 0.276850
0.487400 0.562200 0.282350
0.536900 0.573200 0.287850
0.586400 0.584200 0.293350
0.635900 0.595200 0.298850
0.685400 0.606200 0.304350
0.734900 0.617200 0.309850
0.784400 0.628200 0.315350
0.833900 0.639200 0.320850
0.883400 0.650200 0.326350
0.932900 0.661200 0.331850
0.982400 0.672200 0.337350
1.000000 0.683200 0.342850
0.245400 0.545700 0.265850
0.294900 0.556700 0.271350
0.344400 0.567700 0.276850
0.393900 0.578700 0.282350
0.443400 0.589700 0.287850
0.492900 0.600700 0.293350
0.542400 0.611700 0.298850
0.591900 0.622700 0.304350
0.641400 0.633700 0.309850
0.690900 0.644700 0.315350
0.740400 0.655700 0.320850
0.789900 0.666700 0.326350
0.839400 0.677700 0.331850
0.888900 0.688700 0.337350
0.938400 0.699700 0.342850
0.987900 0.710700 0.348350
1.000000 0.721700 0.353850
0.250900 0.584200 0.276850
0.300400 0.595200 0.282350
0.349900 0.606200 0.287850
0.399400 0.617200 0.293350
0.448900 0.628200 0.298850
0.498400 0.639200 0.304350
0.547900 0.650200 0.309850
0.597400 0.661200 0.315350
0.646900 0.672200 0.320850
0.696400 0.683200 0.326350
0.745900 0.694200 0.331850
0.795400 0.705200 0.337350
0.844900 0.716200 0.342850
0.894400 0.727200 0.348350
0.943900 0.738200 0.353850
0.993400 0.749200 0.359350
1.000000 0.760200 0.364850
0.256400 0.622700 0.287850
0.305900 0.633700 0.293350
0.355400 0.644700 0.298850
0.404900 0.655700 0.304350
0.454400 0.666700 0.309850
0.503900 0.677700 0.315350
0.553400 0.688700 0.320850
0.602900 0.699700 0.326350
0.652400 0.710700 0.331850
0.701900 0.721700 0.337350
0.751400 0.732700 0.342850
0.800900 0.743700 0.348350
0.850400 0.754700 0.353850
0.899900 0.765700 0.359350
0.949400 0.776700 0.364850
0.998900 0.787700 0.370350
1.000000 0.798700 0.375850
0.261900 0.661200 0.298850
0.311400 0.672200 0.304350
0.360900 0.683200 0.309850
0.410400 0.694200 0.315350
0.459900 0.705200 0.320850
0.509400 0.716200 0.326350
0.558900 0.727200 0.331850
0.608400 0.738200 0.337350
0.657900 0.749200 0.342850
0.707400 0.760200 0.348350
0.756900 0.771200 0.353850
0.806400 0.782200 0.359350
0.855900 0.793200 0.364850
0.905400 0.804200 0.370350
0.954900 0.815200 0.375850
1.000000 0.826200 0.381350
1.000000 0.837200 0.386850
0.267400 0.699700 0.309850
0.316900 0.710700 0.315350
0.366400 0.721700 0.320850
0.415900 0.732700 0.326350
0.465400 0.743700 0.331850
0.514900 0.754700 0.337350
0.564400 0.765700 0.342850
0.613900 0.776700 0.348350
0.663400 0.787700 0.353850
0.712900 0.798700 0.359350
0.762400 0.809700 0.364850
0.811900 0.820700 0.370350
0.861400 0.831700 0.375850
0.910900 0.842700 0.381350
0.960400 0.853700 0.386850
1.000000 0.864700 0.392350
1.000000 0.875700 0.397850
0.272900 0.738200 0.320850
0.322400 0.749200 0.326350
0.371900 0.760200 0.331850
0.421400 0.771200 0.337350
0.470900 0.782200 0.342850
0.520400 0.793200 0.348350
0.569900 0.804200 0.353850
0.619400 0.815200 0.359350
0.668900 0.826200 0.364850
0.718400 0.837200 0.370350
0.767900 0.848200 0.375850
0.817400 0.859200 0.381350
0.866900 0.870200 0.386850
0.916400 0.881200 0.392350
0.965900 0.892200 0.397850
1.000000 0.903200 0.403350
1.000000 0.914200 0.408850
0.278400 0.776700 0.331850
0.327900 0.787700 0.337350
0.377400 0.798700 0.342850
0.426900 0.809700 0.348350
0.476400 0.820700 0.353850
0.525900 0.831700 0.359350
0.575400 0.842700 0.364850
0.624900 0.853700 0.370350
0.674400 0.864700 0.375850
0.723900 0.875700 0.381350
0.773400 0.886700 0.386850
0.822900 0.897700 0.392350
0.872400 0.908700 0.397850
0.921900 0.919700 0.403350
0.971400 0.930700 0.408850
1.000000 0.941700 0.414350
1.000000 0.952700 0.419850
0.190400 0.166200 0.186100
0.239900 0.177200 0.191600
0.289400 0.188200 0.197100
0.338900 0.199200 0.202600
0.388400 0.210200 0.208100
0.437900 0.221200 0.213600
0.487400 0.232200 0.219100
0.536900 0.243200 0.224600
0.586400 0.254200 0.230100
0.635900 0.265200 0.235600
0.685400 0.276200 0.241100
0.734900 0.287200 0.246600
0.784400 0.298200 0.252100
0.833900 0.309200 0.257600
0.883400 0.320200 0.263100
0.932900 0.331200 0.268600
0.982400 0.342200 0.274100
0.195900 0.204700 0.197100
0.245400 0.215700 0.202600
0.294900 0.226700 0.208100
0.344400 0.237700 0.213600
0.393900 0.248700 0.219100
0.443400 0.259700 0.224600
0.492900 0.270700 0.230100
0.542400 0.281700 0.235600
0.591900 0.292700 0.241100
0.641400 0.303700 0.246600
0.690900 0.314700 0.252100
0.740400 0.325700 0.257600
0.789900 0.336700 0.263100
0.839400 0.347700 0.268600
0.888900 0.358700 0.274100
0.938400 0.369700 0.279600
0.987900 0.380700 0.285100
0.201400 0.243200 0.208100
0.250900 0.254200 0.213600
0.300400 0.265200 0.219100
0.349900 0.276200 0.224600
0.399400 0.287200 0.230100
0.448900 0.298200 0.235600
0.498400 0.309200 0.241100
0.547900 0.320200 0.246600
0.597400 0.331200 0.252100
0.646900 0.342200 0.257600
0.696400 0.353200 0.263100
0.745900 0.364200 0.268600
0.795400 0.375200 0.274100
0.844900 0.386200 0.279600
0.894400 0.397200 0.285100
0.943900 0.408200 0.290600
0.993400 0.419200 0.296100
0.206900 0.281700 0.219100
0.256400 0.292700 0.224600
0.305900 0.303700 0.230100
0.355400 0.314700 0.235600
0.404900 0.325700 0.241100
0.454400 0.336700 0.246600
0.503900 0.347700 0.252100
0.553400 0.358700 0.257600
0.602900 0.369700 0.263100
0.652400 0.380700 0.268600
0.701900 0.391700 0.274100
0.751400 0.402700 0.279600
0.800900 0.413700 0.285100
0.850400 0.424700 0.290600
0.899900 0.435700 0.296100
0.949400 0.446700 0.301600
0.998900 0.457700 0.307100
0.212400 0.320200 0.230100
0.261900 0.331200 0.235600
0.311400 0.342200 0.241100
0.360900 0.353200 0.246600
0.410400 0.364200 0.252100
0.459900 0.375200 0.257600
0.509400 0.386200 0.263100
0.558900 0.397200 0.268600
0.608400 0.408200 0.274100
0.657900 0.419200 0.279600
0.707400 0.430200 0.285100
0.756900 0.441200 0.290600
0.806400 0.452200 0.296100
0.855900 0.463200 0.301600
0.905400 0.474200 0.307100
0.954900 0.485200 0.312600
1.000000 0.496200 0.318100
0.217900 0.358700 0.241100
0.267400 0.369700 0.246600
0.316900 0.380700 0.252100
0.366400 0.391700 0.257600
0.415900 0.402700 0.263100
0.465400 0.413700 0.268600
0.514900 0.424700 0.274100
0.564400 0.435700 0.279600
0.613900 0.446700 0.285100
0.663400 0.457700 0.290600
0.712900 0.468700 0.296100
0.762400 0.479700 0.301600
0.811900 0.490700 0.307100
0.861400 0.501700 0.312600
0.910900 0.512700 0.318100
0.960400 0.523700 0.323600
1.000000 0.534700 0.329100
0.223400 0.397200 0.252100
0.272900 0.408200 0.257600
0.322400 0.419200 0.263100
0.371900 0.430200 0.268600
0.421400 0.441200 0.274100
0.470900 0.452200 0.279600
0.520400 0.463200 0.285100
0.569900 0.474200 0.290600
0.619400 0.485200 0.296100
0.668900 0.496200 0.301600
0.718400 0.507200 0.307100
0.767900 0.518200 0.312600
0.817400 0.529200 0.318100
0.866900 0.540200 0.323600
0.916400 0.551200 0.329100
0.965900 0.562200 0.334600
1.000000 0.573200 0.340100
0.228900 0.435700 0.263100
0.278400 0.446700 0.268600
0.327900 0.457700 0.274100
0.377400 0.468700 0.279600
0.426900 0.479700 0.285100
0.476400 0.490700 0.290600
0.525900 0.501700 0.296100
0.575400 0.512700 0.301600
0.624900 0.523700 0.307100
0.674400 0.534700 0.312600
0.723900 0.545700 0.318100
0.773400 0.556700 0.323600
0.822900 0.567700 0.329100
0.872400 0.578700 0.334600
0.921900 0.589700 0.340100
0.971400 0.600700 0.345600
1.000000 0.611700 0.351100
0.234400 0.474200 0.274100
0.283900 0.485200 0.279600
0.333400 0.496200 0.285100
0.382900 0.507200 0.290600
0.432400 0.518200 0.296100
0.481900 0.529200 0.301600
0.531400 0.540200 0.307100
0.580900 0.551200 0.312600
0.630400 0.562200 0.318100
0.679900 0.573200 0.323600
0.729400 0.584200 0.329100
0.778900 0.595200 0.334600
0.828400 0.606200 0.340100
0.877900 0.617200 0.345600
0.927400 0.628200 0.351100
0.976900 0.639200 0.356600
1.000000 0.650200 0.362100
0.239900 0.512700 0.285100
0.289400 0.523700 0.290600
0.338900 0.534700 0.296100
0.388400 0.545700 0.301600
0.437900 0.556700 0.307100
0.487400 0.567700 0.312600
0.536900 0.578700 0.318100
0.586400 0.589700 0.323600
0.635900 0.600700 0.329100
0.685400 0.611700 0.334600
0.734900 0.622700 0.340100
0.784400 0.633700 0.345600
0.833900 0.644700 0.351100
0.883400 0.655700 0.356600
0.932900 0.666700 0.362100
0.982400 0.677700 0.367600
1.000000 0.688700 0.373100
0.245400 0.551200 0.296100
0.294900 0.562200 0.301600
0.344400 0.573200 0.307100
0.393900 0.584200 0.312600
0.443400 0.595200 0.318100
0.492900 0.606200 0.323600
0.542400 0.617200 0.329100
0.591900 0.628200 0.334600
0.641400 0.639200 0.340100
0.690900 0.650200 0.345600
0.740400 0.661200 0.351100
0.789900 0.672200 0.356600
0.839400 0.683200 0.362100
0.888900 0.694200 0.367600
0.938400 0.705200 0.373100
0.987900 0.716200 0.378600
1.000000 0.727200 0.384100
0.250900 0.589700 0.307100
0.300400 0.600700 0.312600
0.349900 0.611700 0.318100
0.399400 0.622700 0.323600
0.448900 0.633700 0.329100
0.498400 0.644700 0.334600
0.547900 0.655700 0.340100
0.597400 0.666700 0.345600
0.646900 0.677700 0.351100
0.696400 0.688700 0.356600
0.745900 0.699700 0.362100
0.795400 0.710700 0.367600
0.844900 0.721700 0.373100
0.894400 0.732700 0.378600
0.943900 0.743700 0.384100
0.993400 0.754700 0.389600
1.000000 0.765700 0.395100
0.256400 0.628200 0.318100
0.305900 0.639200 0.323600
0.355400 0.650200 0.329100
0.404900 0.661200 0.334600
0.454400 0.672200 0.340100
0.503900 0.683200 0.345600
0.553400 0.694200 0.351100
0.602900 0.705200 0.356600
0.652400 0.716200 0.362100
0.701900 0.727200 0.367600
0.751400 0.738200 0.373100
0.800900 0.749200 0.378600
0.850400 0.760200 0.384100
0.899900 0.771200 0.389600
0.949400 0.782200 0.395100
0.998900 0.793200 0.400600
1.000000 0.804200 0.406100
0.261900 0.666700 0.329100
0.311400 0.677700 0.334600
0.360900 0.688700 0.340100
0.410400 0.699700 0.345600
0.459900 0.710700 0.351100
0.509400 0.721700 0.356600
0.558900 0.732700 0.362100
0.608400 0.743700 0.367600
0.657900 0.754700 0.373100
0.707400 0.765700 0.378600
0.756900 0.776700 0.384100
0.806400 0.787700 0.389600
0.855900 0.798700 0.395100
0.905400 0.809700 0.400600
0.954900 0.820700 0.406100
1.000000 0.831700 0.411600
1.000000 0.842700 0.417100
0.267400 0.705200 0.340100
0.316900 0.716200 0.345600
0.366400 0.727200 0.351100
0.415900 0.738200 0.356600
0.465400 0.749200 0.362100
0.514900 0.760200 0.367600
0.564400 0.771200 0.373100
0.613900 0.782200 0.378600
0.663400 0.793200 0.384100
0.712900 0.804200 0.389600
0.762400 0.815200 0.395100
0.811900 0.826200 0.400600
0.861400 0.837200 0.406100
0.910900 0.848200 0.411600
0.960400 0.859200 0.417100
1.000000 0.870200 0.422600
1.000000 0.881200 0.428100
0.272900 0.743700 0.351100
0.322400 0.754700 0.356600
0.371900 0.765700 0.362100
0.421400 0.776700 0.367600
0.470900 0.787700 0.373100
0.520400 0.798700 0.378600
0.569900 0.809700 0.384100
0.619400 0.820700 0.389600
0.668900 0.831700 0.395100
0.718400 0.842700 0.400600
0.767900 0.853700 0.406100
0.817400 0.864700 0.411600
0.866900 0.875700 0.417100
0.916400 0.886700 0.422600
0.965900 0.897700 0.428100
1.000000 0.908700 0.433600
1.000000 0.919700 0.439100
0.278400 0.782200 0.362100
0.327900 0.793200 0.367600
0.377400 0.804200 0.373100
0.426900 0.815200 0.378600
0.476400 0.826200 0.384100
0.525900 0.837200 0.389600
0.575400 0.848200 0.395100
0.624900 0.859200 0.400600
0.674400 0.870200 0.406100
0.723900 0.881200 0.411600
0.773400 0.892200 0.417100
0.822900 0.903200 0.422600
0.872400 0.914200 0.428100
0.921900 0.925200 0.433600
0.971400 0.936200 0.439100
1.000000 0.947200 0.444600
1.000000 0.958200 0.450100
0.190400 0.171700 0.216350
0.239900 0.182700 0.221850
0.289400 0.193700 0.227350
0.338900 0.204700 0.232850
0.388400 0.215700 0.238350
0.437900 0.226700 0.243850
0.487400 0.237700 0.249350
0.536900 0.248700 0.254850
0.586400 0.259700 0.260350
0.635900 0.270700 0.265850
0.685400 0.281700 0.271350
0.734900 0.292700 0.276850
0.784400 0.303700 0.282350
0.833900 0.314700 0.287850
0.883400 0.325700 0.293350
0.932900 0.336700 0.298850
0.982400 0.347700 0.304350
0.195900 0.210200 0.227350
0.245400 0.221200 0.232850
