Packages/FeatureMedia/Sources/FeatureMedia/Resources/LUTs/vintage.cube
TITLE "Vintage"
LUT_3D_SIZE 9
DOMAIN_MIN 0.0 0.0 0.0
DOMAIN_MAX 1.0 1.0 1.0
0.190400 0.155200 0.125600
0.289400 0.177200 0.136600
0.388400 0.199200 0.147600
0.487400 0.221200 0.158600
0.586400 0.243200 0.169600
0.685400 0.265200 0.180600
0.784400 0.287200 0.191600
0.883400 0.309200 0.202600
0.982400 0.331200 0.213600
0.201400 0.232200 0.147600
0.300400 0.254200 0.158600
0.399400 0.276200 0.169600
0.498400 0.298200 0.180600
0.597400 0.320200 0.191600
0.696400 0.342200 0.202600
0.795400 0.364200 0.213600
0.894400 0.386200 0.224600
0.993400 0.408200 0.235600
0.212400 0.309200 0.169600
0.311400 0.331200 0.180600
0.410400 0.353200 0.191600
0.509400 0.375200 0.202600
0.608400 0.397200 0.213600
0.707400 0.419200 0.224600
0.806400 0.441200 0.235600
0.905400 0.463200 0.246600
1.000000 0.485200 0.257600
0.223400 0.386200 0.191600
0.322400 0.408200 0.202600
0.421400 0.430200 0.213600
0.520400 0.452200 0.224600
0.619400 0.474200 0.235600
0.718400 0.496200 0.246600
0.817400 0.518200 0.257600
0.916400 0.540200 0.268600
1.000000 0.562200 0.279600
0.234400 0.463200 0.213600
0.333400 0.485200 0.224600
0.432400 0.507200 0.235600
0.531400 0.529200 0.246600
0.630400 0.551200 0.257600
0.729400 0.573200 0.268600
0.828400 0.595200 0.279600
0.927400 0.617200 0.290600
1.000000 0.639200 0.301600
0.245400 0.540200 0.235600
0.344400 0.562200 0.246600
0.443400 0.584200 0.257600
0.542400 0.606200 0.268600
0.641400 0.628200 0.279600
0.740400 0.650200 0.290600
0.839400 0.672200 0.301600
0.938400 0.694200 0.312600
1.000000 0.716200 0.323600
0.256400 0.617200 0.257600
0.355400 0.639200 0.268600
0.454400 0.661200 0.279600
0.553400 0.683200 0.290600
0.652400 0.705200 0.301600
0.751400 0.727200 0.312600
0.850400 0.749200 0.323600
0.949400 0.771200 0.334600
1.000000 0.793200 0.345600
0.267400 0.694200 0.279600
0.366400 0.716200 0.290600
0.465400 0.738200 0.301600
0.564400 0.760200 0.312600
0.663400 0.782200 0.323600
0.762400 0.804200 0.334600
0.861400 0.826200 0.345600
0.960400 0.848200 0.356600
1.000000 0.870200 0.367600
0.278400 0.771200 0.301600
0.377400 0.793200 0.312600
0.476400 0.815200 0.323600
0.575400 0.837200 0.334600
0.674400 0.859200 0.345600
0.773400 0.881200 0.356600
0.872400 0.903200 0.367600
0.971400 0.925200 0.378600
1.000000 0.947200 0.389600
0.190400 0.166200 0.186100
0.289400 0.188200 0.197100
0.388400 0.210200 0.208100
0.487400 0.232200 0.219100
0.586400 0.254200 0.230100
0.685400 0.276200 0.241100
0.784400 0.298200 0.252100
0.883400 0.320200 0.263100
0.982400 0.342200 0.274100
0.201400 0.243200 0.208100
0.300400 0.265200 0.219100
0.399400 0.287200 0.230100
0.498400 0.309200 0.241100
0.597400 0.331200 0.252100
0.696400 0.353200 0.263100
0.795400 0.375200 0.274100
0.894400 0.397200 0.285100
0.993400 0.419200 0.296100
0.212400 0.320200 0.230100
0.311400 0.342200 0.241100
0.410400 0.364200 0.252100
0.509400 0.386200 0.263100
0.608400 0.408200 0.274100
0.707400 0.430200 0.285100
0.806400 0.452200 0.296100
0.905400 0.474200 0.307100
1.000000 0.496200 0.318100
0.223400 0.397200 0.252100
0.322400 0.419200 0.263100
0.421400 0.441200 0.274100
0.520400 0.463200 0.285100
0.619400 0.485200 0.296100
0.718400 0.507200 0.307100
0.817400 0.529200 0.318100
0.916400 0.551200 0.329100
1.000000 0.573200 0.340100
0.234400 0.474200 0.274100
0.333400 0.496200 0.285100
0.432400 0.518200 0.296100
0.531400 0.540200 0.307100
0.630400 0.562200 0.318100
0.729400 0.584200 0.329100
0.828400 0.606200 0.340100
0.927400 0.628200 0.351100
1.000000 0.650200 0.362100
0.245400 0.551200 0.296100
0.344400 0.573200 0.307100
0.443400 0.595200 0.318100
0.542400 0.617200 0.329100
0.641400 0.639200 0.340100
0.740400 0.661200 0.351100
0.839400 0.683200 0.362100
0.938400 0.705200 0.373100
1.000000 0.727200 0.384100
0.256400 0.628200 0.318100
0.355400 0.650200 0.329100
0.454400 0.672200 0.340100
0.553400 0.694200 0.351100
0.652400 0.716200 0.362100
0.751400 0.738200 0.373100
0.850400 0.760200 0.384100
0.949400 0.782200 0.395100
1.000000 0.804200 0.406100
0.267400 0.705200 0.340100
0.366400 0.727200 0.351100
0.465400 0.749200 0.362100
0.564400 0.771200 0.373100
0.663400 0.793200 0.384100
0.762400 0.815200 0.395100
0.861400 0.837200 0.406100
0.960400 0.859200 0.417100
1.000000 0.881200 0.428100
0.278400 0.782200 0.362100
0.377400 0.804200 0.373100
0.476400 0.826200 0.384100
0.575400 0.848200 0.395100
0.674400 0.870200 0.406100
0.773400 0.892200 0.417100
0.872400 0.914200 0.428100
0.971400 0.936200 0.439100
1.000000 0.958200 0.450100
0.190400 0.177200 0.246600
0.289400 0.199200 0.257600
0.388400 0.221200 0.268600
0.487400 0.243200 0.279600
0.586400 0.265200 0.290600
0.685400 0.287200 0.301600
0.784400 0.309200 0.312600
0.883400 0.331200 0.323600
0.982400 0.353200 0.334600
0.201400 0.254200 0.268600
0.300400 0.276200 0.279600
0.399400 0.298200 0.290600
0.498400 0.320200 0.301600
0.597400 0.342200 0.312600
0.696400 0.364200 0.323600
0.795400 0.386200 0.334600
0.894400 0.408200 0.345600
0.993400 0.430200 0.356600
0.212400 0.331200 0.290600
0.311400 0.353200 0.301600
0.410400 0.375200 0.312600
0.509400 0.397200 0.323600
0.608400 0.419200 0.334600
0.707400 0.441200 0.345600
0.806400 0.463200 0.356600
0.905400 0.485200 0.367600
1.000000 0.507200 0.378600
0.223400 0.408200 0.312600
0.322400 0.430200 0.323600
0.421400 0.452200 0.334600
0.520400 0.474200 0.345600
0.619400 0.496200 0.356600
0.718400 0.518200 0.367600
0.817400 0.540200 0.378600
0.916400 0.562200 0.389600
1.000000 0.584200 0.400600
0.234400 0.485200 0.334600
0.333400 0.507200 0.345600
0.432400 0.529200 0.356600
0.531400 0.551200 0.367600
0.630400 0.573200 0.378600
0.729400 0.595200 0.389600
0.828400 0.617200 0.400600
0.927400 0.639200 0.411600
1.000000 0.661200 0.422600
0.245400 0.562200 0.356600
0.344400 0.584200 0.367600
0.443400 0.606200 0.378600
0.542400 0.628200 0.389600
0.641400 0.650200 0.400600
0.740400 0.672200 0.411600
0.839400 0.694200 0.422600
0.938400 0.716200 0.433600
1.000000 0.738200 0.444600
0.256400 0.639200 0.378600
0.355400 0.661200 0.389600
0.454400 0.683200 0.400600
0.553400 0.705200 0.411600
0.652400 0.727200 0.422600
0.751400 0.749200 0.433600
0.850400 0.771200 0.444600
0.949400 0.793200 0.455600
1.000000 0.815200 0.466600
0.267400 0.716200 0.400600
0.366400 0.738200 0.411600
0.465400 0.760200 0.422600
0.564400 0.782200 0.433600
0.663400 0.804200 0.444600
0.762400 0.826200 0.455600
0.861400 0.848200 0.466600
0.960400 0.870200 0.477600
1.000000 0.892200 0.488600
0.278400 0.793200 0.422600
0.377400 0.815200 0.433600
0.476400 0.837200 0.444600
0.575400 0.859200 0.455600
0.674400 0.881200 0.466600
0.773400 0.903200 0.477600
0.872400 0.925200 0.488600
0.971400 0.947200 0.499600
1.000000 0.969200 0.510600
0.190400 0.188200 0.307100
0.289400 0.210200 0.318100
0.388400 0.232200 0.329100
0.487400 0.254200 0.340100
0.586400 0.276200 0.351100
0.685400 0.298200 0.362100
0.784400 0.320200 0.373100
0.883400 0.342200 0.384100
0.982400 0.364200 0.395100
0.201400 0.265200 0.329100
0.300400 0.287200 0.340100
0.399400 0.309200 0.351100
0.498400 0.331200 0.362100
0.597400 0.353200 0.373100
0.696400 0.375200 0.384100
0.795400 0.397200 0.395100
0.894400 0.419200 0.406100
0.993400 0.441200 0.417100
0.212400 0.342200 0.351100
0.311400 0.364200 0.362100
0.410400 0.386200 0.373100
0.509400 0.408200 0.384100
0.608400 0.430200 0.395100
0.707400 0.452200 0.406100
0.806400 0.474200 0.417100
0.905400 0.496200 0.428100
1.000000 0.518200 0.439100
0.223400 0.419200 0.373100
0.322400 0.441200 0.384100
0.421400 0.463200 0.395100
0.520400 0.485200 0.406100
0.619400 0.507200 0.417100
0.718400 0.529200 0.428100
0.817400 0.551200 0.439100
0.916400 0.573200 0.450100
1.000000 0.595200 0.461100
0.234400 0.496200 0.395100
0.333400 0.518200 0.406100
0.432400 0.540200 0.417100
0.531400 0.562200 0.428100
0.630400 0.584200 0.439100
0.729400 0.606200 0.450100
0.828400 0.628200 0.461100
0.927400 0.650200 0.472100
1.000000 0.672200 0.483100
0.245400 0.573200 0.417100
0.344400 0.595200 0.428100
0.443400 0.617200 0.439100
0.542400 0.639200 0.450100
0.641400 0.661200 0.461100
0.740400 0.683200 0.472100
0.839400 0.705200 0.483100
0.938400 0.727200 0.494100
1.000000 0.749200 0.505100
0.256400 0.650200 0.439100
0.355400 0.672200 0.450100
0.454400 0.694200 0.461100
0.553400 0.716200 0.472100
0.652400 0.738200 0.483100
0.751400 0.760200 0.494100
0.850400 0.782200 0.505100
0.949400 0.804200 0.516100
1.000000 0.826200 0.527100
0.267400 0.727200 0.461100
0.366400 0.749200 0.472100
0.465400 0.771200 0.483100
0.564400 0.793200 0.494100
0.663400 0.815200 0.505100
0.762400 0.837200 0.516100
0.861400 0.859200 0.527100
0.960400 0.881200 0.538100
1.000000 0.903200 0.549100
0.278400 0.804200 0.483100
0.377400 0.826200 0.494100
0.476400 0.848200 0.505100
0.575400 0.870200 0.516100
0.674400 0.892200 0.527100
0.773400 0.914200 0.538100
0.872400 0.936200 0.549100
0.971400 0.958200 0.560100
1.000000 0.980200 0.571100
0.190400 0.199200 0.367600
0.289400 0.221200 0.378600
0.388400 0.243200 0.389600
0.487400 0.265200 0.400600
0.586400 0.287200 0.411600
0.685400 0.309200 0.422600
0.784400 0.331200 0.433600
0.883400 0.353200 0.444600
0.982400 0.375200 0.455600
0.201400 0.276200 0.389600
0.300400 0.298200 0.400600
0.399400 0.320200 0.411600
0.498400 0.342200 0.422600
0.597400 0.364200 0.433600
0.696400 0.386200 0.444600
0.795400 0.408200 0.455600
0.894400 0.430200 0.466600
0.993400 0.452200 0.477600
0.212400 0.353200 0.411600
0.311400 0.375200 0.422600
0.410400 0.397200 0.433600
0.509400 0.419200 0.444600
0.608400 0.441200 0.455600
0.707400 0.463200 0.466600
0.806400 0.485200 0.477600
0.905400 0.507200 0.488600
1.000000 0.529200 0.499600
0.223400 0.430200 0.433600
0.322400 0.452200 0.444600
0.421400 0.474200 0.455600
0.520400 0.496200 0.466600
0.619400 0.518200 0.477600
0.718400 0.540200 0.488600
0.817400 0.562200 0.499600
0.916400 0.584200 0.510600
1.000000 0.606200 0.521600
0.234400 0.507200 0.455600
0.333400 0.529200 0.466600
0.432400 0.551200 0.477600
0.531400 0.573200 0.488600
0.630400 0.595200 0.499600
0.729400 0.617200 0.510600
0.828400 0.639200 0.521600
0.927400 0.661200 0.532600
1.000000 0.683200 0.543600
0.245400 0.584200 0.477600
0.344400 0.606200 0.488600
0.443400 0.628200 0.499600
0.542400 0.650200 0.510600
0.641400 0.672200 0.521600
0.740400 0.694200 0.532600
0.839400 0.716200 0.543600
0.938400 0.738200 0.554600
1.000000 0.760200 0.565600
0.256400 0.661200 0.499600
0.355400 0.683200 0.510600
0.454400 0.705200 0.521600
0.553400 0.727200 0.532600
0.652400 0.749200 0.543600
0.751400 0.771200 0.554600
0.850400 0.793200 0.565600
0.949400 0.815200 0.576600
1.000000 0.837200 0.587600
0.267400 0.738200 0.521600
0.366400 0.760200 0.532600
0.465400 0.782200 0.543600
0.564400 0.804200 0.554600
0.663400 0.826200 0.565600
0.762400 0.848200 0.576600
0.861400 0.870200 0.587600
0.960400 0.892200 0.598600
1.000000 0.914200 0.609600
0.278400 0.815200 0.543600
0.377400 0.837200 0.554600
0.476400 0.859200 0.565600
0.575400 0.881200 0.576600
0.674400 0.903200 0.587600
0.773400 0.925200 0.598600
0.872400 0.947200 0.609600
0.971400 0.969200 0.620600
1.000000 0.991200 0.631600
0.190400 0.210200 0.428100
0.289400 0.232200 0.439100
0.388400 0.254200 0.450100
0.487400 0.276200 0.461100
0.586400 0.298200 0.472100
0.685400 0.320200 0.483100
0.784400 0.342200 0.494100
0.883400 0.364200 0.505100
0.982400 0.386200 0.516100
0.201400 0.287200 0.450100
0.300400 0.309200 0.461100
0.399400 0.331200 0.472100
0.498400 0.353200 0.483100
0.597400 0.375200 0.494100
0.696400 0.397200 0.505100
0.795400 0.419200 0.516100
0.894400 0.441200 0.527100
0.993400 0.463200 0.538100
0.212400 0.364200 0.472100
0.311400 0.386200 0.483100
0.410400 0.408200 0.494100
0.509400 0.430200 0.505100
0.608400 0.452200 0.516100
0.707400 0.474200 0.527100
0.806400 0.496200 0.538100
0.905400 0.518200 0.549100
1.000000 0.540200 0.560100
0.223400 0.441200 0.494100
0.322400 0.463200 0.505100
0.421400 0.485200 0.516100
0.520400 0.507200 0.527100
0.619400 0.529200 0.538100
0.718400 0.551200 0.549100
0.817400 0.573200 0.560100
0.916400 0.595200 0.571100
1.000000 0.617200 0.582100
0.234400 0.518200 0.516100
0.333400 0.540200 0.527100
0.432400 0.562200 0.538100
0.531400 0.584200 0.549100
0.630400 0.606200 0.560100
0.729400 0.628200 0.571100
0.828400 0.650200 0.582100
0.927400 0.672200 0.593100
1.000000 0.694200 0.604100
0.245400 0.595200 0.538100
0.344400 0.617200 0.549100
0.443400 0.639200 0.560100
0.542400 0.661200 0.571100
0.641400 0.683200 0.582100
0.740400 0.705200 0.593100
0.839400 0.727200 0.604100
0.938400 0.749200 0.615100
1.000000 0.771200 0.626100
0.256400 0.672200 0.560100
0.355400 0.694200 0.571100
0.454400 0.716200 0.582100
0.553400 0.738200 0.593100
0.652400 0.760200 0.604100
0.751400 0.782200 0.615100
0.850400 0.804200 0.626100
0.949400 0.826200 0.637100
1.000000 0.848200 0.648100
0.267400 0.749200 0.582100
0.366400 0.771200 0.593100
0.465400 0.793200 0.604100
0.564400 0.815200 0.615100
0.663400 0.837200 0.626100
0.762400 0.859200 0.637100
0.861400 0.881200 0.648100
0.960400 0.903200 0.659100
1.000000 0.925200 0.670100
0.278400 0.826200 0.604100
0.377400 0.848200 0.615100
0.476400 0.870200 0.626100
0.575400 0.892200 0.637100
0.674400 0.914200 0.648100
0.773400 0.936200 0.659100
0.872400 0.958200 0.670100
0.971400 0.980200 0.681100
1.000000 1.000000 0.692100
0.190400 0.221200 0.488600
0.289400 0.243200 0.499600
0.388400 0.265200 0.510600
0.487400 0.287200 0.521600
0.586400 0.309200 0.532600
0.685400 0.331200 0.543600
0.784400 0.353200 0.554600
0.883400 0.375200 0.565600
0.982400 0.397200 0.576600
0.201400 0.298200 0.510600
0.300400 0.320200 0.521600
0.399400 0.342200 0.532600
0.498400 0.364200 0.543600
0.597400 0.386200 0.554600
0.696400 0.408200 0.565600
0.795400 0.430200 0.576600
0.894400 0.452200 0.587600
0.993400 0.474200 0.598600
0.212400 0.375200 0.532600
0.311400 0.397200 0.543600
0.410400 0.419200 0.554600
0.509400 0.441200 0.565600
0.608400 0.463200 0.576600
0.707400 0.485200 0.587600
0.806400 0.507200 0.598600
0.905400 0.529200 0.609600
1.000000 0.551200 0.620600
0.223400 0.452200 0.554600
0.322400 0.474200 0.565600
0.421400 0.496200 0.576600
0.520400 0.518200 0.587600
0.619400 0.540200 0.598600
0.718400 0.562200 0.609600
0.817400 0.584200 0.620600
0.916400 0.606200 0.631600
1.000000 0.628200 0.642600
0.234400 0.529200 0.576600
0.333400 0.551200 0.587600
0.432400 0.573200 0.598600
0.531400 0.595200 0.609600
0.630400 0.617200 0.620600
0.729400 0.639200 0.631600
0.828400 0.661200 0.642600
0.927400 0.683200 0.653600
1.000000 0.705200 0.664600
0.245400 0.606200 0.598600
0.344400 0.628200 0.609600
0.443400 0.650200 0.620600
0.542400 0.672200 0.631600
0.641400 0.694200 0.642600
0.740400 0.716200 0.653600
0.839400 0.738200 0.664600
0.938400 0.760200 0.675600
1.000000 0.782200 0.686600
0.256400 0.683200 0.620600
0.355400 0.705200 0.631600
0.454400 0.727200 0.642600
0.553400 0.749200 0.653600
0.652400 0.771200 0.664600
0.751400 0.793200 0.675600
0.850400 0.815200 0.686600
0.949400 0.837200 0.697600
1.000000 0.859200 0.708600
0.267400 0.760200 0.642600
0.366400 0.782200 0.653600
0.465400 0.804200 0.664600
0.564400 0.826200 0.675600
0.663400 0.848200 0.686600
0.762400 0.870200 0.697600
0.861400 0.892200 0.708600
0.960400 0.914200 0.719600
1.000000 0.936200 0.730600
0.278400 0.837200 0.664600
0.377400 0.859200 0.675600
0.476400 0.881200 0.686600
0.575400 0.903200 0.697600
0.674400 0.925200 0.708600
0.773400 0.947200 0.719600
0.872400 0.969200 0.730600
0.971400 0.991200 0.741600
1.000000 1.000000 0.752600
0.190400 0.232200 0.549100
0.289400 0.254200 0.560100
0.388400 0.276200 0.571100
0.487400 0.298200 0.582100
0.586400 0.320200 0.593100
0.685400 0.342200 0.604100
0.784400 0.364200 0.615100
0.883400 0.386200 0.626100
0.982400 0.408200 0.637100
0.201400 0.309200 0.571100
0.300400 0.331200 0.582100
0.399400 0.353200 0.593100
0.498400 0.375200 0.604100
0.597400 0.397200 0.615100
0.696400 0.419200 0.626100
0.795400 0.441200 0.637100
0.894400 0.463200 0.648100
0.993400 0.485200 0.659100
0.212400 0.386200 0.593100
0.311400 0.408200 0.604100
0.410400 0.430200 0.615100
0.509400 0.452200 0.626100
0.608400 0.474200 0.637100
0.707400 0.496200 0.648100
0.806400 0.518200 0.659100
0.905400 0.540200 0.670100
1.000000 0.562200 0.681100
0.223400 0.463200 0.615100
0.322400 0.485200 0.626100
0.421400 0.507200 0.637100
0.520400 0.529200 0.648100
0.619400 0.551200 0.659100
0.718400 0.573200 0.670100
0.817400 0.595200 0.681100
0.916400 0.617200 0.692100
1.000000 0.639200 0.703100
0.234400 0.540200 0.637100
0.333400 0.562200 0.648100
0.432400 0.584200 0.659100
0.531400 0.606200 0.670100
0.630400 0.628200 0.681100
0.729400 0.650200 0.692100
0.828400 0.672200 0.703100
0.927400 0.694200 0.714100
1.000000 0.716200 0.725100
0.245400 0.617200 0.659100
0.344400 0.639200 0.670100
0.443400 0.661200 0.681100
0.542400 0.683200 0.692100
0.641400 0.705200 0.703100
0.740400 0.727200 0.714100
0.839400 0.749200 0.725100
0.938400 0.771200 0.736100
1.000000 0.793200 0.747100
0.256400 0.694200 0.681100
0.355400 0.716200 0.692100
0.454400 0.738200 0.703100
0.553400 0.760200 0.714100
0.652400 0.782200 0.725100
0.751400 0.804200 0.736100
0.850400 0.826200 0.747100
0.949400 0.848200 0.758100
1.000000 0.870200 0.769100
0.267400 0.771200 0.703100
0.366400 0.793200 0.714100
0.465400 0.815200 0.725100
0.564400 0.837200 0.736100
0.663400 0.859200 0.747100
0.762400 0.881200 0.758100
0.861400 0.903200 0.769100
0.960400 0.925200 0.780100
1.000000 0.947200 0.791100
0.278400 0.848200 0.725100
0.377400 0.870200 0.736100
0.476400 0.892200 0.747100
0.575400 0.914200 0.758100
0.674400 0.936200 0.769100
0.773400 0.958200 0.780100
0.872400 0.980200 0.791100
0.971400 1.000000 0.802100
1.000000 1.000000 0.813100
0.190400 0.243200 0.609600
0.289400 0.265200 0.620600
0.388400 0.287200 0.631600
0.487400 0.309200 0.642600
0.586400 0.331200 0.653600
0.685400 0.353200 0.664600
0.784400 0.375200 0.675600
0.883400 0.397200 0.686600
0.982400 0.419200 0.697600
0.201400 0.320200 0.631600
0.300400 0.342200 0.642600
0.399400 0.364200 0.653600
0.498400 0.386200 0.664600
0.597400 0.408200 0.675600
0.696400 0.430200 0.686600
0.795400 0.452200 0.697600
0.894400 0.474200 0.708600
0.993400 0.496200 0.719600
0.212400 0.397200 0.653600
0.311400 0.419200 0.664600
0.410400 0.441200 0.675600
0.509400 0.463200 0.686600
0.608400 0.485200 0.697600
0.707400 0.507200 0.708600
0.806400 0.529200 0.719600
0.905400 0.551200 0.730600
1.000000 0.573200 0.741600
0.223400 0.474200 0.675600
0.322400 0.496200 0.686600
0.421400 0.518200 0.697600
0.520400 0.540200 0.708600
0.619400 0.562200 0.719600
0.718400 0.584200 0.730600
0.817400 0.606200 0.741600
0.916400 0.628200 0.752600
1.000000 0.650200 0.763600
0.234400 0.551200 0.697600
0.333400 0.573200 0.708600
0.432400 0.595200 0.719600
0.531400 0.617200 0.730600
0.630400 0.639200 0.741600
0.729400 0.661200 0.752600
0.828400 0.683200 0.763600
0.927400 0.705200 0.774600
1.000000 0.727200 0.785600
0.245400 0.628200 0.719600
0.344400 0.650200 0.730600
0.443400 0.672200 0.741600
0.542400 0.694200 0.752600
0.641400 0.716200 0.763600
0.740400 0.738200 0.774600
0.839400 0.760200 0.785600
0.938400 0.782200 0.796600
1.000000 0.804200 0.807600
0.256400 0.705200 0.741600
0.355400 0.727200 0.752600
0.454400 0.749200 0.763600
0.553400 0.771200 0.774600
0.652400 0.793200 0.785600
0.751400 0.815200 0.796600
0.850400 0.837200 0.807600
0.949400 0.859200 0.818600
1.000000 0.881200 0.829600
0.267400 0.782200 0.763600
0.366400 0.804200 0.774600
0.465400 0.826200 0.785600
0.564400 0.848200 0.796600
0.663400 0.870200 0.807600
0.762400 0.892200 0.818600
0.861400 0.914200 0.829600
0.960400 0.936200 0.840600
1.000000 0.958200 0.851600
0.278400 0.859200 0.785600
0.377400 0.881200 0.796600
0.476400 0.903200 0.807600
0.575400 0.925200 0.818600
0.674400 0.947200 0.829600
0.773400 0.969200 0.840600
0.872400 0.991200 0.851600
0.971400 1.000000 0.862600
1.000000 1.000000 0.873600
