Packages/FeatureMedia/Sources/FeatureMedia/Resources/LUTs/vivid.cube
TITLE "Vivid"
LUT_3D_SIZE 9
DOMAIN_MIN 0.0 0.0 0.0
DOMAIN_MAX 1.0 1.0 1.0
0.000000 0.000000 0.000000
0.096535 0.000000 0.000000
0.303071 0.000000 0.000000
0.509606 0.000000 0.000000
0.716141 0.000000 0.000000
0.922677 0.000000 0.000000
1.000000 0.000000 0.000000
1.000000 0.000000 0.000000
1.000000 0.000000 0.000000
0.000000 0.062044 0.000000
0.047455 0.047455 0.000000
0.253990 0.032865 0.000000
0.460525 0.018275 0.000000
0.667061 0.003686 0.000000
0.873596 0.000000 0.000000
1.000000 0.000000 0.000000
1.000000 0.000000 0.000000
1.000000 0.000000 0.000000
0.000000 0.234089 0.000000
0.000000 0.219499 0.000000
0.204909 0.204909 0.000000
0.411445 0.190320 0.000000
0.617980 0.175730 0.000000
0.824515 0.161140 0.000000
1.000000 0.146551 0.000000
1.000000 0.131961 0.000000
1.000000 0.117371 0.000000
0.000000 0.406133 0.000000
0.000000 0.391544 0.000000
0.155829 0.376954 0.000000
0.362364 0.362364 0.000000
0.568900 0.347774 0.000000
0.775435 0.333185 0.000000
0.981970 0.318595 0.000000
1.000000 0.304005 0.000000
1.000000 0.289416 0.000000
0.000000 0.578178 0.000000
0.000000 0.563588 0.000000
0.106748 0.548998 0.000000
0.313284 0.534409 0.000000
0.519819 0.519819 0.000000
0.726354 0.505229 0.000000
0.932890 0.490640 0.000000
1.000000 0.476050 0.000000
1.000000 0.461460 0.000000
0.000000 0.750222 0.000000
0.000000 0.735632 0.000000
0.057668 0.721043 0.000000
0.264203 0.706453 0.000000
0.470738 0.691863 0.000000
0.677274 0.677274 0.000000
0.883809 0.662684 0.000000
1.000000 0.648094 0.000000
1.000000 0.633505 0.000000
0.000000 0.922266 0.000000
0.000000 0.907677 0.000000
0.008587 0.893087 0.000000
0.215122 0.878497 0.000000
0.421658 0.863908 0.000000
0.628193 0.849318 0.000000
0.834728 0.834728 0.000000
1.000000 0.820139 0.000000
1.000000 0.805549 0.000000
0.000000 1.000000 0.000000
0.000000 1.000000 0.000000
0.000000 1.000000 0.000000
0.166042 1.000000 0.000000
0.372577 1.000000 0.000000
0.579112 1.000000 0.000000
0.785648 1.000000 0.000000
0.992183 0.992183 0.000000
1.000000 0.977593 0.000000
0.000000 1.000000 0.000000
0.000000 1.000000 0.000000
0.000000 1.000000 0.000000
0.116961 1.000000 0.000000
0.323497 1.000000 0.000000
0.530032 1.000000 0.000000
0.736567 1.000000 0.000000
0.943102 1.000000 0.000000
1.000000 1.000000 0.000000
0.000000 0.000000 0.106170
0.091581 0.000000 0.091581
0.298116 0.000000 0.076991
0.504651 0.000000 0.062401
0.711187 0.000000 0.047812
0.917722 0.000000 0.033222
1.000000 0.000000 0.018632
1.000000 0.000000 0.004043
1.000000 0.000000 0.000000
0.000000 0.057090 0.057090
0.042500 0.042500 0.042500
0.249035 0.027910 0.027910
0.455571 0.013321 0.013321
0.662106 0.000000 0.000000
0.868641 0.000000 0.000000
1.000000 0.000000 0.000000
1.000000 0.000000 0.000000
1.000000 0.000000 0.000000
0.000000 0.229134 0.008009
0.000000 0.214544 0.000000
0.199955 0.199955 0.000000
0.406490 0.185365 0.000000
0.613025 0.170775 0.000000
0.819561 0.156186 0.000000
1.000000 0.141596 0.000000
1.000000 0.127006 0.000000
1.000000 0.112417 0.000000
0.000000 0.401178 0.000000
0.000000 0.386589 0.000000
0.150874 0.371999 0.000000
0.357409 0.357409 0.000000
0.563945 0.342820 0.000000
0.770480 0.328230 0.000000
0.977015 0.313640 0.000000
1.000000 0.299051 0.000000
1.000000 0.284461 0.000000
0.000000 0.573223 0.000000
0.000000 0.558633 0.000000
0.101794 0.544044 0.000000
0.308329 0.529454 0.000000
0.514864 0.514864 0.000000
0.721400 0.500275 0.000000
0.927935 0.485685 0.000000
1.000000 0.471095 0.000000
1.000000 0.456505 0.000000
0.000000 0.745267 0.000000
0.000000 0.730678 0.000000
0.052713 0.716088 0.000000
0.259248 0.701498 0.000000
0.465784 0.686909 0.000000
0.672319 0.672319 0.000000
0.878854 0.657729 0.000000
1.000000 0.643140 0.000000
1.000000 0.628550 0.000000
0.000000 0.917312 0.000000
0.000000 0.902722 0.000000
0.003632 0.888132 0.000000
0.210168 0.873543 0.000000
0.416703 0.858953 0.000000
0.623238 0.844363 0.000000
0.829774 0.829774 0.000000
1.000000 0.815184 0.000000
1.000000 0.800594 0.000000
0.000000 1.000000 0.000000
0.000000 1.000000 0.000000
0.000000 1.000000 0.000000
0.161087 1.000000 0.000000
0.367622 1.000000 0.000000
0.574158 1.000000 0.000000
0.780693 1.000000 0.000000
0.987228 0.987228 0.000000
1.000000 0.972639 0.000000
0.000000 1.000000 0.000000
0.000000 1.000000 0.000000
0.000000 1.000000 0.000000
0.112006 1.000000 0.000000
0.318542 1.000000 0.000000
0.525077 1.000000 0.000000
0.731612 1.000000 0.000000
0.938148 1.000000 0.000000
1.000000 1.000000 0.000000
0.000000 0.000000 0.322341
0.086626 0.000000 0.307751
0.293161 0.000000 0.293161
0.499697 0.000000 0.278572
0.706232 0.000000 0.263982
0.912767 0.000000 0.249392
1.000000 0.000000 0.234803
1.000000 0.000000 0.220213
1.000000 0.000000 0.205623
0.000000 0.052135 0.273260
0.037545 0.037545 0.258670
0.244081 0.022956 0.244081
0.450616 0.008366 0.229491
0.657151 0.000000 0.214901
0.863687 0.000000 0.200312
1.000000 0.000000 0.185722
1.000000 0.000000 0.171132
1.000000 0.000000 0.156543
0.000000 0.224179 0.224179
0.000000 0.209590 0.209590
0.195000 0.195000 0.195000
0.401535 0.180410 0.180410
0.608071 0.165821 0.165821
0.814606 0.151231 0.151231
1.000000 0.136641 0.136641
1.000000 0.122052 0.122052
1.000000 0.107462 0.107462
0.000000 0.396224 0.175099
0.000000 0.381634 0.160509
0.145919 0.367044 0.145919
0.352455 0.352455 0.131330
0.558990 0.337865 0.116740
0.765525 0.323275 0.102150
0.972061 0.308686 0.087561
1.000000 0.294096 0.072971
1.000000 0.279506 0.058381
0.000000 0.568268 0.126018
0.000000 0.553678 0.111428
0.096839 0.539089 0.096839
0.303374 0.524499 0.082249
0.509909 0.509909 0.067659
0.716445 0.495320 0.053070
0.922980 0.480730 0.038480
1.000000 0.466140 0.023890
1.000000 0.451551 0.009301
0.000000 0.740313 0.076938
0.000000 0.725723 0.062348
0.047758 0.711133 0.047758
0.254294 0.696544 0.033169
0.460829 0.681954 0.018579
0.667364 0.667364 0.003989
0.873900 0.652775 0.000000
1.000000 0.638185 0.000000
1.000000 0.623595 0.000000
0.000000 0.912357 0.027857
0.000000 0.897767 0.013267
0.000000 0.883178 0.000000
0.205213 0.868588 0.000000
0.411748 0.853998 0.000000
0.618284 0.839409 0.000000
0.824819 0.824819 0.000000
1.000000 0.810229 0.000000
1.000000 0.795640 0.000000
0.000000 1.000000 0.000000
0.000000 1.000000 0.000000
0.000000 1.000000 0.000000
0.156132 1.000000 0.000000
0.362668 1.000000 0.000000
0.569203 1.000000 0.000000
0.775738 0.996863 0.000000
0.982274 0.982274 0.000000
1.000000 0.967684 0.000000
0.000000 1.000000 0.000000
0.000000 1.000000 0.000000
0.000000 1.000000 0.000000
0.107052 1.000000 0.000000
0.313587 1.000000 0.000000
0.520122 1.000000 0.000000
0.726658 1.000000 0.000000
0.933193 1.000000 0.000000
1.000000 1.000000 0.000000
0.000000 0.000000 0.538511
0.081671 0.000000 0.523921
0.288206 0.000000 0.509331
0.494742 0.000000 0.494742
0.701277 0.000000 0.480152
0.907812 0.000000 0.465562
1.000000 0.000000 0.450973
1.000000 0.000000 0.436383
1.000000 0.000000 0.421793
0.000000 0.047180 0.489430
0.032591 0.032591 0.474841
0.239126 0.018001 0.460251
0.445661 0.003411 0.445661
0.652197 0.000000 0.431072
0.858732 0.000000 0.416482
1.000000 0.000000 0.401892
1.000000 0.000000 0.387302
1.000000 0.000000 0.372713
0.000000 0.219225 0.440350
0.000000 0.204635 0.425760
0.190045 0.190045 0.411170
0.396581 0.175456 0.396581
0.603116 0.160866 0.381991
0.809651 0.146276 0.367401
1.000000 0.131687 0.352812
1.000000 0.117097 0.338222
1.000000 0.102507 0.323632
0.000000 0.391269 0.391269
0.000000 0.376679 0.376679
0.140965 0.362090 0.362090
0.347500 0.347500 0.347500
0.554035 0.332910 0.332910
0.760571 0.318321 0.318321
0.967106 0.303731 0.303731
1.000000 0.289141 0.289141
1.000000 0.274552 0.274552
0.000000 0.563313 0.342188
0.000000 0.548724 0.327599
0.091884 0.534134 0.313009
0.298419 0.519544 0.298419
0.504955 0.504955 0.283830
0.711490 0.490365 0.269240
0.918025 0.475775 0.254650
1.000000 0.461186 0.240061
1.000000 0.446596 0.225471
0.000000 0.735358 0.293108
0.000000 0.720768 0.278518
0.042803 0.706178 0.263928
0.249339 0.691589 0.249339
0.455874 0.676999 0.234749
0.662409 0.662409 0.220159
0.868945 0.647820 0.205570
1.000000 0.633230 0.190980
1.000000 0.618640 0.176390
0.000000 0.907402 0.244027
0.000000 0.892813 0.229438
0.000000 0.878223 0.214848
0.200258 0.863633 0.200258
0.406794 0.849044 0.185669
0.613329 0.834454 0.171079
0.819864 0.819864 0.156489
1.000000 0.805275 0.141900
1.000000 0.790685 0.127310
0.000000 1.000000 0.194947
0.000000 1.000000 0.180357
0.000000 1.000000 0.165767
0.151178 1.000000 0.151178
0.357713 1.000000 0.136588
0.564248 1.000000 0.121998
0.770784 0.991909 0.107409
0.977319 0.977319 0.092819
1.000000 0.962729 0.078229
0.000000 1.000000 0.145866
0.000000 1.000000 0.131276
0.000000 1.000000 0.116687
0.102097 1.000000 0.102097
0.308632 1.000000 0.087507
0.515168 1.000000 0.072918
0.721703 1.000000 0.058328
0.928238 1.000000 0.043738
1.000000 1.000000 0.029149
0.000000 0.000000 0.754681
0.076716 0.000000 0.740091
0.283252 0.000000 0.725502
0.489787 0.000000 0.710912
0.696322 0.000000 0.696322
0.902858 0.000000 0.681733
1.000000 0.000000 0.667143
1.000000 0.000000 0.652553
1.000000 0.000000 0.637964
0.000000 0.042225 0.705601
0.027636 0.027636 0.691011
0.234171 0.013046 0.676421
0.440706 0.000000 0.661831
0.647242 0.000000 0.647242
0.853777 0.000000 0.632652
1.000000 0.000000 0.618062
1.000000 0.000000 0.603473
1.000000 0.000000 0.588883
0.000000 0.214270 0.656520
0.000000 0.199680 0.641930
0.185091 0.185091 0.627341
0.391626 0.170501 0.612751
0.598161 0.155911 0.598161
0.804697 0.141322 0.583572
1.000000 0.126732 0.568982
1.000000 0.112142 0.554392
1.000000 0.097553 0.539802
0.000000 0.386314 0.607439
0.000000 0.371725 0.592850
0.136010 0.357135 0.578260
0.342545 0.342545 0.563670
0.549081 0.327956 0.549081
0.755616 0.313366 0.534491
0.962151 0.298776 0.519901
1.000000 0.284187 0.505312
1.000000 0.269597 0.490722
0.000000 0.558359 0.558359
0.000000 0.543769 0.543769
0.086929 0.529179 0.529179
0.293465 0.514590 0.514590
0.500000 0.500000 0.500000
0.706535 0.485410 0.485410
0.913071 0.470821 0.470821
1.000000 0.456231 0.456231
1.000000 0.441641 0.441641
0.000000 0.730403 0.509278
0.000000 0.715813 0.494688
0.037849 0.701224 0.480099
0.244384 0.686634 0.465509
0.450919 0.672044 0.450919
0.657455 0.657455 0.436330
0.863990 0.642865 0.421740
1.000000 0.628275 0.407150
1.000000 0.613686 0.392561
0.000000 0.902447 0.460197
0.000000 0.887858 0.445608
0.000000 0.873268 0.431018
0.195303 0.858678 0.416428
0.401839 0.844089 0.401839
0.608374 0.829499 0.387249
0.814909 0.814909 0.372659
1.000000 0.800320 0.358070
1.000000 0.785730 0.343480
0.000000 1.000000 0.411117
0.000000 1.000000 0.396527
0.000000 1.000000 0.381938
0.146223 1.000000 0.367348
0.352758 1.000000 0.352758
0.559294 1.000000 0.338169
0.765829 0.986954 0.323579
0.972364 0.972364 0.308989
1.000000 0.957774 0.294400
0.000000 1.000000 0.362036
0.000000 1.000000 0.347447
0.000000 1.000000 0.332857
0.097142 1.000000 0.318267
0.303678 1.000000 0.303678
0.510213 1.000000 0.289088
0.716748 1.000000 0.274498
0.923284 1.000000 0.259909
1.000000 1.000000 0.245319
0.000000 0.000000 0.970851
0.071762 0.000000 0.956262
0.278297 0.000000 0.941672
0.484832 0.000000 0.927082
0.691368 0.000000 0.912493
0.897903 0.000000 0.897903
1.000000 0.000000 0.883313
1.000000 0.000000 0.868724
1.000000 0.000000 0.854134
0.000000 0.037271 0.921771
0.022681 0.022681 0.907181
0.229216 0.008091 0.892591
0.435752 0.000000 0.878002
0.642287 0.000000 0.863412
0.848822 0.000000 0.848822
1.000000 0.000000 0.834233
1.000000 0.000000 0.819643
1.000000 0.000000 0.805053
0.000000 0.209315 0.872690
0.000000 0.194726 0.858101
0.180136 0.180136 0.843511
0.386671 0.165546 0.828921
0.593206 0.150956 0.814331
0.799742 0.136367 0.799742
1.000000 0.121777 0.785152
1.000000 0.107187 0.770562
1.000000 0.092598 0.755973
0.000000 0.381360 0.823610
0.000000 0.366770 0.809020
0.131055 0.352180 0.794430
0.337591 0.337591 0.779841
0.544126 0.323001 0.765251
0.750661 0.308411 0.750661
0.957197 0.293822 0.736072
1.000000 0.279232 0.721482
1.000000 0.264642 0.706892
0.000000 0.553404 0.774529
0.000000 0.538814 0.759939
0.081975 0.524225 0.745350
0.288510 0.509635 0.730760
0.495045 0.495045 0.716170
0.701581 0.480456 0.701581
0.908116 0.465866 0.686991
1.000000 0.451276 0.672401
1.000000 0.436687 0.657812
0.000000 0.725448 0.725448
0.000000 0.710859 0.710859
0.032894 0.696269 0.696269
0.239429 0.681679 0.681679
0.445965 0.667090 0.667090
0.652500 0.652500 0.652500
0.859035 0.637910 0.637910
1.000000 0.623321 0.623321
1.000000 0.608731 0.608731
0.000000 0.897493 0.676368
0.000000 0.882903 0.661778
0.000000 0.868313 0.647188
0.190349 0.853724 0.632599
0.396884 0.839134 0.618009
0.603419 0.824544 0.603419
0.809955 0.809955 0.588830
1.000000 0.795365 0.574240
1.000000 0.780775 0.559650
0.000000 1.000000 0.627287
0.000000 1.000000 0.612698
0.000000 1.000000 0.598108
0.141268 1.000000 0.583518
0.347803 1.000000 0.568928
0.554339 0.996589 0.554339
0.760874 0.981999 0.539749
0.967409 0.967409 0.525159
1.000000 0.952820 0.510570
0.000000 1.000000 0.578207
0.000000 1.000000 0.563617
0.000000 1.000000 0.549027
0.092188 1.000000 0.534438
0.298723 1.000000 0.519848
0.505258 1.000000 0.505258
0.711794 1.000000 0.490669
0.918329 1.000000 0.476079
1.000000 1.000000 0.461489
0.000000 0.000000 1.000000
0.066807 0.000000 1.000000
0.273342 0.000000 1.000000
0.479878 0.000000 1.000000
0.686413 0.000000 1.000000
0.892948 0.000000 1.000000
1.000000 0.000000 1.000000
1.000000 0.000000 1.000000
1.000000 0.000000 1.000000
0.000000 0.032316 1.000000
0.017726 0.017726 1.000000
0.224262 0.003137 1.000000
0.430797 0.000000 1.000000
0.637332 0.000000 1.000000
0.843868 0.000000 1.000000
1.000000 0.000000 1.000000
1.000000 0.000000 1.000000
1.000000 0.000000 1.000000
0.000000 0.204360 1.000000
0.000000 0.189771 1.000000
0.175181 0.175181 1.000000
0.381716 0.160591 1.000000
0.588252 0.146002 1.000000
0.794787 0.131412 1.000000
1.000000 0.116822 1.000000
1.000000 0.102233 0.986733
1.000000 0.087643 0.972143
0.000000 0.376405 1.000000
0.000000 0.361815 1.000000
0.126100 0.347225 1.000000
0.332636 0.332636 0.996011
0.539171 0.318046 0.981421
0.745706 0.303456 0.966831
0.952242 0.288867 0.952242
1.000000 0.274277 0.937652
1.000000 0.259687 0.923062
0.000000 0.548449 0.990699
0.000000 0.533860 0.976110
0.077020 0.519270 0.961520
0.283555 0.504680 0.946930
0.490091 0.490091 0.932341
0.696626 0.475501 0.917751
0.903161 0.460911 0.903161
1.000000 0.446322 0.888572
1.000000 0.431732 0.873982
0.000000 0.720494 0.941619
0.000000 0.705904 0.927029
0.027939 0.691314 0.912439
0.234475 0.676725 0.897850
0.441010 0.662135 0.883260
0.647545 0.647545 0.868670
0.854081 0.632956 0.854081
1.000000 0.618366 0.839491
1.000000 0.603776 0.824901
0.000000 0.892538 0.892538
0.000000 0.877948 0.877948
0.000000 0.863359 0.863359
0.185394 0.848769 0.848769
0.391929 0.834179 0.834179
0.598465 0.819590 0.819590
0.805000 0.805000 0.805000
1.000000 0.790410 0.790410
1.000000 0.775821 0.775821
0.000000 1.000000 0.843457
0.000000 1.000000 0.828868
0.000000 1.000000 0.814278
0.136313 1.000000 0.799688
0.342849 1.000000 0.785099
0.549384 0.991634 0.770509
0.755919 0.977044 0.755919
0.962455 0.962455 0.741330
1.000000 0.947865 0.726740
0.000000 1.000000 0.794377
0.000000 1.000000 0.779787
0.000000 1.000000 0.765197
0.087233 1.000000 0.750608
0.293768 1.000000 0.736018
0.500303 1.000000 0.721428
0.706839 1.000000 0.706839
0.913374 1.000000 0.692249
1.000000 1.000000 0.677659
0.000000 0.000000 1.000000
0.061852 0.000000 1.000000
0.268388 0.000000 1.000000
0.474923 0.000000 1.000000
0.681458 0.000000 1.000000
0.887994 0.000000 1.000000
1.000000 0.000000 1.000000
1.000000 0.000000 1.000000
1.000000 0.000000 1.000000
0.000000 0.027361 1.000000
0.012772 0.012772 1.000000
0.219307 0.000000 1.000000
0.425842 0.000000 1.000000
0.632378 0.000000 1.000000
0.838913 0.000000 1.000000
1.000000 0.000000 1.000000
1.000000 0.000000 1.000000
1.000000 0.000000 1.000000
0.000000 0.199406 1.000000
0.000000 0.184816 1.000000
0.170226 0.170226 1.000000
0.376762 0.155637 1.000000
0.583297 0.141047 1.000000
0.789832 0.126457 1.000000
0.996368 0.111868 1.000000
1.000000 0.097278 1.000000
1.000000 0.082688 1.000000
0.000000 0.371450 1.000000
0.000000 0.356860 1.000000
0.121146 0.342271 1.000000
0.327681 0.327681 1.000000
0.534216 0.313091 1.000000
0.740752 0.298502 1.000000
0.947287 0.283912 1.000000
1.000000 0.269322 1.000000
1.000000 0.254733 1.000000
0.000000 0.543495 1.000000
0.000000 0.528905 1.000000
0.072065 0.514315 1.000000
0.278601 0.499726 1.000000
0.485136 0.485136 1.000000
0.691671 0.470546 1.000000
0.898206 0.455956 1.000000
1.000000 0.441367 1.000000
1.000000 0.426777 1.000000
0.000000 0.715539 1.000000
0.000000 0.700949 1.000000
0.022985 0.686360 1.000000
0.229520 0.671770 1.000000
0.436055 0.657180 1.000000
0.642591 0.642591 1.000000
0.849126 0.628001 1.000000
1.000000 0.613411 1.000000
1.000000 0.598822 1.000000
0.000000 0.887583 1.000000
0.000000 0.872994 1.000000
0.000000 0.858404 1.000000
0.180439 0.843814 1.000000
0.386975 0.829225 1.000000
0.593510 0.814635 1.000000
0.800045 0.800045 1.000000
1.000000 0.785456 1.000000
1.000000 0.770866 0.991991
0.000000 1.000000 1.000000
0.000000 1.000000 1.000000
0.000000 1.000000 1.000000
0.131359 1.000000 1.000000
0.337894 1.000000 1.000000
0.544429 0.986679 0.986679
0.750965 0.972090 0.972090
0.957500 0.957500 0.957500
1.000000 0.942910 0.942910
0.000000 1.000000 1.000000
0.000000 1.000000 0.995957
0.000000 1.000000 0.981368
0.082278 1.000000 0.966778
0.288813 1.000000 0.952188
0.495349 1.000000 0.937599
0.701884 1.000000 0.923009
0.908419 1.000000 0.908419
1.000000 1.000000 0.893830
0.000000 0.000000 1.000000
0.056898 0.000000 1.000000
0.263433 0.000000 1.000000
0.469968 0.000000 1.000000
0.676504 0.000000 1.000000
0.883039 0.000000 1.000000
1.000000 0.000000 1.000000
1.000000 0.000000 1.000000
1.000000 0.000000 1.000000
0.000000 0.022407 1.000000
0.007817 0.007817 1.000000
0.214352 0.000000 1.000000
0.420888 0.000000 1.000000
0.627423 0.000000 1.000000
0.833958 0.000000 1.000000
1.000000 0.000000 1.000000
1.000000 0.000000 1.000000
1.000000 0.000000 1.000000
0.000000 0.194451 1.000000
0.000000 0.179861 1.000000
0.165272 0.165272 1.000000
0.371807 0.150682 1.000000
0.578342 0.136092 1.000000
0.784878 0.121503 1.000000
0.991413 0.106913 1.000000
1.000000 0.092323 1.000000
1.000000 0.077734 1.000000
0.000000 0.366495 1.000000
0.000000 0.351906 1.000000
0.116191 0.337316 1.000000
0.322726 0.322726 1.000000
0.529262 0.308137 1.000000
0.735797 0.293547 1.000000
0.942332 0.278957 1.000000
1.000000 0.264368 1.000000
1.000000 0.249778 1.000000
0.000000 0.538540 1.000000
0.000000 0.523950 1.000000
0.067110 0.509360 1.000000
0.273646 0.494771 1.000000
0.480181 0.480181 1.000000
0.686716 0.465591 1.000000
0.893252 0.451002 1.000000
1.000000 0.436412 1.000000
1.000000 0.421822 1.000000
0.000000 0.710584 1.000000
0.000000 0.695995 1.000000
0.018030 0.681405 1.000000
0.224565 0.666815 1.000000
0.431101 0.652226 1.000000
0.637636 0.637636 1.000000
0.844171 0.623046 1.000000
1.000000 0.608456 1.000000
1.000000 0.593867 1.000000
0.000000 0.882629 1.000000
0.000000 0.868039 1.000000
0.000000 0.853449 1.000000
0.175485 0.838860 1.000000
0.382020 0.824270 1.000000
0.588555 0.809680 1.000000
0.795091 0.795091 1.000000
1.000000 0.780501 1.000000
1.000000 0.765911 1.000000
0.000000 1.000000 1.000000
0.000000 1.000000 1.000000
0.000000 1.000000 1.000000
0.126404 1.000000 1.000000
0.332939 0.996314 1.000000
0.539475 0.981725 1.000000
0.746010 0.967135 1.000000
0.952545 0.952545 1.000000
1.000000 0.937956 1.000000
0.000000 1.000000 1.000000
0.000000 1.000000 1.000000
0.000000 1.000000 1.000000
0.077323 1.000000 1.000000
0.283859 1.000000 1.000000
0.490394 1.000000 1.000000
0.696929 1.000000 1.000000
0.903465 1.000000 1.000000
1.000000 1.000000 1.000000
