Packages/FeatureMedia/Sources/FeatureMedia/Resources/LUTs/vivid.cube
TITLE "Vivid"
LUT_3D_SIZE 17
DOMAIN_MIN 0.0 0.0 0.0
DOMAIN_MAX 1.0 1.0 1.0
0.000000 0.000000 0.000000
0.000000 0.000000 0.000000
0.096535 0.000000 0.000000
0.199803 0.000000 0.000000
0.303071 0.000000 0.000000
0.406338 0.000000 0.000000
0.509606 0.000000 0.000000
0.612874 0.000000 0.000000
0.716141 0.000000 0.000000
0.819409 0.000000 0.000000
0.922677 0.000000 0.000000
1.000000 0.000000 0.000000
1.000000 0.000000 0.000000
1.000000 0.000000 0.000000
1.000000 0.000000 0.000000
1.000000 0.000000 0.000000
1.000000 0.000000 0.000000
0.000000 0.000000 0.000000
0.000000 0.000000 0.000000
0.071995 0.000000 0.000000
0.175263 0.000000 0.000000
0.278530 0.000000 0.000000
0.381798 0.000000 0.000000
0.485066 0.000000 0.000000
0.588333 0.000000 0.000000
0.691601 0.000000 0.000000
0.794869 0.000000 0.000000
0.898136 0.000000 0.000000
1.000000 0.000000 0.000000
1.000000 0.000000 0.000000
1.000000 0.000000 0.000000
1.000000 0.000000 0.000000
1.000000 0.000000 0.000000
1.000000 0.000000 0.000000
0.000000 0.062044 0.000000
0.000000 0.054750 0.000000
0.047455 0.047455 0.000000
0.150722 0.040160 0.000000
0.253990 0.032865 0.000000
0.357258 0.025570 0.000000
0.460525 0.018275 0.000000
0.563793 0.010981 0.000000
0.667061 0.003686 0.000000
0.770328 0.000000 0.000000
0.873596 0.000000 0.000000
0.976864 0.000000 0.000000
1.000000 0.000000 0.000000
1.000000 0.000000 0.000000
1.000000 0.000000 0.000000
1.000000 0.000000 0.000000
1.000000 0.000000 0.000000
0.000000 0.148067 0.000000
0.000000 0.140772 0.000000
0.022914 0.133477 0.000000
0.126182 0.126182 0.000000
0.229450 0.118887 0.000000
0.332717 0.111592 0.000000
0.435985 0.104298 0.000000
0.539253 0.097003 0.000000
0.642520 0.089708 0.000000
0.745788 0.082413 0.000000
0.849056 0.075118 0.000000
0.952323 0.067823 0.000000
1.000000 0.060529 0.000000
1.000000 0.053234 0.000000
1.000000 0.045939 0.000000
1.000000 0.038644 0.000000
1.000000 0.031349 0.000000
0.000000 0.234089 0.000000
0.000000 0.226794 0.000000
0.000000 0.219499 0.000000
0.101642 0.212204 0.000000
0.204909 0.204909 0.000000
0.308177 0.197615 0.000000
0.411445 0.190320 0.000000
0.514712 0.183025 0.000000
0.617980 0.175730 0.000000
0.721248 0.168435 0.000000
0.824515 0.161140 0.000000
0.927783 0.153846 0.000000
1.000000 0.146551 0.000000
1.000000 0.139256 0.000000
1.000000 0.131961 0.000000
1.000000 0.124666 0.000000
1.000000 0.117371 0.000000
0.000000 0.320111 0.000000
0.000000 0.312816 0.000000
0.000000 0.305521 0.000000
0.077101 0.298226 0.000000
0.180369 0.290932 0.000000
0.283637 0.283637 0.000000
0.386904 0.276342 0.000000
0.490172 0.269047 0.000000
0.593440 0.261752 0.000000
0.696707 0.254457 0.000000
0.799975 0.247163 0.000000
0.903243 0.239868 0.000000
1.000000 0.232573 0.000000
1.000000 0.225278 0.000000
1.000000 0.217983 0.000000
1.000000 0.210688 0.000000
1.000000 0.203394 0.000000
0.000000 0.406133 0.000000
0.000000 0.398838 0.000000
0.000000 0.391544 0.000000
0.052561 0.384249 0.000000
0.155829 0.376954 0.000000
0.259097 0.369659 0.000000
0.362364 0.362364 0.000000
0.465632 0.355069 0.000000
0.568900 0.347774 0.000000
0.672167 0.340480 0.000000
0.775435 0.333185 0.000000
0.878702 0.325890 0.000000
0.981970 0.318595 0.000000
1.000000 0.311300 0.000000
1.000000 0.304005 0.000000
1.000000 0.296711 0.000000
1.000000 0.289416 0.000000
0.000000 0.492155 0.000000
0.000000 0.484861 0.000000
0.000000 0.477566 0.000000
0.028021 0.470271 0.000000
0.131289 0.462976 0.000000
0.234556 0.455681 0.000000
0.337824 0.448386 0.000000
0.441092 0.441092 0.000000
0.544359 0.433797 0.000000
0.647627 0.426502 0.000000
0.750895 0.419207 0.000000
0.854162 0.411912 0.000000
0.957430 0.404617 0.000000
1.000000 0.397323 0.000000
1.000000 0.390028 0.000000
1.000000 0.382733 0.000000
1.000000 0.375438 0.000000
0.000000 0.578178 0.000000
0.000000 0.570883 0.000000
0.000000 0.563588 0.000000
0.003481 0.556293 0.000000
0.106748 0.548998 0.000000
0.210016 0.541703 0.000000
0.313284 0.534409 0.000000
0.416551 0.527114 0.000000
0.519819 0.519819 0.000000
0.623087 0.512524 0.000000
0.726354 0.505229 0.000000
0.829622 0.497934 0.000000
0.932890 0.490640 0.000000
1.000000 0.483345 0.000000
1.000000 0.476050 0.000000
1.000000 0.468755 0.000000
1.000000 0.461460 0.000000
0.000000 0.664200 0.000000
0.000000 0.656905 0.000000
0.000000 0.649610 0.000000
0.000000 0.642315 0.000000
0.082208 0.635020 0.000000
0.185476 0.627726 0.000000
0.288743 0.620431 0.000000
0.392011 0.613136 0.000000
0.495279 0.605841 0.000000
0.598546 0.598546 0.000000
0.701814 0.591251 0.000000
0.805082 0.583957 0.000000
0.908349 0.576662 0.000000
1.000000 0.569367 0.000000
1.000000 0.562072 0.000000
1.000000 0.554777 0.000000
1.000000 0.547482 0.000000
0.000000 0.750222 0.000000
0.000000 0.742927 0.000000
0.000000 0.735632 0.000000
0.000000 0.728337 0.000000
0.057668 0.721043 0.000000
0.160935 0.713748 0.000000
0.264203 0.706453 0.000000
0.367471 0.699158 0.000000
0.470738 0.691863 0.000000
0.574006 0.684568 0.000000
0.677274 0.677274 0.000000
0.780541 0.669979 0.000000
0.883809 0.662684 0.000000
0.987077 0.655389 0.000000
1.000000 0.648094 0.000000
1.000000 0.640799 0.000000
1.000000 0.633505 0.000000
0.000000 0.836244 0.000000
0.000000 0.828949 0.000000
0.000000 0.821655 0.000000
0.000000 0.814360 0.000000
0.033127 0.807065 0.000000
0.136395 0.799770 0.000000
0.239663 0.792475 0.000000
0.342930 0.785180 0.000000
0.446198 0.777886 0.000000
0.549466 0.770591 0.000000
0.652733 0.763296 0.000000
0.756001 0.756001 0.000000
0.859269 0.748706 0.000000
0.962536 0.741411 0.000000
1.000000 0.734116 0.000000
1.000000 0.726822 0.000000
1.000000 0.719527 0.000000
0.000000 0.922266 0.000000
0.000000 0.914972 0.000000
0.000000 0.907677 0.000000
0.000000 0.900382 0.000000
0.008587 0.893087 0.000000
0.111855 0.885792 0.000000
0.215122 0.878497 0.000000
0.318390 0.871203 0.000000
0.421658 0.863908 0.000000
0.524925 0.856613 0.000000
0.628193 0.849318 0.000000
0.731461 0.842023 0.000000
0.834728 0.834728 0.000000
0.937996 0.827434 0.000000
1.000000 0.820139 0.000000
1.000000 0.812844 0.000000
1.000000 0.805549 0.000000
0.000000 1.000000 0.000000
0.000000 1.000000 0.000000
0.000000 0.993699 0.000000
0.000000 0.986404 0.000000
0.000000 0.979109 0.000000
0.087314 0.971814 0.000000
0.190582 0.964520 0.000000
0.293850 0.957225 0.000000
0.397117 0.949930 0.000000
0.500385 0.942635 0.000000
0.603653 0.935340 0.000000
0.706920 0.928045 0.000000
0.810188 0.920751 0.000000
0.913456 0.913456 0.000000
1.000000 0.906161 0.000000
1.000000 0.898866 0.000000
1.000000 0.891571 0.000000
0.000000 1.000000 0.000000
0.000000 1.000000 0.000000
0.000000 1.000000 0.000000
0.000000 1.000000 0.000000
0.000000 1.000000 0.000000
0.062774 1.000000 0.000000
0.166042 1.000000 0.000000
0.269309 1.000000 0.000000
0.372577 1.000000 0.000000
0.475845 1.000000 0.000000
0.579112 1.000000 0.000000
0.682380 1.000000 0.000000
0.785648 1.000000 0.000000
0.888915 0.999478 0.000000
0.992183 0.992183 0.000000
1.000000 0.984888 0.000000
1.000000 0.977593 0.000000
0.000000 1.000000 0.000000
0.000000 1.000000 0.000000
0.000000 1.000000 0.000000
0.000000 1.000000 0.000000
0.000000 1.000000 0.000000
0.038234 1.000000 0.000000
0.141501 1.000000 0.000000
0.244769 1.000000 0.000000
0.348037 1.000000 0.000000
0.451304 1.000000 0.000000
0.554572 1.000000 0.000000
0.657840 1.000000 0.000000
0.761107 1.000000 0.000000
0.864375 1.000000 0.000000
0.967643 1.000000 0.000000
1.000000 1.000000 0.000000
1.000000 1.000000 0.000000
0.000000 1.000000 0.000000
0.000000 1.000000 0.000000
0.000000 1.000000 0.000000
0.000000 1.000000 0.000000
0.000000 1.000000 0.000000
0.013694 1.000000 0.000000
0.116961 1.000000 0.000000
0.220229 1.000000 0.000000
0.323497 1.000000 0.000000
0.426764 1.000000 0.000000
0.530032 1.000000 0.000000
0.633299 1.000000 0.000000
0.736567 1.000000 0.000000
0.839835 1.000000 0.000000
0.943102 1.000000 0.000000
1.000000 1.000000 0.000000
1.000000 1.000000 0.000000
0.000000 0.000000 0.000000
0.000000 0.000000 0.000000
0.094058 0.000000 0.000000
0.197326 0.000000 0.000000
0.300593 0.000000 0.000000
0.403861 0.000000 0.000000
0.507129 0.000000 0.000000
0.610396 0.000000 0.000000
0.713664 0.000000 0.000000
0.816932 0.000000 0.000000
0.920199 0.000000 0.000000
1.000000 0.000000 0.000000
1.000000 0.000000 0.000000
1.000000 0.000000 0.000000
1.000000 0.000000 0.000000
1.000000 0.000000 0.000000
1.000000 0.000000 0.000000
0.000000 0.000000 0.000000
0.000000 0.000000 0.000000
0.069518 0.000000 0.000000
0.172785 0.000000 0.000000
0.276053 0.000000 0.000000
0.379321 0.000000 0.000000
0.482588 0.000000 0.000000
0.585856 0.000000 0.000000
0.689124 0.000000 0.000000
0.792391 0.000000 0.000000
0.895659 0.000000 0.000000
0.998927 0.000000 0.000000
1.000000 0.000000 0.000000
1.000000 0.000000 0.000000
1.000000 0.000000 0.000000
1.000000 0.000000 0.000000
1.000000 0.000000 0.000000
0.000000 0.059567 0.000000
0.000000 0.052272 0.000000
0.044977 0.044977 0.000000
0.148245 0.037683 0.000000
0.251513 0.030388 0.000000
0.354780 0.023093 0.000000
0.458048 0.015798 0.000000
0.561316 0.008503 0.000000
0.664583 0.001208 0.000000
0.767851 0.000000 0.000000
0.871119 0.000000 0.000000
0.974386 0.000000 0.000000
1.000000 0.000000 0.000000
1.000000 0.000000 0.000000
1.000000 0.000000 0.000000
1.000000 0.000000 0.000000
1.000000 0.000000 0.000000
0.000000 0.145589 0.000000
0.000000 0.138294 0.000000
0.020437 0.131000 0.000000
0.123705 0.123705 0.000000
0.226972 0.116410 0.000000
0.330240 0.109115 0.000000
0.433508 0.101820 0.000000
0.536775 0.094525 0.000000
0.640043 0.087231 0.000000
0.743311 0.079936 0.000000
0.846578 0.072641 0.000000
0.949846 0.065346 0.000000
1.000000 0.058051 0.000000
1.000000 0.050756 0.000000
1.000000 0.043462 0.000000
1.000000 0.036167 0.000000
1.000000 0.028872 0.000000
0.000000 0.231611 0.000000
0.000000 0.224317 0.000000
0.000000 0.217022 0.000000
0.099164 0.209727 0.000000
0.202432 0.202432 0.000000
0.305700 0.195137 0.000000
0.408967 0.187842 0.000000
0.512235 0.180548 0.000000
0.615503 0.173253 0.000000
0.718770 0.165958 0.000000
0.822038 0.158663 0.000000
0.925306 0.151368 0.000000
1.000000 0.144073 0.000000
1.000000 0.136779 0.000000
1.000000 0.129484 0.000000
1.000000 0.122189 0.000000
1.000000 0.114894 0.000000
0.000000 0.317634 0.000000
0.000000 0.310339 0.000000
0.000000 0.303044 0.000000
0.074624 0.295749 0.000000
0.177892 0.288454 0.000000
0.281159 0.281159 0.000000
0.384427 0.273865 0.000000
0.487695 0.266570 0.000000
0.590962 0.259275 0.000000
0.694230 0.251980 0.000000
0.797498 0.244685 0.000000
0.900765 0.237390 0.000000
1.000000 0.230096 0.000000
1.000000 0.222801 0.000000
1.000000 0.215506 0.000000
1.000000 0.208211 0.000000
1.000000 0.200916 0.000000
0.000000 0.403656 0.000000
0.000000 0.396361 0.000000
0.000000 0.389066 0.000000
0.050084 0.381771 0.000000
0.153351 0.374476 0.000000
0.256619 0.367182 0.000000
0.359887 0.359887 0.000000
0.463154 0.352592 0.000000
0.566422 0.345297 0.000000
0.669690 0.338002 0.000000
0.772957 0.330707 0.000000
0.876225 0.323413 0.000000
0.979493 0.316118 0.000000
1.000000 0.308823 0.000000
1.000000 0.301528 0.000000
1.000000 0.294233 0.000000
1.000000 0.286938 0.000000
0.000000 0.489678 0.000000
0.000000 0.482383 0.000000
0.000000 0.475088 0.000000
0.025544 0.467794 0.000000
0.128811 0.460499 0.000000
0.232079 0.453204 0.000000
0.335347 0.445909 0.000000
0.438614 0.438614 0.000000
0.541882 0.431319 0.000000
0.645150 0.424025 0.000000
0.748417 0.416730 0.000000
0.851685 0.409435 0.000000
0.954952 0.402140 0.000000
1.000000 0.394845 0.000000
1.000000 0.387550 0.000000
1.000000 0.380255 0.000000
1.000000 0.372961 0.000000
0.000000 0.575700 0.000000
0.000000 0.568405 0.000000
0.000000 0.561111 0.000000
0.001003 0.553816 0.000000
0.104271 0.546521 0.000000
0.207539 0.539226 0.000000
0.310806 0.531931 0.000000
0.414074 0.524636 0.000000
0.517342 0.517342 0.000000
0.620609 0.510047 0.000000
0.723877 0.502752 0.000000
0.827145 0.495457 0.000000
0.930412 0.488162 0.000000
1.000000 0.480867 0.000000
1.000000 0.473573 0.000000
1.000000 0.466278 0.000000
1.000000 0.458983 0.000000
0.000000 0.661722 0.000000
0.000000 0.654428 0.000000
0.000000 0.647133 0.000000
0.000000 0.639838 0.000000
0.079731 0.632543 0.000000
0.182998 0.625248 0.000000
0.286266 0.617953 0.000000
0.389534 0.610659 0.000000
0.492801 0.603364 0.000000
0.596069 0.596069 0.000000
0.699337 0.588774 0.000000
0.802604 0.581479 0.000000
0.905872 0.574184 0.000000
1.000000 0.566890 0.000000
1.000000 0.559595 0.000000
1.000000 0.552300 0.000000
1.000000 0.545005 0.000000
0.000000 0.747745 0.000000
0.000000 0.740450 0.000000
0.000000 0.733155 0.000000
0.000000 0.725860 0.000000
0.055190 0.718565 0.000000
0.158458 0.711270 0.000000
0.261726 0.703976 0.000000
0.364993 0.696681 0.000000
0.468261 0.689386 0.000000
0.571529 0.682091 0.000000
0.674796 0.674796 0.000000
0.778064 0.667501 0.000000
0.881332 0.660207 0.000000
0.984599 0.652912 0.000000
1.000000 0.645617 0.000000
1.000000 0.638322 0.000000
1.000000 0.631027 0.000000
0.000000 0.833767 0.000000
0.000000 0.826472 0.000000
0.000000 0.819177 0.000000
0.000000 0.811882 0.000000
0.030650 0.804587 0.000000
0.133918 0.797293 0.000000
0.237185 0.789998 0.000000
0.340453 0.782703 0.000000
0.443721 0.775408 0.000000
0.546988 0.768113 0.000000
0.650256 0.760818 0.000000
0.753524 0.753524 0.000000
0.856791 0.746229 0.000000
0.960059 0.738934 0.000000
1.000000 0.731639 0.000000
1.000000 0.724344 0.000000
1.000000 0.717049 0.000000
0.000000 0.919789 0.000000
0.000000 0.912494 0.000000
0.000000 0.905199 0.000000
0.000000 0.897905 0.000000
0.006110 0.890610 0.000000
0.109377 0.883315 0.000000
0.212645 0.876020 0.000000
0.315913 0.868725 0.000000
0.419180 0.861430 0.000000
0.522448 0.854136 0.000000
0.625716 0.846841 0.000000
0.728983 0.839546 0.000000
0.832251 0.832251 0.000000
0.935519 0.824956 0.000000
1.000000 0.817661 0.000000
1.000000 0.810366 0.000000
1.000000 0.803072 0.000000
0.000000 1.000000 0.000000
0.000000 0.998516 0.000000
0.000000 0.991222 0.000000
0.000000 0.983927 0.000000
0.000000 0.976632 0.000000
0.084837 0.969337 0.000000
0.188105 0.962042 0.000000
0.291372 0.954747 0.000000
0.394640 0.947453 0.000000
0.497908 0.940158 0.000000
0.601175 0.932863 0.000000
0.704443 0.925568 0.000000
0.807711 0.918273 0.000000
0.910978 0.910978 0.000000
1.000000 0.903684 0.000000
1.000000 0.896389 0.000000
1.000000 0.889094 0.000000
0.000000 1.000000 0.000000
0.000000 1.000000 0.000000
0.000000 1.000000 0.000000
0.000000 1.000000 0.000000
0.000000 1.000000 0.000000
0.060297 1.000000 0.000000
0.163564 1.000000 0.000000
0.266832 1.000000 0.000000
0.370100 1.000000 0.000000
0.473367 1.000000 0.000000
0.576635 1.000000 0.000000
0.679903 1.000000 0.000000
0.783170 1.000000 0.000000
0.886438 0.997001 0.000000
0.989706 0.989706 0.000000
1.000000 0.982411 0.000000
1.000000 0.975116 0.000000
0.000000 1.000000 0.000000
0.000000 1.000000 0.000000
0.000000 1.000000 0.000000
0.000000 1.000000 0.000000
0.000000 1.000000 0.000000
0.035756 1.000000 0.000000
0.139024 1.000000 0.000000
0.242292 1.000000 0.000000
0.345559 1.000000 0.000000
0.448827 1.000000 0.000000
0.552095 1.000000 0.000000
0.655362 1.000000 0.000000
0.758630 1.000000 0.000000
0.861898 1.000000 0.000000
0.965165 1.000000 0.000000
1.000000 1.000000 0.000000
1.000000 1.000000 0.000000
0.000000 1.000000 0.000000
0.000000 1.000000 0.000000
0.000000 1.000000 0.000000
0.000000 1.000000 0.000000
0.000000 1.000000 0.000000
0.011216 1.000000 0.000000
0.114484 1.000000 0.000000
0.217751 1.000000 0.000000
0.321019 1.000000 0.000000
0.424287 1.000000 0.000000
0.527554 1.000000 0.000000
0.630822 1.000000 0.000000
0.734090 1.000000 0.000000
0.837357 1.000000 0.000000
0.940625 1.000000 0.000000
1.000000 1.000000 0.000000
1.000000 1.000000 0.000000
0.000000 0.000000 0.106170
0.000000 0.000000 0.098875
0.091581 0.000000 0.091581
0.194848 0.000000 0.084286
0.298116 0.000000 0.076991
0.401384 0.000000 0.069696
0.504651 0.000000 0.062401
0.607919 0.000000 0.055106
0.711187 0.000000 0.047812
0.814454 0.000000 0.040517
0.917722 0.000000 0.033222
1.000000 0.000000 0.025927
1.000000 0.000000 0.018632
1.000000 0.000000 0.011337
1.000000 0.000000 0.004043
1.000000 0.000000 0.000000
1.000000 0.000000 0.000000
0.000000 0.000000 0.081630
0.000000 0.000000 0.074335
0.067040 0.000000 0.067040
0.170308 0.000000 0.059745
0.273576 0.000000 0.052451
0.376843 0.000000 0.045156
0.480111 0.000000 0.037861
0.583379 0.000000 0.030566
0.686646 0.000000 0.023271
0.789914 0.000000 0.015976
0.893182 0.000000 0.008682
0.996449 0.000000 0.001387
1.000000 0.000000 0.000000
1.000000 0.000000 0.000000
1.000000 0.000000 0.000000
1.000000 0.000000 0.000000
1.000000 0.000000 0.000000
0.000000 0.057090 0.057090
0.000000 0.049795 0.049795
0.042500 0.042500 0.042500
0.145768 0.035205 0.035205
0.249035 0.027910 0.027910
0.352303 0.020615 0.020615
0.455571 0.013321 0.013321
0.558838 0.006026 0.006026
0.662106 0.000000 0.000000
0.765374 0.000000 0.000000
0.868641 0.000000 0.000000
0.971909 0.000000 0.000000
1.000000 0.000000 0.000000
1.000000 0.000000 0.000000
1.000000 0.000000 0.000000
1.000000 0.000000 0.000000
1.000000 0.000000 0.000000
0.000000 0.143112 0.032549
0.000000 0.135817 0.025255
0.017960 0.128522 0.017960
0.121227 0.121227 0.010665
0.224495 0.113933 0.003370
0.327763 0.106638 0.000000
0.431030 0.099343 0.000000
0.534298 0.092048 0.000000
0.637566 0.084753 0.000000
0.740833 0.077458 0.000000
0.844101 0.070163 0.000000
0.947369 0.062869 0.000000
1.000000 0.055574 0.000000
1.000000 0.048279 0.000000
1.000000 0.040984 0.000000
1.000000 0.033689 0.000000
1.000000 0.026394 0.000000
0.000000 0.229134 0.008009
0.000000 0.221839 0.000714
0.000000 0.214544 0.000000
0.096687 0.207250 0.000000
0.199955 0.199955 0.000000
0.303222 0.192660 0.000000
0.406490 0.185365 0.000000
0.509758 0.178070 0.000000
0.613025 0.170775 0.000000
0.716293 0.163481 0.000000
0.819561 0.156186 0.000000
0.922828 0.148891 0.000000
1.000000 0.141596 0.000000
1.000000 0.134301 0.000000
1.000000 0.127006 0.000000
1.000000 0.119712 0.000000
1.000000 0.112417 0.000000
0.000000 0.315156 0.000000
0.000000 0.307861 0.000000
0.000000 0.300567 0.000000
0.072147 0.293272 0.000000
0.175414 0.285977 0.000000
0.278682 0.278682 0.000000
0.381950 0.271387 0.000000
0.485217 0.264092 0.000000
0.588485 0.256798 0.000000
0.691753 0.249503 0.000000
0.795020 0.242208 0.000000
0.898288 0.234913 0.000000
1.000000 0.227618 0.000000
1.000000 0.220323 0.000000
1.000000 0.213029 0.000000
1.000000 0.205734 0.000000
1.000000 0.198439 0.000000
0.000000 0.401178 0.000000
0.000000 0.393884 0.000000
0.000000 0.386589 0.000000
0.047606 0.379294 0.000000
0.150874 0.371999 0.000000
0.254142 0.364704 0.000000
0.357409 0.357409 0.000000
0.460677 0.350115 0.000000
0.563945 0.342820 0.000000
0.667212 0.335525 0.000000
0.770480 0.328230 0.000000
0.873748 0.320935 0.000000
0.977015 0.313640 0.000000
1.000000 0.306346 0.000000
1.000000 0.299051 0.000000
1.000000 0.291756 0.000000
1.000000 0.284461 0.000000
0.000000 0.487201 0.000000
0.000000 0.479906 0.000000
0.000000 0.472611 0.000000
0.023066 0.465316 0.000000
0.126334 0.458021 0.000000
0.229601 0.450726 0.000000
0.332869 0.443432 0.000000
0.436137 0.436137 0.000000
0.539404 0.428842 0.000000
0.642672 0.421547 0.000000
0.745940 0.414252 0.000000
0.849207 0.406957 0.000000
0.952475 0.399663 0.000000
1.000000 0.392368 0.000000
1.000000 0.385073 0.000000
1.000000 0.377778 0.000000
1.000000 0.370483 0.000000
0.000000 0.573223 0.000000
0.000000 0.565928 0.000000
0.000000 0.558633 0.000000
0.000000 0.551338 0.000000
0.101794 0.544044 0.000000
0.205061 0.536749 0.000000
0.308329 0.529454 0.000000
0.411597 0.522159 0.000000
0.514864 0.514864 0.000000
0.618132 0.507569 0.000000
0.721400 0.500275 0.000000
0.824667 0.492980 0.000000
0.927935 0.485685 0.000000
1.000000 0.478390 0.000000
1.000000 0.471095 0.000000
1.000000 0.463800 0.000000
1.000000 0.456505 0.000000
0.000000 0.659245 0.000000
0.000000 0.651950 0.000000
0.000000 0.644655 0.000000
0.000000 0.637361 0.000000
0.077253 0.630066 0.000000
0.180521 0.622771 0.000000
0.283789 0.615476 0.000000
0.387056 0.608181 0.000000
0.490324 0.600886 0.000000
0.593592 0.593592 0.000000
0.696859 0.586297 0.000000
0.800127 0.579002 0.000000
0.903395 0.571707 0.000000
1.000000 0.564412 0.000000
1.000000 0.557117 0.000000
1.000000 0.549823 0.000000
1.000000 0.542528 0.000000
0.000000 0.745267 0.000000
0.000000 0.737972 0.000000
0.000000 0.730678 0.000000
0.000000 0.723383 0.000000
0.052713 0.716088 0.000000
0.155981 0.708793 0.000000
0.259248 0.701498 0.000000
0.362516 0.694203 0.000000
0.465784 0.686909 0.000000
0.569051 0.679614 0.000000
0.672319 0.672319 0.000000
0.775587 0.665024 0.000000
0.878854 0.657729 0.000000
0.982122 0.650434 0.000000
1.000000 0.643140 0.000000
1.000000 0.635845 0.000000
1.000000 0.628550 0.000000
0.000000 0.831289 0.000000
0.000000 0.823995 0.000000
0.000000 0.816700 0.000000
0.000000 0.809405 0.000000
0.028173 0.802110 0.000000
0.131440 0.794815 0.000000
0.234708 0.787520 0.000000
0.337976 0.780226 0.000000
0.441243 0.772931 0.000000
0.544511 0.765636 0.000000
0.647779 0.758341 0.000000
0.751046 0.751046 0.000000
0.854314 0.743751 0.000000
0.957582 0.736457 0.000000
1.000000 0.729162 0.000000
1.000000 0.721867 0.000000
1.000000 0.714572 0.000000
0.000000 0.917312 0.000000
0.000000 0.910017 0.000000
0.000000 0.902722 0.000000
0.000000 0.895427 0.000000
0.003632 0.888132 0.000000
0.106900 0.880837 0.000000
0.210168 0.873543 0.000000
0.313435 0.866248 0.000000
0.416703 0.858953 0.000000
0.519971 0.851658 0.000000
0.623238 0.844363 0.000000
0.726506 0.837068 0.000000
0.829774 0.829774 0.000000
0.933041 0.822479 0.000000
1.000000 0.815184 0.000000
1.000000 0.807889 0.000000
1.000000 0.800594 0.000000
0.000000 1.000000 0.000000
0.000000 0.996039 0.000000
0.000000 0.988744 0.000000
0.000000 0.981449 0.000000
0.000000 0.974155 0.000000
0.082360 0.966860 0.000000
0.185627 0.959565 0.000000
0.288895 0.952270 0.000000
0.392163 0.944975 0.000000
0.495430 0.937680 0.000000
0.598698 0.930386 0.000000
0.701966 0.923091 0.000000
0.805233 0.915796 0.000000
0.908501 0.908501 0.000000
1.000000 0.901206 0.000000
1.000000 0.893911 0.000000
1.000000 0.886616 0.000000
0.000000 1.000000 0.000000
0.000000 1.000000 0.000000
0.000000 1.000000 0.000000
0.000000 1.000000 0.000000
0.000000 1.000000 0.000000
0.057819 1.000000 0.000000
0.161087 1.000000 0.000000
0.264355 1.000000 0.000000
0.367622 1.000000 0.000000
0.470890 1.000000 0.000000
0.574158 1.000000 0.000000
0.677425 1.000000 0.000000
0.780693 1.000000 0.000000
0.883961 0.994523 0.000000
0.987228 0.987228 0.000000
1.000000 0.979934 0.000000
1.000000 0.972639 0.000000
0.000000 1.000000 0.000000
0.000000 1.000000 0.000000
0.000000 1.000000 0.000000
0.000000 1.000000 0.000000
0.000000 1.000000 0.000000
0.033279 1.000000 0.000000
0.136547 1.000000 0.000000
0.239814 1.000000 0.000000
0.343082 1.000000 0.000000
0.446350 1.000000 0.000000
0.549617 1.000000 0.000000
0.652885 1.000000 0.000000
0.756153 1.000000 0.000000
0.859420 1.000000 0.000000
0.962688 1.000000 0.000000
1.000000 1.000000 0.000000
1.000000 1.000000 0.000000
0.000000 1.000000 0.000000
0.000000 1.000000 0.000000
0.000000 1.000000 0.000000
0.000000 1.000000 0.000000
0.000000 1.000000 0.000000
0.008739 1.000000 0.000000
0.112006 1.000000 0.000000
0.215274 1.000000 0.000000
0.318542 1.000000 0.000000
0.421809 1.000000 0.000000
0.525077 1.000000 0.000000
0.628345 1.000000 0.000000
0.731612 1.000000 0.000000
0.834880 1.000000 0.000000
0.938148 1.000000 0.000000
1.000000 1.000000 0.000000
1.000000 1.000000 0.000000
0.000000 0.000000 0.214255
0.000000 0.000000 0.206961
0.089103 0.000000 0.199666
0.192371 0.000000 0.192371
0.295639 0.000000 0.185076
0.398906 0.000000 0.177781
0.502174 0.000000 0.170486
0.605442 0.000000 0.163192
0.708709 0.000000 0.155897
0.811977 0.000000 0.148602
0.915245 0.000000 0.141307
1.000000 0.000000 0.134012
1.000000 0.000000 0.126717
1.000000 0.000000 0.119423
1.000000 0.000000 0.112128
1.000000 0.000000 0.104833
1.000000 0.000000 0.097538
0.000000 0.000000 0.189715
0.000000 0.000000 0.182420
