Packages/FeatureMedia/Sources/FeatureMedia/Resources/LUTs/vivid.cube
TITLE "Vivid"
LUT_3D_SIZE 5
DOMAIN_MIN 0.0 0.0 0.0
DOMAIN_MAX 1.0 1.0 1.0
0.000000 0.000000 0.000000
0.303071 0.000000 0.000000
0.716141 0.000000 0.000000
1.000000 0.000000 0.000000
1.000000 0.000000 0.000000
0.000000 0.234089 0.000000
0.204909 0.204909 0.000000
0.617980 0.175730 0.000000
1.000000 0.146551 0.000000
1.000000 0.117371 0.000000
0.000000 0.578178 0.000000
0.106748 0.548998 0.000000
0.519819 0.519819 0.000000
0.932890 0.490640 0.000000
1.000000 0.461460 0.000000
0.000000 0.922266 0.000000
0.008587 0.893087 0.000000
0.421658 0.863908 0.000000
0.834728 0.834728 0.000000
1.000000 0.805549 0.000000
0.000000 1.000000 0.000000
0.000000 1.000000 0.000000
0.323497 1.000000 0.000000
0.736567 1.000000 0.000000
1.000000 1.000000 0.000000
0.000000 0.000000 0.322341
0.293161 0.000000 0.293161
0.706232 0.000000 0.263982
1.000000 0.000000 0.234803
1.000000 0.000000 0.205623
0.000000 0.224179 0.224179
0.195000 0.195000 0.195000
0.608071 0.165821 0.165821
1.000000 0.136641 0.136641
1.000000 0.107462 0.107462
0.000000 0.568268 0.126018
0.096839 0.539089 0.096839
0.509909 0.509909 0.067659
0.922980 0.480730 0.038480
1.000000 0.451551 0.009301
0.000000 0.912357 0.027857
0.000000 0.883178 0.000000
0.411748 0.853998 0.000000
0.824819 0.824819 0.000000
1.000000 0.795640 0.000000
0.000000 1.000000 0.000000
0.000000 1.000000 0.000000
0.313587 1.000000 0.000000
0.726658 1.000000 0.000000
1.000000 1.000000 0.000000
0.000000 0.000000 0.754681
0.283252 0.000000 0.725502
0.696322 0.000000 0.696322
1.000000 0.000000 0.667143
1.000000 0.000000 0.637964
0.000000 0.214270 0.656520
0.185091 0.185091 0.627341
0.598161 0.155911 0.598161
1.000000 0.126732 0.568982
1.000000 0.097553 0.539802
0.000000 0.558359 0.558359
0.086929 0.529179 0.529179
0.500000 0.500000 0.500000
0.913071 0.470821 0.470821
1.000000 0.441641 0.441641
0.000000 0.902447 0.460197
0.000000 0.873268 0.431018
0.401839 0.844089 0.401839
0.814909 0.814909 0.372659
1.000000 0.785730 0.343480
0.000000 1.000000 0.362036
0.000000 1.000000 0.332857
0.303678 1.000000 0.303678
0.716748 1.000000 0.274498
1.000000 1.000000 0.245319
0.000000 0.000000 1.000000
0.273342 0.000000 1.000000
0.686413 0.000000 1.000000
1.000000 0.000000 1.000000
1.000000 0.000000 1.000000
0.000000 0.204360 1.000000
0.175181 0.175181 1.000000
0.588252 0.146002 1.000000
1.000000 0.116822 1.000000
1.000000 0.087643 0.972143
0.000000 0.548449 0.990699
0.077020 0.519270 0.961520
0.490091 0.490091 0.932341
0.903161 0.460911 0.903161
1.000000 0.431732 0.873982
0.000000 0.892538 0.892538
0.000000 0.863359 0.863359
0.391929 0.834179 0.834179
0.805000 0.805000 0.805000
1.000000 0.775821 0.775821
0.000000 1.000000 0.794377
0.000000 1.000000 0.765197
0.293768 1.000000 0.736018
0.706839 1.000000 0.706839
1.000000 1.000000 0.677659
0.000000 0.000000 1.000000
0.263433 0.000000 1.000000
0.676504 0.000000 1.000000
1.000000 0.000000 1.000000
1.000000 0.000000 1.000000
0.000000 0.194451 1.000000
0.165272 0.165272 1.000000
0.578342 0.136092 1.000000
0.991413 0.106913 1.000000
1.000000 0.077734 1.000000
0.000000 0.538540 1.000000
0.067110 0.509360 1.000000
0.480181 0.480181 1.000000
0.893252 0.451002 1.000000
1.000000 0.421822 1.000000
0.000000 0.882629 1.000000
0.000000 0.853449 1.000000
0.382020 0.824270 1.000000
0.795091 0.795091 1.000000
1.000000 0.765911 1.000000
0.000000 1.000000 1.000000
0.000000 1.000000 1.000000
0.283859 1.000000 1.000000
0.696929 1.000000 1.000000
1.000000 1.000000 1.000000
